android/app/src/main/assets/luts/bw@1.cube
# Editor for Immich, bw@1 (tool/make_luts.py)
LUT_3D_SIZE 17
0.0000 0.0000 0.0000
0.0133 0.0133 0.0133
0.0266 0.0266 0.0266
0.0399 0.0399 0.0399
0.0532 0.0532 0.0532
0.0664 0.0664 0.0664
0.0797 0.0797 0.0797
0.0930 0.0930 0.0930
0.1063 0.1063 0.1063
0.1196 0.1196 0.1196
0.1329 0.1329 0.1329
0.1462 0.1462 0.1462
0.1595 0.1595 0.1595
0.1727 0.1727 0.1727
0.1860 0.1860 0.1860
0.1993 0.1993 0.1993
0.2126 0.2126 0.2126
0.0447 0.0447 0.0447
0.0580 0.0580 0.0580
0.0713 0.0713 0.0713
0.0846 0.0846 0.0846
0.0978 0.0978 0.0978
0.1111 0.1111 0.1111
0.1244 0.1244 0.1244
0.1377 0.1377 0.1377
0.1510 0.1510 0.1510
0.1643 0.1643 0.1643
0.1776 0.1776 0.1776
0.1909 0.1909 0.1909
0.2041 0.2041 0.2041
0.2174 0.2174 0.2174
0.2307 0.2307 0.2307
0.2440 0.2440 0.2440
0.2573 0.2573 0.2573
0.0894 0.0894 0.0894
0.1027 0.1027 0.1027
0.1160 0.1160 0.1160
0.1293 0.1293 0.1293
0.1426 0.1426 0.1426
0.1558 0.1558 0.1558
0.1691 0.1691 0.1691
0.1824 0.1824 0.1824
0.1957 0.1957 0.1957
0.2090 0.2090 0.2090
0.2223 0.2223 0.2223
0.2356 0.2356 0.2356
0.2489 0.2489 0.2489
0.2621 0.2621 0.2621
0.2754 0.2754 0.2754
0.2887 0.2887 0.2887
0.3020 0.3020 0.3020
0.1341 0.1341 0.1341
0.1474 0.1474 0.1474
0.1607 0.1607 0.1607
0.1740 0.1740 0.1740
0.1872 0.1872 0.1872
0.2005 0.2005 0.2005
0.2138 0.2138 0.2138
0.2271 0.2271 0.2271
0.2404 0.2404 0.2404
0.2537 0.2537 0.2537
0.2670 0.2670 0.2670
0.2803 0.2803 0.2803
0.2935 0.2935 0.2935
0.3068 0.3068 0.3068
0.3201 0.3201 0.3201
0.3334 0.3334 0.3334
0.3467 0.3467 0.3467
0.1788 0.1788 0.1788
0.1921 0.1921 0.1921
0.2054 0.2054 0.2054
0.2187 0.2187 0.2187
0.2319 0.2319 0.2319
0.2452 0.2452 0.2452
0.2585 0.2585 0.2585
0.2718 0.2718 0.2718
0.2851 0.2851 0.2851
0.2984 0.2984 0.2984
0.3117 0.3117 0.3117
0.3250 0.3250 0.3250
0.3382 0.3382 0.3382
0.3515 0.3515 0.3515
0.3648 0.3648 0.3648
0.3781 0.3781 0.3781
0.3914 0.3914 0.3914
0.2235 0.2235 0.2235
0.2368 0.2368 0.2368
0.2501 0.2501 0.2501
0.2634 0.2634 0.2634
0.2766 0.2766 0.2766
0.2899 0.2899 0.2899
0.3032 0.3032 0.3032
0.3165 0.3165 0.3165
0.3298 0.3298 0.3298
0.3431 0.3431 0.3431
0.3564 0.3564 0.3564
0.3697 0.3697 0.3697
0.3830 0.3830 0.3830
0.3962 0.3962 0.3962
0.4095 0.4095 0.4095
0.4228 0.4228 0.4228
0.4361 0.4361 0.4361
0.2682 0.2682 0.2682
0.2815 0.2815 0.2815
0.2948 0.2948 0.2948
0.3081 0.3081 0.3081
0.3214 0.3214 0.3214
0.3346 0.3346 0.3346
0.3479 0.3479 0.3479
0.3612 0.3612 0.3612
0.3745 0.3745 0.3745
0.3878 0.3878 0.3878
0.4011 0.4011 0.4011
0.4144 0.4144 0.4144
0.4276 0.4276 0.4276
0.4409 0.4409 0.4409
0.4542 0.4542 0.4542
0.4675 0.4675 0.4675
0.4808 0.4808 0.4808
0.3129 0.3129 0.3129
0.3262 0.3262 0.3262
0.3395 0.3395 0.3395
0.3528 0.3528 0.3528
0.3660 0.3660 0.3660
0.3793 0.3793 0.3793
0.3926 0.3926 0.3926
0.4059 0.4059 0.4059
0.4192 0.4192 0.4192
0.4325 0.4325 0.4325
0.4458 0.4458 0.4458
0.4591 0.4591 0.4591
0.4723 0.4723 0.4723
0.4856 0.4856 0.4856
0.4989 0.4989 0.4989
0.5122 0.5122 0.5122
0.5255 0.5255 0.5255
0.3576 0.3576 0.3576
0.3709 0.3709 0.3709
0.3842 0.3842 0.3842
0.3975 0.3975 0.3975
0.4107 0.4107 0.4107
0.4240 0.4240 0.4240
0.4373 0.4373 0.4373
0.4506 0.4506 0.4506
0.4639 0.4639 0.4639
0.4772 0.4772 0.4772
0.4905 0.4905 0.4905
0.5038 0.5038 0.5038
0.5171 0.5171 0.5171
0.5303 0.5303 0.5303
0.5436 0.5436 0.5436
0.5569 0.5569 0.5569
0.5702 0.5702 0.5702
0.4023 0.4023 0.4023
0.4156 0.4156 0.4156
0.4289 0.4289 0.4289
0.4422 0.4422 0.4422
0.4555 0.4555 0.4555
0.4687 0.4687 0.4687
0.4820 0.4820 0.4820
0.4953 0.4953 0.4953
0.5086 0.5086 0.5086
0.5219 0.5219 0.5219
0.5352 0.5352 0.5352
0.5485 0.5485 0.5485
0.5617 0.5617 0.5617
0.5750 0.5750 0.5750
0.5883 0.5883 0.5883
0.6016 0.6016 0.6016
0.6149 0.6149 0.6149
0.4470 0.4470 0.4470
0.4603 0.4603 0.4603
0.4736 0.4736 0.4736
0.4869 0.4869 0.4869
0.5001 0.5001 0.5001
0.5134 0.5134 0.5134
0.5267 0.5267 0.5267
0.5400 0.5400 0.5400
0.5533 0.5533 0.5533
0.5666 0.5666 0.5666
0.5799 0.5799 0.5799
0.5932 0.5932 0.5932
0.6064 0.6064 0.6064
0.6197 0.6197 0.6197
0.6330 0.6330 0.6330
0.6463 0.6463 0.6463
0.6596 0.6596 0.6596
0.4917 0.4917 0.4917
0.5050 0.5050 0.5050
0.5183 0.5183 0.5183
0.5316 0.5316 0.5316
0.5448 0.5448 0.5448
0.5581 0.5581 0.5581
0.5714 0.5714 0.5714
0.5847 0.5847 0.5847
0.5980 0.5980 0.5980
0.6113 0.6113 0.6113
0.6246 0.6246 0.6246
0.6379 0.6379 0.6379
0.6512 0.6512 0.6512
0.6644 0.6644 0.6644
0.6777 0.6777 0.6777
0.6910 0.6910 0.6910
0.7043 0.7043 0.7043
0.5364 0.5364 0.5364
0.5497 0.5497 0.5497
0.5630 0.5630 0.5630
0.5763 0.5763 0.5763
0.5896 0.5896 0.5896
0.6028 0.6028 0.6028
0.6161 0.6161 0.6161
0.6294 0.6294 0.6294
0.6427 0.6427 0.6427
0.6560 0.6560 0.6560
0.6693 0.6693 0.6693
0.6826 0.6826 0.6826
0.6958 0.6958 0.6958
0.7091 0.7091 0.7091
0.7224 0.7224 0.7224
0.7357 0.7357 0.7357
0.7490 0.7490 0.7490
0.5811 0.5811 0.5811
0.5944 0.5944 0.5944
0.6077 0.6077 0.6077
0.6210 0.6210 0.6210
0.6342 0.6342 0.6342
0.6475 0.6475 0.6475
0.6608 0.6608 0.6608
0.6741 0.6741 0.6741
0.6874 0.6874 0.6874
0.7007 0.7007 0.7007
0.7140 0.7140 0.7140
0.7273 0.7273 0.7273
0.7405 0.7405 0.7405
0.7538 0.7538 0.7538
0.7671 0.7671 0.7671
0.7804 0.7804 0.7804
0.7937 0.7937 0.7937
0.6258 0.6258 0.6258
0.6391 0.6391 0.6391
0.6524 0.6524 0.6524
0.6657 0.6657 0.6657
0.6789 0.6789 0.6789
0.6922 0.6922 0.6922
0.7055 0.7055 0.7055
0.7188 0.7188 0.7188
0.7321 0.7321 0.7321
0.7454 0.7454 0.7454
0.7587 0.7587 0.7587
0.7720 0.7720 0.7720
0.7852 0.7852 0.7852
0.7985 0.7985 0.7985
0.8118 0.8118 0.8118
0.8251 0.8251 0.8251
0.8384 0.8384 0.8384
0.6705 0.6705 0.6705
0.6838 0.6838 0.6838
0.6971 0.6971 0.6971
0.7104 0.7104 0.7104
0.7237 0.7237 0.7237
0.7369 0.7369 0.7369
0.7502 0.7502 0.7502
0.7635 0.7635 0.7635
0.7768 0.7768 0.7768
0.7901 0.7901 0.7901
0.8034 0.8034 0.8034
0.8167 0.8167 0.8167
0.8299 0.8299 0.8299
0.8432 0.8432 0.8432
0.8565 0.8565 0.8565
0.8698 0.8698 0.8698
0.8831 0.8831 0.8831
0.7152 0.7152 0.7152
0.7285 0.7285 0.7285
0.7418 0.7418 0.7418
0.7551 0.7551 0.7551
0.7683 0.7683 0.7683
0.7816 0.7816 0.7816
0.7949 0.7949 0.7949
0.8082 0.8082 0.8082
0.8215 0.8215 0.8215
0.8348 0.8348 0.8348
0.8481 0.8481 0.8481
0.8614 0.8614 0.8614
0.8746 0.8746 0.8746
0.8879 0.8879 0.8879
0.9012 0.9012 0.9012
0.9145 0.9145 0.9145
0.9278 0.9278 0.9278
0.0045 0.0045 0.0045
0.0178 0.0178 0.0178
0.0311 0.0311 0.0311
0.0444 0.0444 0.0444
0.0577 0.0577 0.0577
0.0710 0.0710 0.0710
0.0842 0.0842 0.0842
0.0975 0.0975 0.0975
0.1108 0.1108 0.1108
0.1241 0.1241 0.1241
0.1374 0.1374 0.1374
0.1507 0.1507 0.1507
0.1640 0.1640 0.1640
0.1773 0.1773 0.1773
0.1905 0.1905 0.1905
0.2038 0.2038 0.2038
0.2171 0.2171 0.2171
0.0492 0.0492 0.0492
0.0625 0.0625 0.0625
0.0758 0.0758 0.0758
0.0891 0.0891 0.0891
0.1024 0.1024 0.1024
0.1157 0.1157 0.1157
0.1289 0.1289 0.1289
0.1422 0.1422 0.1422
0.1555 0.1555 0.1555
0.1688 0.1688 0.1688
0.1821 0.1821 0.1821
0.1954 0.1954 0.1954
0.2087 0.2087 0.2087
0.2220 0.2220 0.2220
0.2352 0.2352 0.2352
0.2485 0.2485 0.2485
0.2618 0.2618 0.2618
0.0939 0.0939 0.0939
0.1072 0.1072 0.1072
0.1205 0.1205 0.1205
0.1338 0.1338 0.1338
0.1471 0.1471 0.1471
0.1603 0.1603 0.1603
0.1736 0.1736 0.1736
0.1869 0.1869 0.1869
0.2002 0.2002 0.2002
0.2135 0.2135 0.2135
0.2268 0.2268 0.2268
0.2401 0.2401 0.2401
0.2534 0.2534 0.2534
0.2666 0.2666 0.2666
0.2799 0.2799 0.2799
0.2932 0.2932 0.2932
0.3065 0.3065 0.3065
0.1386 0.1386 0.1386
0.1519 0.1519 0.1519
0.1652 0.1652 0.1652
0.1785 0.1785 0.1785
0.1918 0.1918 0.1918
0.2051 0.2051 0.2051
0.2183 0.2183 0.2183
0.2316 0.2316 0.2316
0.2449 0.2449 0.2449
0.2582 0.2582 0.2582
0.2715 0.2715 0.2715
0.2848 0.2848 0.2848
0.2981 0.2981 0.2981
0.3113 0.3113 0.3113
0.3246 0.3246 0.3246
0.3379 0.3379 0.3379
0.3512 0.3512 0.3512
0.1833 0.1833 0.1833
0.1966 0.1966 0.1966
0.2099 0.2099 0.2099
0.2232 0.2232 0.2232
0.2365 0.2365 0.2365
0.2497 0.2497 0.2497
0.2630 0.2630 0.2630
0.2763 0.2763 0.2763
0.2896 0.2896 0.2896
0.3029 0.3029 0.3029
0.3162 0.3162 0.3162
0.3295 0.3295 0.3295
0.3428 0.3428 0.3428
0.3560 0.3560 0.3560
0.3693 0.3693 0.3693
0.3826 0.3826 0.3826
0.3959 0.3959 0.3959
0.2280 0.2280 0.2280
0.2413 0.2413 0.2413
0.2546 0.2546 0.2546
0.2679 0.2679 0.2679
0.2812 0.2812 0.2812
0.2944 0.2944 0.2944
0.3077 0.3077 0.3077
0.3210 0.3210 0.3210
0.3343 0.3343 0.3343
0.3476 0.3476 0.3476
0.3609 0.3609 0.3609
0.3742 0.3742 0.3742
0.3875 0.3875 0.3875
0.4007 0.4007 0.4007
0.4140 0.4140 0.4140
0.4273 0.4273 0.4273
0.4406 0.4406 0.4406
0.2727 0.2727 0.2727
0.2860 0.2860 0.2860
0.2993 0.2993 0.2993
0.3126 0.3126 0.3126
0.3259 0.3259 0.3259
0.3391 0.3391 0.3391
0.3524 0.3524 0.3524
0.3657 0.3657 0.3657
0.3790 0.3790 0.3790
0.3923 0.3923 0.3923
0.4056 0.4056 0.4056
0.4189 0.4189 0.4189
0.4322 0.4322 0.4322
0.4454 0.4454 0.4454
0.4587 0.4587 0.4587
0.4720 0.4720 0.4720
0.4853 0.4853 0.4853
0.3174 0.3174 0.3174
0.3307 0.3307 0.3307
0.3440 0.3440 0.3440
0.3573 0.3573 0.3573
0.3706 0.3706 0.3706
0.3838 0.3838 0.3838
0.3971 0.3971 0.3971
0.4104 0.4104 0.4104
0.4237 0.4237 0.4237
0.4370 0.4370 0.4370
0.4503 0.4503 0.4503
0.4636 0.4636 0.4636
0.4769 0.4769 0.4769
0.4901 0.4901 0.4901
0.5034 0.5034 0.5034
0.5167 0.5167 0.5167
0.5300 0.5300 0.5300
0.3621 0.3621 0.3621
0.3754 0.3754 0.3754
0.3887 0.3887 0.3887
0.4020 0.4020 0.4020
0.4153 0.4153 0.4153
0.4285 0.4285 0.4285
0.4418 0.4418 0.4418
0.4551 0.4551 0.4551
0.4684 0.4684 0.4684
0.4817 0.4817 0.4817
0.4950 0.4950 0.4950
0.5083 0.5083 0.5083
0.5216 0.5216 0.5216
0.5349 0.5349 0.5349
0.5481 0.5481 0.5481
0.5614 0.5614 0.5614
0.5747 0.5747 0.5747
0.4068 0.4068 0.4068
0.4201 0.4201 0.4201
0.4334 0.4334 0.4334
0.4467 0.4467 0.4467
0.4600 0.4600 0.4600
0.4732 0.4732 0.4732
0.4865 0.4865 0.4865
0.4998 0.4998 0.4998
0.5131 0.5131 0.5131
0.5264 0.5264 0.5264
0.5397 0.5397 0.5397
0.5530 0.5530 0.5530
0.5663 0.5663 0.5663
0.5796 0.5796 0.5796
0.5928 0.5928 0.5928
0.6061 0.6061 0.6061
0.6194 0.6194 0.6194
0.4515 0.4515 0.4515
0.4648 0.4648 0.4648
0.4781 0.4781 0.4781
0.4914 0.4914 0.4914
0.5047 0.5047 0.5047
0.5180 0.5180 0.5180
0.5312 0.5312 0.5312
0.5445 0.5445 0.5445
0.5578 0.5578 0.5578
0.5711 0.5711 0.5711
0.5844 0.5844 0.5844
0.5977 0.5977 0.5977
0.6110 0.6110 0.6110
0.6242 0.6242 0.6242
0.6375 0.6375 0.6375
0.6508 0.6508 0.6508
0.6641 0.6641 0.6641
0.4962 0.4962 0.4962
0.5095 0.5095 0.5095
0.5228 0.5228 0.5228
0.5361 0.5361 0.5361
0.5494 0.5494 0.5494
0.5626 0.5626 0.5626
0.5759 0.5759 0.5759
0.5892 0.5892 0.5892
0.6025 0.6025 0.6025
0.6158 0.6158 0.6158
0.6291 0.6291 0.6291
0.6424 0.6424 0.6424
0.6557 0.6557 0.6557
0.6690 0.6690 0.6690
0.6822 0.6822 0.6822
0.6955 0.6955 0.6955
0.7088 0.7088 0.7088
0.5409 0.5409 0.5409
0.5542 0.5542 0.5542
0.5675 0.5675 0.5675
0.5808 0.5808 0.5808
0.5941 0.5941 0.5941
0.6074 0.6074 0.6074
0.6206 0.6206 0.6206
0.6339 0.6339 0.6339
0.6472 0.6472 0.6472
0.6605 0.6605 0.6605
0.6738 0.6738 0.6738
0.6871 0.6871 0.6871
0.7004 0.7004 0.7004
0.7137 0.7137 0.7137
0.7269 0.7269 0.7269
0.7402 0.7402 0.7402
0.7535 0.7535 0.7535
0.5856 0.5856 0.5856
0.5989 0.5989 0.5989
0.6122 0.6122 0.6122
0.6255 0.6255 0.6255
0.6388 0.6388 0.6388
0.6521 0.6521 0.6521
0.6653 0.6653 0.6653
0.6786 0.6786 0.6786
0.6919 0.6919 0.6919
0.7052 0.7052 0.7052
0.7185 0.7185 0.7185
0.7318 0.7318 0.7318
0.7451 0.7451 0.7451
0.7583 0.7583 0.7583
0.7716 0.7716 0.7716
0.7849 0.7849 0.7849
0.7982 0.7982 0.7982
0.6303 0.6303 0.6303
0.6436 0.6436 0.6436
0.6569 0.6569 0.6569
0.6702 0.6702 0.6702
0.6835 0.6835 0.6835
0.6967 0.6967 0.6967
0.7100 0.7100 0.7100
0.7233 0.7233 0.7233
0.7366 0.7366 0.7366
0.7499 0.7499 0.7499
0.7632 0.7632 0.7632
0.7765 0.7765 0.7765
0.7898 0.7898 0.7898
0.8030 0.8030 0.8030
0.8163 0.8163 0.8163
0.8296 0.8296 0.8296
0.8429 0.8429 0.8429
0.6750 0.6750 0.6750
0.6883 0.6883 0.6883
0.7016 0.7016 0.7016
0.7149 0.7149 0.7149
0.7282 0.7282 0.7282
0.7415 0.7415 0.7415
0.7547 0.7547 0.7547
0.7680 0.7680 0.7680
0.7813 0.7813 0.7813
0.7946 0.7946 0.7946
0.8079 0.8079 0.8079
0.8212 0.8212 0.8212
0.8345 0.8345 0.8345
0.8478 0.8478 0.8478
0.8610 0.8610 0.8610
0.8743 0.8743 0.8743
0.8876 0.8876 0.8876
0.7197 0.7197 0.7197
0.7330 0.7330 0.7330
0.7463 0.7463 0.7463
0.7596 0.7596 0.7596
0.7729 0.7729 0.7729
0.7862 0.7862 0.7862
0.7994 0.7994 0.7994
0.8127 0.8127 0.8127
0.8260 0.8260 0.8260
0.8393 0.8393 0.8393
0.8526 0.8526 0.8526
0.8659 0.8659 0.8659
0.8792 0.8792 0.8792
0.8924 0.8924 0.8924
0.9057 0.9057 0.9057
0.9190 0.9190 0.9190
0.9323 0.9323 0.9323
0.0090 0.0090 0.0090
0.0223 0.0223 0.0223
0.0356 0.0356 0.0356
0.0489 0.0489 0.0489
0.0622 0.0622 0.0622
0.0755 0.0755 0.0755
0.0888 0.0888 0.0888
0.1020 0.1020 0.1020
0.1153 0.1153 0.1153
0.1286 0.1286 0.1286
0.1419 0.1419 0.1419
0.1552 0.1552 0.1552
0.1685 0.1685 0.1685
0.1818 0.1818 0.1818
0.1951 0.1951 0.1951
0.2083 0.2083 0.2083
0.2216 0.2216 0.2216
0.0537 0.0537 0.0537
0.0670 0.0670 0.0670
0.0803 0.0803 0.0803
0.0936 0.0936 0.0936
0.1069 0.1069 0.1069
0.1202 0.1202 0.1202
0.1335 0.1335 0.1335
0.1467 0.1467 0.1467
0.1600 0.1600 0.1600
0.1733 0.1733 0.1733
0.1866 0.1866 0.1866
0.1999 0.1999 0.1999
0.2132 0.2132 0.2132
0.2265 0.2265 0.2265
0.2398 0.2398 0.2398
0.2530 0.2530 0.2530
0.2663 0.2663 0.2663
0.0984 0.0984 0.0984
0.1117 0.1117 0.1117
0.1250 0.1250 0.1250
0.1383 0.1383 0.1383
0.1516 0.1516 0.1516
0.1649 0.1649 0.1649
0.1782 0.1782 0.1782
0.1914 0.1914 0.1914
0.2047 0.2047 0.2047
0.2180 0.2180 0.2180
0.2313 0.2313 0.2313
0.2446 0.2446 0.2446
0.2579 0.2579 0.2579
0.2712 0.2712 0.2712
0.2845 0.2845 0.2845
0.2977 0.2977 0.2977
0.3110 0.3110 0.3110
0.1431 0.1431 0.1431
0.1564 0.1564 0.1564
0.1697 0.1697 0.1697
0.1830 0.1830 0.1830
0.1963 0.1963 0.1963
0.2096 0.2096 0.2096
0.2228 0.2228 0.2228
0.2361 0.2361 0.2361
0.2494 0.2494 0.2494
0.2627 0.2627 0.2627
0.2760 0.2760 0.2760
0.2893 0.2893 0.2893
0.3026 0.3026 0.3026
0.3159 0.3159 0.3159
0.3291 0.3291 0.3291
0.3424 0.3424 0.3424
0.3557 0.3557 0.3557
0.1878 0.1878 0.1878
0.2011 0.2011 0.2011
0.2144 0.2144 0.2144
0.2277 0.2277 0.2277
0.2410 0.2410 0.2410
0.2543 0.2543 0.2543
0.2676 0.2676 0.2676
0.2808 0.2808 0.2808
0.2941 0.2941 0.2941
0.3074 0.3074 0.3074
0.3207 0.3207 0.3207
0.3340 0.3340 0.3340
0.3473 0.3473 0.3473
0.3606 0.3606 0.3606
0.3739 0.3739 0.3739
0.3871 0.3871 0.3871
0.4004 0.4004 0.4004
0.2325 0.2325 0.2325
0.2458 0.2458 0.2458
0.2591 0.2591 0.2591
0.2724 0.2724 0.2724
0.2857 0.2857 0.2857
0.2990 0.2990 0.2990
0.3122 0.3122 0.3122
0.3255 0.3255 0.3255
0.3388 0.3388 0.3388
0.3521 0.3521 0.3521
0.3654 0.3654 0.3654
0.3787 0.3787 0.3787
0.3920 0.3920 0.3920
0.4053 0.4053 0.4053
0.4185 0.4185 0.4185
0.4318 0.4318 0.4318
0.4451 0.4451 0.4451
0.2772 0.2772 0.2772
0.2905 0.2905 0.2905
0.3038 0.3038 0.3038
0.3171 0.3171 0.3171
0.3304 0.3304 0.3304
0.3437 0.3437 0.3437
0.3569 0.3569 0.3569
0.3702 0.3702 0.3702
0.3835 0.3835 0.3835
0.3968 0.3968 0.3968
0.4101 0.4101 0.4101
0.4234 0.4234 0.4234
0.4367 0.4367 0.4367
0.4500 0.4500 0.4500
0.4632 0.4632 0.4632
0.4765 0.4765 0.4765
0.4898 0.4898 0.4898
0.3219 0.3219 0.3219
0.3352 0.3352 0.3352
0.3485 0.3485 0.3485
0.3618 0.3618 0.3618
0.3751 0.3751 0.3751
0.3884 0.3884 0.3884
0.4016 0.4016 0.4016
0.4149 0.4149 0.4149
0.4282 0.4282 0.4282
0.4415 0.4415 0.4415
0.4548 0.4548 0.4548
0.4681 0.4681 0.4681
0.4814 0.4814 0.4814
0.4947 0.4947 0.4947
0.5079 0.5079 0.5079
0.5212 0.5212 0.5212
0.5345 0.5345 0.5345
0.3666 0.3666 0.3666
0.3799 0.3799 0.3799
0.3932 0.3932 0.3932
0.4065 0.4065 0.4065
0.4198 0.4198 0.4198
0.4331 0.4331 0.4331
0.4463 0.4463 0.4463
0.4596 0.4596 0.4596
0.4729 0.4729 0.4729
0.4862 0.4862 0.4862
0.4995 0.4995 0.4995
0.5128 0.5128 0.5128
0.5261 0.5261 0.5261
0.5394 0.5394 0.5394
0.5526 0.5526 0.5526
0.5659 0.5659 0.5659
0.5792 0.5792 0.5792
0.4113 0.4113 0.4113
0.4246 0.4246 0.4246
0.4379 0.4379 0.4379
0.4512 0.4512 0.4512
0.4645 0.4645 0.4645
0.4778 0.4778 0.4778
0.4910 0.4910 0.4910
0.5043 0.5043 0.5043
0.5176 0.5176 0.5176
0.5309 0.5309 0.5309
0.5442 0.5442 0.5442
0.5575 0.5575 0.5575
0.5708 0.5708 0.5708
0.5841 0.5841 0.5841
0.5973 0.5973 0.5973
0.6106 0.6106 0.6106
0.6239 0.6239 0.6239
0.4560 0.4560 0.4560
0.4693 0.4693 0.4693
0.4826 0.4826 0.4826
0.4959 0.4959 0.4959
0.5092 0.5092 0.5092
0.5225 0.5225 0.5225
0.5357 0.5357 0.5357
0.5490 0.5490 0.5490
0.5623 0.5623 0.5623
0.5756 0.5756 0.5756
0.5889 0.5889 0.5889
0.6022 0.6022 0.6022
0.6155 0.6155 0.6155
0.6288 0.6288 0.6288
0.6420 0.6420 0.6420
0.6553 0.6553 0.6553
0.6686 0.6686 0.6686
0.5007 0.5007 0.5007
0.5140 0.5140 0.5140
0.5273 0.5273 0.5273
0.5406 0.5406 0.5406
0.5539 0.5539 0.5539
0.5672 0.5672 0.5672
0.5804 0.5804 0.5804
0.5937 0.5937 0.5937
0.6070 0.6070 0.6070
0.6203 0.6203 0.6203
0.6336 0.6336 0.6336
0.6469 0.6469 0.6469
0.6602 0.6602 0.6602
0.6735 0.6735 0.6735
0.6867 0.6867 0.6867
0.7000 0.7000 0.7000
0.7133 0.7133 0.7133
0.5454 0.5454 0.5454
0.5587 0.5587 0.5587
0.5720 0.5720 0.5720
0.5853 0.5853 0.5853
0.5986 0.5986 0.5986
0.6119 0.6119 0.6119
0.6251 0.6251 0.6251
0.6384 0.6384 0.6384
0.6517 0.6517 0.6517
0.6650 0.6650 0.6650
0.6783 0.6783 0.6783
0.6916 0.6916 0.6916
0.7049 0.7049 0.7049
0.7182 0.7182 0.7182
0.7314 0.7314 0.7314
0.7447 0.7447 0.7447
0.7580 0.7580 0.7580
0.5901 0.5901 0.5901
0.6034 0.6034 0.6034
0.6167 0.6167 0.6167
0.6300 0.6300 0.6300
0.6433 0.6433 0.6433
0.6566 0.6566 0.6566
0.6698 0.6698 0.6698
0.6831 0.6831 0.6831
0.6964 0.6964 0.6964
0.7097 0.7097 0.7097
0.7230 0.7230 0.7230
0.7363 0.7363 0.7363
0.7496 0.7496 0.7496
0.7629 0.7629 0.7629
0.7761 0.7761 0.7761
0.7894 0.7894 0.7894
0.8027 0.8027 0.8027
0.6348 0.6348 0.6348
0.6481 0.6481 0.6481
0.6614 0.6614 0.6614
0.6747 0.6747 0.6747
0.6880 0.6880 0.6880
0.7013 0.7013 0.7013
0.7145 0.7145 0.7145
0.7278 0.7278 0.7278
0.7411 0.7411 0.7411
0.7544 0.7544 0.7544
0.7677 0.7677 0.7677
0.7810 0.7810 0.7810
0.7943 0.7943 0.7943
0.8076 0.8076 0.8076
0.8208 0.8208 0.8208
0.8341 0.8341 0.8341
0.8474 0.8474 0.8474
0.6795 0.6795 0.6795
0.6928 0.6928 0.6928
0.7061 0.7061 0.7061
0.7194 0.7194 0.7194
0.7327 0.7327 0.7327
0.7460 0.7460 0.7460
0.7592 0.7592 0.7592
0.7725 0.7725 0.7725
0.7858 0.7858 0.7858
0.7991 0.7991 0.7991
0.8124 0.8124 0.8124
0.8257 0.8257 0.8257
0.8390 0.8390 0.8390
0.8523 0.8523 0.8523
0.8655 0.8655 0.8655
0.8788 0.8788 0.8788
0.8921 0.8921 0.8921
0.7242 0.7242 0.7242
0.7375 0.7375 0.7375
0.7508 0.7508 0.7508
0.7641 0.7641 0.7641
0.7774 0.7774 0.7774
0.7907 0.7907 0.7907
0.8039 0.8039 0.8039
0.8172 0.8172 0.8172
0.8305 0.8305 0.8305
0.8438 0.8438 0.8438
0.8571 0.8571 0.8571
0.8704 0.8704 0.8704
0.8837 0.8837 0.8837
0.8970 0.8970 0.8970
0.9102 0.9102 0.9102
0.9235 0.9235 0.9235
0.9368 0.9368 0.9368
0.0135 0.0135 0.0135
0.0268 0.0268 0.0268
0.0401 0.0401 0.0401
0.0534 0.0534 0.0534
0.0667 0.0667 0.0667
0.0800 0.0800 0.0800
0.0933 0.0933 0.0933
0.1065 0.1065 0.1065
0.1198 0.1198 0.1198
0.1331 0.1331 0.1331
0.1464 0.1464 0.1464
0.1597 0.1597 0.1597
0.1730 0.1730 0.1730
0.1863 0.1863 0.1863
0.1996 0.1996 0.1996
0.2129 0.2129 0.2129
0.2261 0.2261 0.2261
0.0582 0.0582 0.0582
0.0715 0.0715 0.0715
0.0848 0.0848 0.0848
0.0981 0.0981 0.0981
0.1114 0.1114 0.1114
0.1247 0.1247 0.1247
0.1380 0.1380 0.1380
0.1513 0.1513 0.1513
0.1645 0.1645 0.1645
0.1778 0.1778 0.1778
0.1911 0.1911 0.1911
0.2044 0.2044 0.2044
0.2177 0.2177 0.2177
0.2310 0.2310 0.2310
0.2443 0.2443 0.2443
0.2576 0.2576 0.2576
