android/app/src/main/assets/luts/bw@1.cube
# Editor for Immich, bw@1 (tool/make_luts.py)
LUT_3D_SIZE 9
0.0000 0.0000 0.0000
0.0266 0.0266 0.0266
0.0532 0.0532 0.0532
0.0797 0.0797 0.0797
0.1063 0.1063 0.1063
0.1329 0.1329 0.1329
0.1595 0.1595 0.1595
0.1860 0.1860 0.1860
0.2126 0.2126 0.2126
0.0894 0.0894 0.0894
0.1160 0.1160 0.1160
0.1426 0.1426 0.1426
0.1691 0.1691 0.1691
0.1957 0.1957 0.1957
0.2223 0.2223 0.2223
0.2489 0.2489 0.2489
0.2754 0.2754 0.2754
0.3020 0.3020 0.3020
0.1788 0.1788 0.1788
0.2054 0.2054 0.2054
0.2319 0.2319 0.2319
0.2585 0.2585 0.2585
0.2851 0.2851 0.2851
0.3117 0.3117 0.3117
0.3382 0.3382 0.3382
0.3648 0.3648 0.3648
0.3914 0.3914 0.3914
0.2682 0.2682 0.2682
0.2948 0.2948 0.2948
0.3214 0.3214 0.3214
0.3479 0.3479 0.3479
0.3745 0.3745 0.3745
0.4011 0.4011 0.4011
0.4276 0.4276 0.4276
0.4542 0.4542 0.4542
0.4808 0.4808 0.4808
0.3576 0.3576 0.3576
0.3842 0.3842 0.3842
0.4107 0.4107 0.4107
0.4373 0.4373 0.4373
0.4639 0.4639 0.4639
0.4905 0.4905 0.4905
0.5171 0.5171 0.5171
0.5436 0.5436 0.5436
0.5702 0.5702 0.5702
0.4470 0.4470 0.4470
0.4736 0.4736 0.4736
0.5001 0.5001 0.5001
0.5267 0.5267 0.5267
0.5533 0.5533 0.5533
0.5799 0.5799 0.5799
0.6064 0.6064 0.6064
0.6330 0.6330 0.6330
0.6596 0.6596 0.6596
0.5364 0.5364 0.5364
0.5630 0.5630 0.5630
0.5896 0.5896 0.5896
0.6161 0.6161 0.6161
0.6427 0.6427 0.6427
0.6693 0.6693 0.6693
0.6958 0.6958 0.6958
0.7224 0.7224 0.7224
0.7490 0.7490 0.7490
0.6258 0.6258 0.6258
0.6524 0.6524 0.6524
0.6789 0.6789 0.6789
0.7055 0.7055 0.7055
0.7321 0.7321 0.7321
0.7587 0.7587 0.7587
0.7852 0.7852 0.7852
0.8118 0.8118 0.8118
0.8384 0.8384 0.8384
0.7152 0.7152 0.7152
0.7418 0.7418 0.7418
0.7683 0.7683 0.7683
0.7949 0.7949 0.7949
0.8215 0.8215 0.8215
0.8481 0.8481 0.8481
0.8746 0.8746 0.8746
0.9012 0.9012 0.9012
0.9278 0.9278 0.9278
0.0090 0.0090 0.0090
0.0356 0.0356 0.0356
0.0622 0.0622 0.0622
0.0888 0.0888 0.0888
0.1153 0.1153 0.1153
0.1419 0.1419 0.1419
0.1685 0.1685 0.1685
0.1951 0.1951 0.1951
0.2216 0.2216 0.2216
0.0984 0.0984 0.0984
0.1250 0.1250 0.1250
0.1516 0.1516 0.1516
0.1782 0.1782 0.1782
0.2047 0.2047 0.2047
0.2313 0.2313 0.2313
0.2579 0.2579 0.2579
0.2845 0.2845 0.2845
0.3110 0.3110 0.3110
0.1878 0.1878 0.1878
0.2144 0.2144 0.2144
0.2410 0.2410 0.2410
0.2676 0.2676 0.2676
0.2941 0.2941 0.2941
0.3207 0.3207 0.3207
0.3473 0.3473 0.3473
0.3739 0.3739 0.3739
0.4004 0.4004 0.4004
0.2772 0.2772 0.2772
0.3038 0.3038 0.3038
0.3304 0.3304 0.3304
0.3569 0.3569 0.3569
0.3835 0.3835 0.3835
0.4101 0.4101 0.4101
0.4367 0.4367 0.4367
0.4632 0.4632 0.4632
0.4898 0.4898 0.4898
0.3666 0.3666 0.3666
0.3932 0.3932 0.3932
0.4198 0.4198 0.4198
0.4463 0.4463 0.4463
0.4729 0.4729 0.4729
0.4995 0.4995 0.4995
0.5261 0.5261 0.5261
0.5526 0.5526 0.5526
0.5792 0.5792 0.5792
0.4560 0.4560 0.4560
0.4826 0.4826 0.4826
0.5092 0.5092 0.5092
0.5357 0.5357 0.5357
0.5623 0.5623 0.5623
0.5889 0.5889 0.5889
0.6155 0.6155 0.6155
0.6420 0.6420 0.6420
0.6686 0.6686 0.6686
0.5454 0.5454 0.5454
0.5720 0.5720 0.5720
0.5986 0.5986 0.5986
0.6251 0.6251 0.6251
0.6517 0.6517 0.6517
0.6783 0.6783 0.6783
0.7049 0.7049 0.7049
0.7314 0.7314 0.7314
0.7580 0.7580 0.7580
0.6348 0.6348 0.6348
0.6614 0.6614 0.6614
0.6880 0.6880 0.6880
0.7145 0.7145 0.7145
0.7411 0.7411 0.7411
0.7677 0.7677 0.7677
0.7943 0.7943 0.7943
0.8208 0.8208 0.8208
0.8474 0.8474 0.8474
0.7242 0.7242 0.7242
0.7508 0.7508 0.7508
0.7774 0.7774 0.7774
0.8039 0.8039 0.8039
0.8305 0.8305 0.8305
0.8571 0.8571 0.8571
0.8837 0.8837 0.8837
0.9102 0.9102 0.9102
0.9368 0.9368 0.9368
0.0181 0.0181 0.0181
0.0446 0.0446 0.0446
0.0712 0.0712 0.0712
0.0978 0.0978 0.0978
0.1244 0.1244 0.1244
0.1509 0.1509 0.1509
0.1775 0.1775 0.1775
0.2041 0.2041 0.2041
0.2307 0.2307 0.2307
0.1074 0.1074 0.1074
0.1340 0.1340 0.1340
0.1606 0.1606 0.1606
0.1872 0.1872 0.1872
0.2137 0.2137 0.2137
0.2403 0.2403 0.2403
0.2669 0.2669 0.2669
0.2935 0.2935 0.2935
0.3201 0.3201 0.3201
0.1968 0.1968 0.1968
0.2234 0.2234 0.2234
0.2500 0.2500 0.2500
0.2766 0.2766 0.2766
0.3032 0.3032 0.3032
0.3297 0.3297 0.3297
0.3563 0.3563 0.3563
0.3829 0.3829 0.3829
0.4094 0.4094 0.4094
0.2863 0.2863 0.2863
0.3128 0.3128 0.3128
0.3394 0.3394 0.3394
0.3660 0.3660 0.3660
0.3926 0.3926 0.3926
0.4191 0.4191 0.4191
0.4457 0.4457 0.4457
0.4723 0.4723 0.4723
0.4989 0.4989 0.4989
0.3756 0.3756 0.3756
0.4022 0.4022 0.4022
0.4288 0.4288 0.4288
0.4554 0.4554 0.4554
0.4819 0.4819 0.4819
0.5085 0.5085 0.5085
0.5351 0.5351 0.5351
0.5617 0.5617 0.5617
0.5883 0.5883 0.5883
0.4650 0.4650 0.4650
0.4916 0.4916 0.4916
0.5182 0.5182 0.5182
0.5448 0.5448 0.5448
0.5713 0.5713 0.5713
0.5979 0.5979 0.5979
0.6245 0.6245 0.6245
0.6511 0.6511 0.6511
0.6776 0.6776 0.6776
0.5544 0.5544 0.5544
0.5810 0.5810 0.5810
0.6076 0.6076 0.6076
0.6342 0.6342 0.6342
0.6608 0.6608 0.6608
0.6873 0.6873 0.6873
0.7139 0.7139 0.7139
0.7405 0.7405 0.7405
0.7671 0.7671 0.7671
0.6438 0.6438 0.6438
0.6704 0.6704 0.6704
0.6970 0.6970 0.6970
0.7236 0.7236 0.7236
0.7501 0.7501 0.7501
0.7767 0.7767 0.7767
0.8033 0.8033 0.8033
0.8299 0.8299 0.8299
0.8564 0.8564 0.8564
0.7332 0.7332 0.7332
0.7598 0.7598 0.7598
0.7864 0.7864 0.7864
0.8130 0.8130 0.8130
0.8395 0.8395 0.8395
0.8661 0.8661 0.8661
0.8927 0.8927 0.8927
0.9193 0.9193 0.9193
0.9458 0.9458 0.9458
0.0271 0.0271 0.0271
0.0537 0.0537 0.0537
0.0802 0.0802 0.0802
0.1068 0.1068 0.1068
0.1334 0.1334 0.1334
0.1600 0.1600 0.1600
0.1865 0.1865 0.1865
0.2131 0.2131 0.2131
0.2397 0.2397 0.2397
0.1165 0.1165 0.1165
0.1430 0.1430 0.1430
0.1696 0.1696 0.1696
0.1962 0.1962 0.1962
0.2228 0.2228 0.2228
0.2493 0.2493 0.2493
0.2759 0.2759 0.2759
0.3025 0.3025 0.3025
0.3291 0.3291 0.3291
0.2059 0.2059 0.2059
0.2324 0.2324 0.2324
0.2590 0.2590 0.2590
0.2856 0.2856 0.2856
0.3122 0.3122 0.3122
0.3387 0.3387 0.3387
0.3653 0.3653 0.3653
0.3919 0.3919 0.3919
0.4185 0.4185 0.4185
0.2953 0.2953 0.2953
0.3219 0.3219 0.3219
0.3484 0.3484 0.3484
0.3750 0.3750 0.3750
0.4016 0.4016 0.4016
0.4282 0.4282 0.4282
0.4547 0.4547 0.4547
0.4813 0.4813 0.4813
0.5079 0.5079 0.5079
0.3847 0.3847 0.3847
0.4113 0.4113 0.4113
0.4378 0.4378 0.4378
0.4644 0.4644 0.4644
0.4910 0.4910 0.4910
0.5175 0.5175 0.5175
0.5441 0.5441 0.5441
0.5707 0.5707 0.5707
0.5973 0.5973 0.5973
0.4741 0.4741 0.4741
0.5006 0.5006 0.5006
0.5272 0.5272 0.5272
0.5538 0.5538 0.5538
0.5804 0.5804 0.5804
0.6069 0.6069 0.6069
0.6335 0.6335 0.6335
0.6601 0.6601 0.6601
0.6867 0.6867 0.6867
0.5635 0.5635 0.5635
0.5900 0.5900 0.5900
0.6166 0.6166 0.6166
0.6432 0.6432 0.6432
0.6698 0.6698 0.6698
0.6963 0.6963 0.6963
0.7229 0.7229 0.7229
0.7495 0.7495 0.7495
0.7761 0.7761 0.7761
0.6529 0.6529 0.6529
0.6794 0.6794 0.6794
0.7060 0.7060 0.7060
0.7326 0.7326 0.7326
0.7592 0.7592 0.7592
0.7857 0.7857 0.7857
0.8123 0.8123 0.8123
0.8389 0.8389 0.8389
0.8655 0.8655 0.8655
0.7423 0.7423 0.7423
0.7688 0.7688 0.7688
0.7954 0.7954 0.7954
0.8220 0.8220 0.8220
0.8486 0.8486 0.8486
0.8751 0.8751 0.8751
0.9017 0.9017 0.9017
0.9283 0.9283 0.9283
0.9549 0.9549 0.9549
0.0361 0.0361 0.0361
0.0627 0.0627 0.0627
0.0892 0.0892 0.0892
0.1158 0.1158 0.1158
0.1424 0.1424 0.1424
0.1690 0.1690 0.1690
0.1956 0.1956 0.1956
0.2221 0.2221 0.2221
0.2487 0.2487 0.2487
0.1255 0.1255 0.1255
0.1521 0.1521 0.1521
0.1787 0.1787 0.1787
0.2052 0.2052 0.2052
0.2318 0.2318 0.2318
0.2584 0.2584 0.2584
0.2850 0.2850 0.2850
0.3115 0.3115 0.3115
0.3381 0.3381 0.3381
0.2149 0.2149 0.2149
0.2415 0.2415 0.2415
0.2681 0.2681 0.2681
0.2946 0.2946 0.2946
0.3212 0.3212 0.3212
0.3478 0.3478 0.3478
0.3744 0.3744 0.3744
0.4009 0.4009 0.4009
0.4275 0.4275 0.4275
0.3043 0.3043 0.3043
0.3309 0.3309 0.3309
0.3575 0.3575 0.3575
0.3840 0.3840 0.3840
0.4106 0.4106 0.4106
0.4372 0.4372 0.4372
0.4637 0.4637 0.4637
0.4903 0.4903 0.4903
0.5169 0.5169 0.5169
0.3937 0.3937 0.3937
0.4203 0.4203 0.4203
0.4468 0.4468 0.4468
0.4734 0.4734 0.4734
0.5000 0.5000 0.5000
0.5266 0.5266 0.5266
0.5532 0.5532 0.5532
0.5797 0.5797 0.5797
0.6063 0.6063 0.6063
0.4831 0.4831 0.4831
0.5097 0.5097 0.5097
0.5363 0.5363 0.5363
0.5628 0.5628 0.5628
0.5894 0.5894 0.5894
0.6160 0.6160 0.6160
0.6425 0.6425 0.6425
0.6691 0.6691 0.6691
0.6957 0.6957 0.6957
0.5725 0.5725 0.5725
0.5991 0.5991 0.5991
0.6257 0.6257 0.6257
0.6522 0.6522 0.6522
0.6788 0.6788 0.6788
0.7054 0.7054 0.7054
0.7319 0.7319 0.7319
0.7585 0.7585 0.7585
0.7851 0.7851 0.7851
0.6619 0.6619 0.6619
0.6885 0.6885 0.6885
0.7150 0.7150 0.7150
0.7416 0.7416 0.7416
0.7682 0.7682 0.7682
0.7948 0.7948 0.7948
0.8213 0.8213 0.8213
0.8479 0.8479 0.8479
0.8745 0.8745 0.8745
0.7513 0.7513 0.7513
0.7779 0.7779 0.7779
0.8044 0.8044 0.8044
0.8310 0.8310 0.8310
0.8576 0.8576 0.8576
0.8842 0.8842 0.8842
0.9107 0.9107 0.9107
0.9373 0.9373 0.9373
0.9639 0.9639 0.9639
0.0451 0.0451 0.0451
0.0717 0.0717 0.0717
0.0983 0.0983 0.0983
0.1249 0.1249 0.1249
0.1514 0.1514 0.1514
0.1780 0.1780 0.1780
0.2046 0.2046 0.2046
0.2311 0.2311 0.2311
0.2577 0.2577 0.2577
0.1345 0.1345 0.1345
0.1611 0.1611 0.1611
0.1877 0.1877 0.1877
0.2142 0.2142 0.2142
0.2408 0.2408 0.2408
0.2674 0.2674 0.2674
0.2940 0.2940 0.2940
0.3206 0.3206 0.3206
0.3471 0.3471 0.3471
0.2239 0.2239 0.2239
0.2505 0.2505 0.2505
0.2771 0.2771 0.2771
0.3037 0.3037 0.3037
0.3302 0.3302 0.3302
0.3568 0.3568 0.3568
0.3834 0.3834 0.3834
0.4100 0.4100 0.4100
0.4365 0.4365 0.4365
0.3133 0.3133 0.3133
0.3399 0.3399 0.3399
0.3665 0.3665 0.3665
0.3931 0.3931 0.3931
0.4196 0.4196 0.4196
0.4462 0.4462 0.4462
0.4728 0.4728 0.4728
0.4994 0.4994 0.4994
0.5259 0.5259 0.5259
0.4027 0.4027 0.4027
0.4293 0.4293 0.4293
0.4559 0.4559 0.4559
0.4824 0.4824 0.4824
0.5090 0.5090 0.5090
0.5356 0.5356 0.5356
0.5622 0.5622 0.5622
0.5887 0.5887 0.5887
0.6153 0.6153 0.6153
0.4921 0.4921 0.4921
0.5187 0.5187 0.5187
0.5453 0.5453 0.5453
0.5718 0.5718 0.5718
0.5984 0.5984 0.5984
0.6250 0.6250 0.6250
0.6516 0.6516 0.6516
0.6781 0.6781 0.6781
0.7047 0.7047 0.7047
0.5815 0.5815 0.5815
0.6081 0.6081 0.6081
0.6347 0.6347 0.6347
0.6613 0.6613 0.6613
0.6878 0.6878 0.6878
0.7144 0.7144 0.7144
0.7410 0.7410 0.7410
0.7675 0.7675 0.7675
0.7941 0.7941 0.7941
0.6709 0.6709 0.6709
0.6975 0.6975 0.6975
0.7241 0.7241 0.7241
0.7506 0.7506 0.7506
0.7772 0.7772 0.7772
0.8038 0.8038 0.8038
0.8304 0.8304 0.8304
0.8569 0.8569 0.8569
0.8835 0.8835 0.8835
0.7603 0.7603 0.7603
0.7869 0.7869 0.7869
0.8135 0.8135 0.8135
0.8400 0.8400 0.8400
0.8666 0.8666 0.8666
0.8932 0.8932 0.8932
0.9198 0.9198 0.9198
0.9463 0.9463 0.9463
0.9729 0.9729 0.9729
0.0542 0.0542 0.0542
0.0807 0.0807 0.0807
0.1073 0.1073 0.1073
0.1339 0.1339 0.1339
0.1605 0.1605 0.1605
0.1870 0.1870 0.1870
0.2136 0.2136 0.2136
0.2402 0.2402 0.2402
0.2667 0.2667 0.2667
0.1435 0.1435 0.1435
0.1701 0.1701 0.1701
0.1967 0.1967 0.1967
0.2233 0.2233 0.2233
0.2498 0.2498 0.2498
0.2764 0.2764 0.2764
0.3030 0.3030 0.3030
0.3296 0.3296 0.3296
0.3561 0.3561 0.3561
0.2329 0.2329 0.2329
0.2595 0.2595 0.2595
0.2861 0.2861 0.2861
0.3127 0.3127 0.3127
0.3392 0.3392 0.3392
0.3658 0.3658 0.3658
0.3924 0.3924 0.3924
0.4190 0.4190 0.4190
0.4455 0.4455 0.4455
0.3223 0.3223 0.3223
0.3489 0.3489 0.3489
0.3755 0.3755 0.3755
0.4021 0.4021 0.4021
0.4286 0.4286 0.4286
0.4552 0.4552 0.4552
0.4818 0.4818 0.4818
0.5084 0.5084 0.5084
0.5350 0.5350 0.5350
0.4117 0.4117 0.4117
0.4383 0.4383 0.4383
0.4649 0.4649 0.4649
0.4915 0.4915 0.4915
0.5181 0.5181 0.5181
0.5446 0.5446 0.5446
0.5712 0.5712 0.5712
0.5978 0.5978 0.5978
0.6244 0.6244 0.6244
0.5011 0.5011 0.5011
0.5277 0.5277 0.5277
0.5543 0.5543 0.5543
0.5809 0.5809 0.5809
0.6074 0.6074 0.6074
0.6340 0.6340 0.6340
0.6606 0.6606 0.6606
0.6872 0.6872 0.6872
0.7137 0.7137 0.7137
0.5906 0.5906 0.5906
0.6171 0.6171 0.6171
0.6437 0.6437 0.6437
0.6703 0.6703 0.6703
0.6969 0.6969 0.6969
0.7234 0.7234 0.7234
0.7500 0.7500 0.7500
0.7766 0.7766 0.7766
0.8032 0.8032 0.8032
0.6799 0.6799 0.6799
0.7065 0.7065 0.7065
0.7331 0.7331 0.7331
0.7597 0.7597 0.7597
0.7863 0.7863 0.7863
0.8128 0.8128 0.8128
0.8394 0.8394 0.8394
0.8660 0.8660 0.8660
0.8925 0.8925 0.8925
0.7693 0.7693 0.7693
0.7959 0.7959 0.7959
0.8225 0.8225 0.8225
0.8491 0.8491 0.8491
0.8756 0.8756 0.8756
0.9022 0.9022 0.9022
0.9288 0.9288 0.9288
0.9554 0.9554 0.9554
0.9819 0.9819 0.9819
0.0632 0.0632 0.0632
0.0897 0.0897 0.0897
0.1163 0.1163 0.1163
0.1429 0.1429 0.1429
0.1695 0.1695 0.1695
0.1961 0.1961 0.1961
0.2226 0.2226 0.2226
0.2492 0.2492 0.2492
0.2758 0.2758 0.2758
0.1526 0.1526 0.1526
0.1792 0.1792 0.1792
0.2057 0.2057 0.2057
0.2323 0.2323 0.2323
0.2589 0.2589 0.2589
0.2854 0.2854 0.2854
0.3120 0.3120 0.3120
0.3386 0.3386 0.3386
0.3652 0.3652 0.3652
0.2420 0.2420 0.2420
0.2685 0.2685 0.2685
0.2951 0.2951 0.2951
0.3217 0.3217 0.3217
0.3483 0.3483 0.3483
0.3748 0.3748 0.3748
0.4014 0.4014 0.4014
0.4280 0.4280 0.4280
0.4546 0.4546 0.4546
0.3314 0.3314 0.3314
0.3579 0.3579 0.3579
0.3845 0.3845 0.3845
0.4111 0.4111 0.4111
0.4377 0.4377 0.4377
0.4642 0.4642 0.4642
0.4908 0.4908 0.4908
0.5174 0.5174 0.5174
0.5440 0.5440 0.5440
0.4208 0.4208 0.4208
0.4473 0.4473 0.4473
0.4739 0.4739 0.4739
0.5005 0.5005 0.5005
0.5271 0.5271 0.5271
0.5536 0.5536 0.5536
0.5802 0.5802 0.5802
0.6068 0.6068 0.6068
0.6334 0.6334 0.6334
0.5102 0.5102 0.5102
0.5367 0.5367 0.5367
0.5633 0.5633 0.5633
0.5899 0.5899 0.5899
0.6165 0.6165 0.6165
0.6430 0.6430 0.6430
0.6696 0.6696 0.6696
0.6962 0.6962 0.6962
0.7228 0.7228 0.7228
0.5996 0.5996 0.5996
0.6261 0.6261 0.6261
0.6527 0.6527 0.6527
0.6793 0.6793 0.6793
0.7059 0.7059 0.7059
0.7324 0.7324 0.7324
0.7590 0.7590 0.7590
0.7856 0.7856 0.7856
0.8122 0.8122 0.8122
0.6890 0.6890 0.6890
0.7155 0.7155 0.7155
0.7421 0.7421 0.7421
0.7687 0.7687 0.7687
0.7953 0.7953 0.7953
0.8218 0.8218 0.8218
0.8484 0.8484 0.8484
0.8750 0.8750 0.8750
0.9016 0.9016 0.9016
0.7784 0.7784 0.7784
0.8049 0.8049 0.8049
0.8315 0.8315 0.8315
0.8581 0.8581 0.8581
0.8847 0.8847 0.8847
0.9112 0.9112 0.9112
0.9378 0.9378 0.9378
0.9644 0.9644 0.9644
0.9910 0.9910 0.9910
0.0722 0.0722 0.0722
0.0988 0.0988 0.0988
0.1254 0.1254 0.1254
0.1519 0.1519 0.1519
0.1785 0.1785 0.1785
0.2051 0.2051 0.2051
0.2317 0.2317 0.2317
0.2582 0.2582 0.2582
0.2848 0.2848 0.2848
0.1616 0.1616 0.1616
0.1882 0.1882 0.1882
0.2147 0.2147 0.2147
0.2413 0.2413 0.2413
0.2679 0.2679 0.2679
0.2945 0.2945 0.2945
0.3211 0.3211 0.3211
0.3476 0.3476 0.3476
0.3742 0.3742 0.3742
0.2510 0.2510 0.2510
0.2776 0.2776 0.2776
0.3041 0.3041 0.3041
0.3307 0.3307 0.3307
0.3573 0.3573 0.3573
0.3839 0.3839 0.3839
0.4104 0.4104 0.4104
0.4370 0.4370 0.4370
0.4636 0.4636 0.4636
0.3404 0.3404 0.3404
0.3670 0.3670 0.3670
0.3936 0.3936 0.3936
0.4201 0.4201 0.4201
0.4467 0.4467 0.4467
0.4733 0.4733 0.4733
0.4998 0.4998 0.4998
0.5264 0.5264 0.5264
0.5530 0.5530 0.5530
0.4298 0.4298 0.4298
0.4564 0.4564 0.4564
0.4829 0.4829 0.4829
0.5095 0.5095 0.5095
0.5361 0.5361 0.5361
0.5627 0.5627 0.5627
0.5893 0.5893 0.5893
0.6158 0.6158 0.6158
0.6424 0.6424 0.6424
0.5192 0.5192 0.5192
0.5458 0.5458 0.5458
0.5724 0.5724 0.5724
0.5989 0.5989 0.5989
0.6255 0.6255 0.6255
0.6521 0.6521 0.6521
0.6786 0.6786 0.6786
0.7052 0.7052 0.7052
0.7318 0.7318 0.7318
0.6086 0.6086 0.6086
0.6352 0.6352 0.6352
0.6618 0.6618 0.6618
0.6883 0.6883 0.6883
0.7149 0.7149 0.7149
0.7415 0.7415 0.7415
0.7681 0.7681 0.7681
0.7946 0.7946 0.7946
0.8212 0.8212 0.8212
0.6980 0.6980 0.6980
0.7246 0.7246 0.7246
0.7511 0.7511 0.7511
0.7777 0.7777 0.7777
0.8043 0.8043 0.8043
0.8309 0.8309 0.8309
0.8574 0.8574 0.8574
0.8840 0.8840 0.8840
0.9106 0.9106 0.9106
0.7874 0.7874 0.7874
0.8140 0.8140 0.8140
0.8406 0.8406 0.8406
0.8671 0.8671 0.8671
0.8937 0.8937 0.8937
0.9203 0.9203 0.9203
0.9468 0.9468 0.9468
0.9734 0.9734 0.9734
1.0000 1.0000 1.0000
