android/app/src/main/assets/luts/bw@1.cube
# Editor for Immich, bw@1 (tool/make_luts.py)
LUT_3D_SIZE 5
0.0000 0.0000 0.0000
0.0532 0.0532 0.0532
0.1063 0.1063 0.1063
0.1595 0.1595 0.1595
0.2126 0.2126 0.2126
0.1788 0.1788 0.1788
0.2319 0.2319 0.2319
0.2851 0.2851 0.2851
0.3382 0.3382 0.3382
0.3914 0.3914 0.3914
0.3576 0.3576 0.3576
0.4107 0.4107 0.4107
0.4639 0.4639 0.4639
0.5171 0.5171 0.5171
0.5702 0.5702 0.5702
0.5364 0.5364 0.5364
0.5896 0.5896 0.5896
0.6427 0.6427 0.6427
0.6958 0.6958 0.6958
0.7490 0.7490 0.7490
0.7152 0.7152 0.7152
0.7683 0.7683 0.7683
0.8215 0.8215 0.8215
0.8746 0.8746 0.8746
0.9278 0.9278 0.9278
0.0181 0.0181 0.0181
0.0712 0.0712 0.0712
0.1244 0.1244 0.1244
0.1775 0.1775 0.1775
0.2307 0.2307 0.2307
0.1968 0.1968 0.1968
0.2500 0.2500 0.2500
0.3032 0.3032 0.3032
0.3563 0.3563 0.3563
0.4094 0.4094 0.4094
0.3756 0.3756 0.3756
0.4288 0.4288 0.4288
0.4819 0.4819 0.4819
0.5351 0.5351 0.5351
0.5883 0.5883 0.5883
0.5544 0.5544 0.5544
0.6076 0.6076 0.6076
0.6608 0.6608 0.6608
0.7139 0.7139 0.7139
0.7671 0.7671 0.7671
0.7332 0.7332 0.7332
0.7864 0.7864 0.7864
0.8395 0.8395 0.8395
0.8927 0.8927 0.8927
0.9458 0.9458 0.9458
0.0361 0.0361 0.0361
0.0892 0.0892 0.0892
0.1424 0.1424 0.1424
0.1956 0.1956 0.1956
0.2487 0.2487 0.2487
0.2149 0.2149 0.2149
0.2681 0.2681 0.2681
0.3212 0.3212 0.3212
0.3744 0.3744 0.3744
0.4275 0.4275 0.4275
0.3937 0.3937 0.3937
0.4468 0.4468 0.4468
0.5000 0.5000 0.5000
0.5532 0.5532 0.5532
0.6063 0.6063 0.6063
0.5725 0.5725 0.5725
0.6257 0.6257 0.6257
0.6788 0.6788 0.6788
0.7319 0.7319 0.7319
0.7851 0.7851 0.7851
0.7513 0.7513 0.7513
0.8044 0.8044 0.8044
0.8576 0.8576 0.8576
0.9107 0.9107 0.9107
0.9639 0.9639 0.9639
0.0542 0.0542 0.0542
0.1073 0.1073 0.1073
0.1605 0.1605 0.1605
0.2136 0.2136 0.2136
0.2667 0.2667 0.2667
0.2329 0.2329 0.2329
0.2861 0.2861 0.2861
0.3392 0.3392 0.3392
0.3924 0.3924 0.3924
0.4455 0.4455 0.4455
0.4117 0.4117 0.4117
0.4649 0.4649 0.4649
0.5181 0.5181 0.5181
0.5712 0.5712 0.5712
0.6244 0.6244 0.6244
0.5906 0.5906 0.5906
0.6437 0.6437 0.6437
0.6969 0.6969 0.6969
0.7500 0.7500 0.7500
0.8032 0.8032 0.8032
0.7693 0.7693 0.7693
0.8225 0.8225 0.8225
0.8756 0.8756 0.8756
0.9288 0.9288 0.9288
0.9819 0.9819 0.9819
0.0722 0.0722 0.0722
0.1254 0.1254 0.1254
0.1785 0.1785 0.1785
0.2317 0.2317 0.2317
0.2848 0.2848 0.2848
0.2510 0.2510 0.2510
0.3041 0.3041 0.3041
0.3573 0.3573 0.3573
0.4104 0.4104 0.4104
0.4636 0.4636 0.4636
0.4298 0.4298 0.4298
0.4829 0.4829 0.4829
0.5361 0.5361 0.5361
0.5893 0.5893 0.5893
0.6424 0.6424 0.6424
0.6086 0.6086 0.6086
0.6618 0.6618 0.6618
0.7149 0.7149 0.7149
0.7681 0.7681 0.7681
0.8212 0.8212 0.8212
0.7874 0.7874 0.7874
0.8406 0.8406 0.8406
0.8937 0.8937 0.8937
0.9468 0.9468 0.9468
1.0000 1.0000 1.0000
