android/app/src/main/assets/luts/cool@1.cube
# Editor for Immich, cool@1 (tool/make_luts.py)
LUT_3D_SIZE 5
0.0000 0.0000 0.0000
0.2369 0.0000 0.0000
0.4762 0.0000 0.0000
0.7154 0.0000 0.0000
0.9547 0.0000 0.0000
0.0000 0.2500 0.0000
0.2369 0.2500 0.0000
0.4762 0.2500 0.0000
0.7154 0.2500 0.0000
0.9547 0.2500 0.0000
0.0000 0.5000 0.0000
0.2369 0.5000 0.0000
0.4762 0.5000 0.0000
0.7154 0.5000 0.0000
0.9547 0.5000 0.0000
0.0000 0.7500 0.0000
0.2369 0.7500 0.0000
0.4762 0.7500 0.0000
0.7154 0.7500 0.0000
0.9547 0.7500 0.0000
0.0000 1.0000 0.0000
0.2369 1.0000 0.0000
0.4762 1.0000 0.0000
0.7154 1.0000 0.0000
0.9547 1.0000 0.0000
0.0000 0.0000 0.2624
0.2369 0.0000 0.2624
0.4762 0.0000 0.2624
0.7154 0.0000 0.2624
0.9547 0.0000 0.2624
0.0000 0.2500 0.2624
0.2369 0.2500 0.2624
0.4762 0.2500 0.2624
0.7154 0.2500 0.2624
0.9547 0.2500 0.2624
0.0000 0.5000 0.2624
0.2369 0.5000 0.2624
0.4762 0.5000 0.2624
0.7154 0.5000 0.2624
0.9547 0.5000 0.2624
0.0000 0.7500 0.2624
0.2369 0.7500 0.2624
0.4762 0.7500 0.2624
0.7154 0.7500 0.2624
0.9547 0.7500 0.2624
0.0000 1.0000 0.2624
0.2369 1.0000 0.2624
0.4762 1.0000 0.2624
0.7154 1.0000 0.2624
0.9547 1.0000 0.2624
0.0000 0.0000 0.5225
0.2369 0.0000 0.5225
0.4762 0.0000 0.5225
0.7154 0.0000 0.5225
0.9547 0.0000 0.5225
0.0000 0.2500 0.5225
0.2369 0.2500 0.5225
0.4762 0.2500 0.5225
0.7154 0.2500 0.5225
0.9547 0.2500 0.5225
0.0000 0.5000 0.5225
0.2369 0.5000 0.5225
0.4762 0.5000 0.5225
0.7154 0.5000 0.5225
0.9547 0.5000 0.5225
0.0000 0.7500 0.5225
0.2369 0.7500 0.5225
0.4762 0.7500 0.5225
0.7154 0.7500 0.5225
0.9547 0.7500 0.5225
0.0000 1.0000 0.5225
0.2369 1.0000 0.5225
0.4762 1.0000 0.5225
0.7154 1.0000 0.5225
0.9547 1.0000 0.5225
0.0000 0.0000 0.7826
0.2369 0.0000 0.7826
0.4762 0.0000 0.7826
0.7154 0.0000 0.7826
0.9547 0.0000 0.7826
0.0000 0.2500 0.7826
0.2369 0.2500 0.7826
0.4762 0.2500 0.7826
0.7154 0.2500 0.7826
0.9547 0.2500 0.7826
0.0000 0.5000 0.7826
0.2369 0.5000 0.7826
0.4762 0.5000 0.7826
0.7154 0.5000 0.7826
0.9547 0.5000 0.7826
0.0000 0.7500 0.7826
0.2369 0.7500 0.7826
0.4762 0.7500 0.7826
0.7154 0.7500 0.7826
0.9547 0.7500 0.7826
0.0000 1.0000 0.7826
0.2369 1.0000 0.7826
0.4762 1.0000 0.7826
0.7154 1.0000 0.7826
0.9547 1.0000 0.7826
0.0000 0.0000 1.0000
0.2369 0.0000 1.0000
0.4762 0.0000 1.0000
0.7154 0.0000 1.0000
0.9547 0.0000 1.0000
0.0000 0.2500 1.0000
0.2369 0.2500 1.0000
0.4762 0.2500 1.0000
0.7154 0.2500 1.0000
0.9547 0.2500 1.0000
0.0000 0.5000 1.0000
0.2369 0.5000 1.0000
0.4762 0.5000 1.0000
0.7154 0.5000 1.0000
0.9547 0.5000 1.0000
0.0000 0.7500 1.0000
0.2369 0.7500 1.0000
0.4762 0.7500 1.0000
0.7154 0.7500 1.0000
0.9547 0.7500 1.0000
0.0000 1.0000 1.0000
0.2369 1.0000 1.0000
0.4762 1.0000 1.0000
0.7154 1.0000 1.0000
0.9547 1.0000 1.0000
