android/app/src/main/assets/luts/cool@1.cube
# Editor for Immich, cool@1 (tool/make_luts.py)
LUT_3D_SIZE 17
0.0000 0.0000 0.0000
0.0575 0.0000 0.0000
0.1173 0.0000 0.0000
0.1771 0.0000 0.0000
0.2369 0.0000 0.0000
0.2967 0.0000 0.0000
0.3565 0.0000 0.0000
0.4163 0.0000 0.0000
0.4762 0.0000 0.0000
0.5360 0.0000 0.0000
0.5958 0.0000 0.0000
0.6556 0.0000 0.0000
0.7154 0.0000 0.0000
0.7752 0.0000 0.0000
0.8351 0.0000 0.0000
0.8949 0.0000 0.0000
0.9547 0.0000 0.0000
0.0000 0.0625 0.0000
0.0575 0.0625 0.0000
0.1173 0.0625 0.0000
0.1771 0.0625 0.0000
0.2369 0.0625 0.0000
0.2967 0.0625 0.0000
0.3565 0.0625 0.0000
0.4163 0.0625 0.0000
0.4762 0.0625 0.0000
0.5360 0.0625 0.0000
0.5958 0.0625 0.0000
0.6556 0.0625 0.0000
0.7154 0.0625 0.0000
0.7752 0.0625 0.0000
0.8351 0.0625 0.0000
0.8949 0.0625 0.0000
0.9547 0.0625 0.0000
0.0000 0.1250 0.0000
0.0575 0.1250 0.0000
0.1173 0.1250 0.0000
0.1771 0.1250 0.0000
0.2369 0.1250 0.0000
0.2967 0.1250 0.0000
0.3565 0.1250 0.0000
0.4163 0.1250 0.0000
0.4762 0.1250 0.0000
0.5360 0.1250 0.0000
0.5958 0.1250 0.0000
0.6556 0.1250 0.0000
0.7154 0.1250 0.0000
0.7752 0.1250 0.0000
0.8351 0.1250 0.0000
0.8949 0.1250 0.0000
0.9547 0.1250 0.0000
0.0000 0.1875 0.0000
0.0575 0.1875 0.0000
0.1173 0.1875 0.0000
0.1771 0.1875 0.0000
0.2369 0.1875 0.0000
0.2967 0.1875 0.0000
0.3565 0.1875 0.0000
0.4163 0.1875 0.0000
0.4762 0.1875 0.0000
0.5360 0.1875 0.0000
0.5958 0.1875 0.0000
0.6556 0.1875 0.0000
0.7154 0.1875 0.0000
0.7752 0.1875 0.0000
0.8351 0.1875 0.0000
0.8949 0.1875 0.0000
0.9547 0.1875 0.0000
0.0000 0.2500 0.0000
0.0575 0.2500 0.0000
0.1173 0.2500 0.0000
0.1771 0.2500 0.0000
0.2369 0.2500 0.0000
0.2967 0.2500 0.0000
0.3565 0.2500 0.0000
0.4163 0.2500 0.0000
0.4762 0.2500 0.0000
0.5360 0.2500 0.0000
0.5958 0.2500 0.0000
0.6556 0.2500 0.0000
0.7154 0.2500 0.0000
0.7752 0.2500 0.0000
0.8351 0.2500 0.0000
0.8949 0.2500 0.0000
0.9547 0.2500 0.0000
0.0000 0.3125 0.0000
0.0575 0.3125 0.0000
0.1173 0.3125 0.0000
0.1771 0.3125 0.0000
0.2369 0.3125 0.0000
0.2967 0.3125 0.0000
0.3565 0.3125 0.0000
0.4163 0.3125 0.0000
0.4762 0.3125 0.0000
0.5360 0.3125 0.0000
0.5958 0.3125 0.0000
0.6556 0.3125 0.0000
0.7154 0.3125 0.0000
0.7752 0.3125 0.0000
0.8351 0.3125 0.0000
0.8949 0.3125 0.0000
0.9547 0.3125 0.0000
0.0000 0.3750 0.0000
0.0575 0.3750 0.0000
0.1173 0.3750 0.0000
0.1771 0.3750 0.0000
0.2369 0.3750 0.0000
0.2967 0.3750 0.0000
0.3565 0.3750 0.0000
0.4163 0.3750 0.0000
0.4762 0.3750 0.0000
0.5360 0.3750 0.0000
0.5958 0.3750 0.0000
0.6556 0.3750 0.0000
0.7154 0.3750 0.0000
0.7752 0.3750 0.0000
0.8351 0.3750 0.0000
0.8949 0.3750 0.0000
0.9547 0.3750 0.0000
0.0000 0.4375 0.0000
0.0575 0.4375 0.0000
0.1173 0.4375 0.0000
0.1771 0.4375 0.0000
0.2369 0.4375 0.0000
0.2967 0.4375 0.0000
0.3565 0.4375 0.0000
0.4163 0.4375 0.0000
0.4762 0.4375 0.0000
0.5360 0.4375 0.0000
0.5958 0.4375 0.0000
0.6556 0.4375 0.0000
0.7154 0.4375 0.0000
0.7752 0.4375 0.0000
0.8351 0.4375 0.0000
0.8949 0.4375 0.0000
0.9547 0.4375 0.0000
0.0000 0.5000 0.0000
0.0575 0.5000 0.0000
0.1173 0.5000 0.0000
0.1771 0.5000 0.0000
0.2369 0.5000 0.0000
0.2967 0.5000 0.0000
0.3565 0.5000 0.0000
0.4163 0.5000 0.0000
0.4762 0.5000 0.0000
0.5360 0.5000 0.0000
0.5958 0.5000 0.0000
0.6556 0.5000 0.0000
0.7154 0.5000 0.0000
0.7752 0.5000 0.0000
0.8351 0.5000 0.0000
0.8949 0.5000 0.0000
0.9547 0.5000 0.0000
0.0000 0.5625 0.0000
0.0575 0.5625 0.0000
0.1173 0.5625 0.0000
0.1771 0.5625 0.0000
0.2369 0.5625 0.0000
0.2967 0.5625 0.0000
0.3565 0.5625 0.0000
0.4163 0.5625 0.0000
0.4762 0.5625 0.0000
0.5360 0.5625 0.0000
0.5958 0.5625 0.0000
0.6556 0.5625 0.0000
0.7154 0.5625 0.0000
0.7752 0.5625 0.0000
0.8351 0.5625 0.0000
0.8949 0.5625 0.0000
0.9547 0.5625 0.0000
0.0000 0.6250 0.0000
0.0575 0.6250 0.0000
0.1173 0.6250 0.0000
0.1771 0.6250 0.0000
0.2369 0.6250 0.0000
0.2967 0.6250 0.0000
0.3565 0.6250 0.0000
0.4163 0.6250 0.0000
0.4762 0.6250 0.0000
0.5360 0.6250 0.0000
0.5958 0.6250 0.0000
0.6556 0.6250 0.0000
0.7154 0.6250 0.0000
0.7752 0.6250 0.0000
0.8351 0.6250 0.0000
0.8949 0.6250 0.0000
0.9547 0.6250 0.0000
0.0000 0.6875 0.0000
0.0575 0.6875 0.0000
0.1173 0.6875 0.0000
0.1771 0.6875 0.0000
0.2369 0.6875 0.0000
0.2967 0.6875 0.0000
0.3565 0.6875 0.0000
0.4163 0.6875 0.0000
0.4762 0.6875 0.0000
0.5360 0.6875 0.0000
0.5958 0.6875 0.0000
0.6556 0.6875 0.0000
0.7154 0.6875 0.0000
0.7752 0.6875 0.0000
0.8351 0.6875 0.0000
0.8949 0.6875 0.0000
0.9547 0.6875 0.0000
0.0000 0.7500 0.0000
0.0575 0.7500 0.0000
0.1173 0.7500 0.0000
0.1771 0.7500 0.0000
0.2369 0.7500 0.0000
0.2967 0.7500 0.0000
0.3565 0.7500 0.0000
0.4163 0.7500 0.0000
0.4762 0.7500 0.0000
0.5360 0.7500 0.0000
0.5958 0.7500 0.0000
0.6556 0.7500 0.0000
0.7154 0.7500 0.0000
0.7752 0.7500 0.0000
0.8351 0.7500 0.0000
0.8949 0.7500 0.0000
0.9547 0.7500 0.0000
0.0000 0.8125 0.0000
0.0575 0.8125 0.0000
0.1173 0.8125 0.0000
0.1771 0.8125 0.0000
0.2369 0.8125 0.0000
0.2967 0.8125 0.0000
0.3565 0.8125 0.0000
0.4163 0.8125 0.0000
0.4762 0.8125 0.0000
0.5360 0.8125 0.0000
0.5958 0.8125 0.0000
0.6556 0.8125 0.0000
0.7154 0.8125 0.0000
0.7752 0.8125 0.0000
0.8351 0.8125 0.0000
0.8949 0.8125 0.0000
0.9547 0.8125 0.0000
0.0000 0.8750 0.0000
0.0575 0.8750 0.0000
0.1173 0.8750 0.0000
0.1771 0.8750 0.0000
0.2369 0.8750 0.0000
0.2967 0.8750 0.0000
0.3565 0.8750 0.0000
0.4163 0.8750 0.0000
0.4762 0.8750 0.0000
0.5360 0.8750 0.0000
0.5958 0.8750 0.0000
0.6556 0.8750 0.0000
0.7154 0.8750 0.0000
0.7752 0.8750 0.0000
0.8351 0.8750 0.0000
0.8949 0.8750 0.0000
0.9547 0.8750 0.0000
0.0000 0.9375 0.0000
0.0575 0.9375 0.0000
0.1173 0.9375 0.0000
0.1771 0.9375 0.0000
0.2369 0.9375 0.0000
0.2967 0.9375 0.0000
0.3565 0.9375 0.0000
0.4163 0.9375 0.0000
0.4762 0.9375 0.0000
0.5360 0.9375 0.0000
0.5958 0.9375 0.0000
0.6556 0.9375 0.0000
0.7154 0.9375 0.0000
0.7752 0.9375 0.0000
0.8351 0.9375 0.0000
0.8949 0.9375 0.0000
0.9547 0.9375 0.0000
0.0000 1.0000 0.0000
0.0575 1.0000 0.0000
0.1173 1.0000 0.0000
0.1771 1.0000 0.0000
0.2369 1.0000 0.0000
0.2967 1.0000 0.0000
0.3565 1.0000 0.0000
0.4163 1.0000 0.0000
0.4762 1.0000 0.0000
0.5360 1.0000 0.0000
0.5958 1.0000 0.0000
0.6556 1.0000 0.0000
0.7154 1.0000 0.0000
0.7752 1.0000 0.0000
0.8351 1.0000 0.0000
0.8949 1.0000 0.0000
0.9547 1.0000 0.0000
0.0000 0.0000 0.0673
0.0575 0.0000 0.0673
0.1173 0.0000 0.0673
0.1771 0.0000 0.0673
0.2369 0.0000 0.0673
0.2967 0.0000 0.0673
0.3565 0.0000 0.0673
0.4163 0.0000 0.0673
0.4762 0.0000 0.0673
0.5360 0.0000 0.0673
0.5958 0.0000 0.0673
0.6556 0.0000 0.0673
0.7154 0.0000 0.0673
0.7752 0.0000 0.0673
0.8351 0.0000 0.0673
0.8949 0.0000 0.0673
0.9547 0.0000 0.0673
0.0000 0.0625 0.0673
0.0575 0.0625 0.0673
0.1173 0.0625 0.0673
0.1771 0.0625 0.0673
0.2369 0.0625 0.0673
0.2967 0.0625 0.0673
0.3565 0.0625 0.0673
0.4163 0.0625 0.0673
0.4762 0.0625 0.0673
0.5360 0.0625 0.0673
0.5958 0.0625 0.0673
0.6556 0.0625 0.0673
0.7154 0.0625 0.0673
0.7752 0.0625 0.0673
0.8351 0.0625 0.0673
0.8949 0.0625 0.0673
0.9547 0.0625 0.0673
0.0000 0.1250 0.0673
0.0575 0.1250 0.0673
0.1173 0.1250 0.0673
0.1771 0.1250 0.0673
0.2369 0.1250 0.0673
0.2967 0.1250 0.0673
0.3565 0.1250 0.0673
0.4163 0.1250 0.0673
0.4762 0.1250 0.0673
0.5360 0.1250 0.0673
0.5958 0.1250 0.0673
0.6556 0.1250 0.0673
0.7154 0.1250 0.0673
0.7752 0.1250 0.0673
0.8351 0.1250 0.0673
0.8949 0.1250 0.0673
0.9547 0.1250 0.0673
0.0000 0.1875 0.0673
0.0575 0.1875 0.0673
0.1173 0.1875 0.0673
0.1771 0.1875 0.0673
0.2369 0.1875 0.0673
0.2967 0.1875 0.0673
0.3565 0.1875 0.0673
0.4163 0.1875 0.0673
0.4762 0.1875 0.0673
0.5360 0.1875 0.0673
0.5958 0.1875 0.0673
0.6556 0.1875 0.0673
0.7154 0.1875 0.0673
0.7752 0.1875 0.0673
0.8351 0.1875 0.0673
0.8949 0.1875 0.0673
0.9547 0.1875 0.0673
0.0000 0.2500 0.0673
0.0575 0.2500 0.0673
0.1173 0.2500 0.0673
0.1771 0.2500 0.0673
0.2369 0.2500 0.0673
0.2967 0.2500 0.0673
0.3565 0.2500 0.0673
0.4163 0.2500 0.0673
0.4762 0.2500 0.0673
0.5360 0.2500 0.0673
0.5958 0.2500 0.0673
0.6556 0.2500 0.0673
0.7154 0.2500 0.0673
0.7752 0.2500 0.0673
0.8351 0.2500 0.0673
0.8949 0.2500 0.0673
0.9547 0.2500 0.0673
0.0000 0.3125 0.0673
0.0575 0.3125 0.0673
0.1173 0.3125 0.0673
0.1771 0.3125 0.0673
0.2369 0.3125 0.0673
0.2967 0.3125 0.0673
0.3565 0.3125 0.0673
0.4163 0.3125 0.0673
0.4762 0.3125 0.0673
0.5360 0.3125 0.0673
0.5958 0.3125 0.0673
0.6556 0.3125 0.0673
0.7154 0.3125 0.0673
0.7752 0.3125 0.0673
0.8351 0.3125 0.0673
0.8949 0.3125 0.0673
0.9547 0.3125 0.0673
0.0000 0.3750 0.0673
0.0575 0.3750 0.0673
0.1173 0.3750 0.0673
0.1771 0.3750 0.0673
0.2369 0.3750 0.0673
0.2967 0.3750 0.0673
0.3565 0.3750 0.0673
0.4163 0.3750 0.0673
0.4762 0.3750 0.0673
0.5360 0.3750 0.0673
0.5958 0.3750 0.0673
0.6556 0.3750 0.0673
0.7154 0.3750 0.0673
0.7752 0.3750 0.0673
0.8351 0.3750 0.0673
0.8949 0.3750 0.0673
0.9547 0.3750 0.0673
0.0000 0.4375 0.0673
0.0575 0.4375 0.0673
0.1173 0.4375 0.0673
0.1771 0.4375 0.0673
0.2369 0.4375 0.0673
0.2967 0.4375 0.0673
0.3565 0.4375 0.0673
0.4163 0.4375 0.0673
0.4762 0.4375 0.0673
0.5360 0.4375 0.0673
0.5958 0.4375 0.0673
0.6556 0.4375 0.0673
0.7154 0.4375 0.0673
0.7752 0.4375 0.0673
0.8351 0.4375 0.0673
0.8949 0.4375 0.0673
0.9547 0.4375 0.0673
0.0000 0.5000 0.0673
0.0575 0.5000 0.0673
0.1173 0.5000 0.0673
0.1771 0.5000 0.0673
0.2369 0.5000 0.0673
0.2967 0.5000 0.0673
0.3565 0.5000 0.0673
0.4163 0.5000 0.0673
0.4762 0.5000 0.0673
0.5360 0.5000 0.0673
0.5958 0.5000 0.0673
0.6556 0.5000 0.0673
0.7154 0.5000 0.0673
0.7752 0.5000 0.0673
0.8351 0.5000 0.0673
0.8949 0.5000 0.0673
0.9547 0.5000 0.0673
0.0000 0.5625 0.0673
0.0575 0.5625 0.0673
0.1173 0.5625 0.0673
0.1771 0.5625 0.0673
0.2369 0.5625 0.0673
0.2967 0.5625 0.0673
0.3565 0.5625 0.0673
0.4163 0.5625 0.0673
0.4762 0.5625 0.0673
0.5360 0.5625 0.0673
0.5958 0.5625 0.0673
0.6556 0.5625 0.0673
0.7154 0.5625 0.0673
0.7752 0.5625 0.0673
0.8351 0.5625 0.0673
0.8949 0.5625 0.0673
0.9547 0.5625 0.0673
0.0000 0.6250 0.0673
0.0575 0.6250 0.0673
0.1173 0.6250 0.0673
0.1771 0.6250 0.0673
0.2369 0.6250 0.0673
0.2967 0.6250 0.0673
0.3565 0.6250 0.0673
0.4163 0.6250 0.0673
0.4762 0.6250 0.0673
0.5360 0.6250 0.0673
0.5958 0.6250 0.0673
0.6556 0.6250 0.0673
0.7154 0.6250 0.0673
0.7752 0.6250 0.0673
0.8351 0.6250 0.0673
0.8949 0.6250 0.0673
0.9547 0.6250 0.0673
0.0000 0.6875 0.0673
0.0575 0.6875 0.0673
0.1173 0.6875 0.0673
0.1771 0.6875 0.0673
0.2369 0.6875 0.0673
0.2967 0.6875 0.0673
0.3565 0.6875 0.0673
0.4163 0.6875 0.0673
0.4762 0.6875 0.0673
0.5360 0.6875 0.0673
0.5958 0.6875 0.0673
0.6556 0.6875 0.0673
0.7154 0.6875 0.0673
0.7752 0.6875 0.0673
0.8351 0.6875 0.0673
0.8949 0.6875 0.0673
0.9547 0.6875 0.0673
0.0000 0.7500 0.0673
0.0575 0.7500 0.0673
0.1173 0.7500 0.0673
0.1771 0.7500 0.0673
0.2369 0.7500 0.0673
0.2967 0.7500 0.0673
0.3565 0.7500 0.0673
0.4163 0.7500 0.0673
0.4762 0.7500 0.0673
0.5360 0.7500 0.0673
0.5958 0.7500 0.0673
0.6556 0.7500 0.0673
0.7154 0.7500 0.0673
0.7752 0.7500 0.0673
0.8351 0.7500 0.0673
0.8949 0.7500 0.0673
0.9547 0.7500 0.0673
0.0000 0.8125 0.0673
0.0575 0.8125 0.0673
0.1173 0.8125 0.0673
0.1771 0.8125 0.0673
0.2369 0.8125 0.0673
0.2967 0.8125 0.0673
0.3565 0.8125 0.0673
0.4163 0.8125 0.0673
0.4762 0.8125 0.0673
0.5360 0.8125 0.0673
0.5958 0.8125 0.0673
0.6556 0.8125 0.0673
0.7154 0.8125 0.0673
0.7752 0.8125 0.0673
0.8351 0.8125 0.0673
0.8949 0.8125 0.0673
0.9547 0.8125 0.0673
0.0000 0.8750 0.0673
0.0575 0.8750 0.0673
0.1173 0.8750 0.0673
0.1771 0.8750 0.0673
0.2369 0.8750 0.0673
0.2967 0.8750 0.0673
0.3565 0.8750 0.0673
0.4163 0.8750 0.0673
0.4762 0.8750 0.0673
0.5360 0.8750 0.0673
0.5958 0.8750 0.0673
0.6556 0.8750 0.0673
0.7154 0.8750 0.0673
0.7752 0.8750 0.0673
0.8351 0.8750 0.0673
0.8949 0.8750 0.0673
0.9547 0.8750 0.0673
0.0000 0.9375 0.0673
0.0575 0.9375 0.0673
0.1173 0.9375 0.0673
0.1771 0.9375 0.0673
0.2369 0.9375 0.0673
0.2967 0.9375 0.0673
0.3565 0.9375 0.0673
0.4163 0.9375 0.0673
0.4762 0.9375 0.0673
0.5360 0.9375 0.0673
0.5958 0.9375 0.0673
0.6556 0.9375 0.0673
0.7154 0.9375 0.0673
0.7752 0.9375 0.0673
0.8351 0.9375 0.0673
0.8949 0.9375 0.0673
0.9547 0.9375 0.0673
0.0000 1.0000 0.0673
0.0575 1.0000 0.0673
0.1173 1.0000 0.0673
0.1771 1.0000 0.0673
0.2369 1.0000 0.0673
0.2967 1.0000 0.0673
0.3565 1.0000 0.0673
0.4163 1.0000 0.0673
0.4762 1.0000 0.0673
0.5360 1.0000 0.0673
0.5958 1.0000 0.0673
0.6556 1.0000 0.0673
0.7154 1.0000 0.0673
0.7752 1.0000 0.0673
0.8351 1.0000 0.0673
0.8949 1.0000 0.0673
0.9547 1.0000 0.0673
0.0000 0.0000 0.1323
0.0575 0.0000 0.1323
0.1173 0.0000 0.1323
0.1771 0.0000 0.1323
0.2369 0.0000 0.1323
0.2967 0.0000 0.1323
0.3565 0.0000 0.1323
0.4163 0.0000 0.1323
0.4762 0.0000 0.1323
0.5360 0.0000 0.1323
0.5958 0.0000 0.1323
0.6556 0.0000 0.1323
0.7154 0.0000 0.1323
0.7752 0.0000 0.1323
0.8351 0.0000 0.1323
0.8949 0.0000 0.1323
0.9547 0.0000 0.1323
0.0000 0.0625 0.1323
0.0575 0.0625 0.1323
0.1173 0.0625 0.1323
0.1771 0.0625 0.1323
0.2369 0.0625 0.1323
0.2967 0.0625 0.1323
0.3565 0.0625 0.1323
0.4163 0.0625 0.1323
0.4762 0.0625 0.1323
0.5360 0.0625 0.1323
0.5958 0.0625 0.1323
0.6556 0.0625 0.1323
0.7154 0.0625 0.1323
0.7752 0.0625 0.1323
0.8351 0.0625 0.1323
0.8949 0.0625 0.1323
0.9547 0.0625 0.1323
0.0000 0.1250 0.1323
0.0575 0.1250 0.1323
0.1173 0.1250 0.1323
0.1771 0.1250 0.1323
0.2369 0.1250 0.1323
0.2967 0.1250 0.1323
0.3565 0.1250 0.1323
0.4163 0.1250 0.1323
0.4762 0.1250 0.1323
0.5360 0.1250 0.1323
0.5958 0.1250 0.1323
0.6556 0.1250 0.1323
0.7154 0.1250 0.1323
0.7752 0.1250 0.1323
0.8351 0.1250 0.1323
0.8949 0.1250 0.1323
0.9547 0.1250 0.1323
0.0000 0.1875 0.1323
0.0575 0.1875 0.1323
0.1173 0.1875 0.1323
0.1771 0.1875 0.1323
0.2369 0.1875 0.1323
0.2967 0.1875 0.1323
0.3565 0.1875 0.1323
0.4163 0.1875 0.1323
0.4762 0.1875 0.1323
0.5360 0.1875 0.1323
0.5958 0.1875 0.1323
0.6556 0.1875 0.1323
0.7154 0.1875 0.1323
0.7752 0.1875 0.1323
0.8351 0.1875 0.1323
0.8949 0.1875 0.1323
0.9547 0.1875 0.1323
0.0000 0.2500 0.1323
0.0575 0.2500 0.1323
0.1173 0.2500 0.1323
0.1771 0.2500 0.1323
0.2369 0.2500 0.1323
0.2967 0.2500 0.1323
0.3565 0.2500 0.1323
0.4163 0.2500 0.1323
0.4762 0.2500 0.1323
0.5360 0.2500 0.1323
0.5958 0.2500 0.1323
0.6556 0.2500 0.1323
0.7154 0.2500 0.1323
0.7752 0.2500 0.1323
0.8351 0.2500 0.1323
0.8949 0.2500 0.1323
0.9547 0.2500 0.1323
0.0000 0.3125 0.1323
0.0575 0.3125 0.1323
0.1173 0.3125 0.1323
0.1771 0.3125 0.1323
0.2369 0.3125 0.1323
0.2967 0.3125 0.1323
0.3565 0.3125 0.1323
0.4163 0.3125 0.1323
0.4762 0.3125 0.1323
0.5360 0.3125 0.1323
0.5958 0.3125 0.1323
0.6556 0.3125 0.1323
0.7154 0.3125 0.1323
0.7752 0.3125 0.1323
0.8351 0.3125 0.1323
0.8949 0.3125 0.1323
0.9547 0.3125 0.1323
0.0000 0.3750 0.1323
0.0575 0.3750 0.1323
0.1173 0.3750 0.1323
0.1771 0.3750 0.1323
0.2369 0.3750 0.1323
0.2967 0.3750 0.1323
0.3565 0.3750 0.1323
0.4163 0.3750 0.1323
0.4762 0.3750 0.1323
0.5360 0.3750 0.1323
0.5958 0.3750 0.1323
0.6556 0.3750 0.1323
0.7154 0.3750 0.1323
0.7752 0.3750 0.1323
0.8351 0.3750 0.1323
0.8949 0.3750 0.1323
0.9547 0.3750 0.1323
0.0000 0.4375 0.1323
0.0575 0.4375 0.1323
0.1173 0.4375 0.1323
0.1771 0.4375 0.1323
0.2369 0.4375 0.1323
0.2967 0.4375 0.1323
0.3565 0.4375 0.1323
0.4163 0.4375 0.1323
0.4762 0.4375 0.1323
0.5360 0.4375 0.1323
0.5958 0.4375 0.1323
0.6556 0.4375 0.1323
0.7154 0.4375 0.1323
0.7752 0.4375 0.1323
0.8351 0.4375 0.1323
0.8949 0.4375 0.1323
0.9547 0.4375 0.1323
0.0000 0.5000 0.1323
0.0575 0.5000 0.1323
0.1173 0.5000 0.1323
0.1771 0.5000 0.1323
0.2369 0.5000 0.1323
0.2967 0.5000 0.1323
0.3565 0.5000 0.1323
0.4163 0.5000 0.1323
0.4762 0.5000 0.1323
0.5360 0.5000 0.1323
0.5958 0.5000 0.1323
0.6556 0.5000 0.1323
0.7154 0.5000 0.1323
0.7752 0.5000 0.1323
0.8351 0.5000 0.1323
0.8949 0.5000 0.1323
0.9547 0.5000 0.1323
0.0000 0.5625 0.1323
0.0575 0.5625 0.1323
0.1173 0.5625 0.1323
0.1771 0.5625 0.1323
0.2369 0.5625 0.1323
0.2967 0.5625 0.1323
0.3565 0.5625 0.1323
0.4163 0.5625 0.1323
0.4762 0.5625 0.1323
0.5360 0.5625 0.1323
0.5958 0.5625 0.1323
0.6556 0.5625 0.1323
0.7154 0.5625 0.1323
0.7752 0.5625 0.1323
0.8351 0.5625 0.1323
0.8949 0.5625 0.1323
0.9547 0.5625 0.1323
0.0000 0.6250 0.1323
0.0575 0.6250 0.1323
0.1173 0.6250 0.1323
0.1771 0.6250 0.1323
0.2369 0.6250 0.1323
0.2967 0.6250 0.1323
0.3565 0.6250 0.1323
0.4163 0.6250 0.1323
0.4762 0.6250 0.1323
0.5360 0.6250 0.1323
0.5958 0.6250 0.1323
0.6556 0.6250 0.1323
0.7154 0.6250 0.1323
0.7752 0.6250 0.1323
0.8351 0.6250 0.1323
0.8949 0.6250 0.1323
0.9547 0.6250 0.1323
0.0000 0.6875 0.1323
0.0575 0.6875 0.1323
0.1173 0.6875 0.1323
0.1771 0.6875 0.1323
0.2369 0.6875 0.1323
0.2967 0.6875 0.1323
0.3565 0.6875 0.1323
0.4163 0.6875 0.1323
0.4762 0.6875 0.1323
0.5360 0.6875 0.1323
0.5958 0.6875 0.1323
0.6556 0.6875 0.1323
0.7154 0.6875 0.1323
0.7752 0.6875 0.1323
0.8351 0.6875 0.1323
0.8949 0.6875 0.1323
0.9547 0.6875 0.1323
0.0000 0.7500 0.1323
0.0575 0.7500 0.1323
0.1173 0.7500 0.1323
0.1771 0.7500 0.1323
0.2369 0.7500 0.1323
0.2967 0.7500 0.1323
0.3565 0.7500 0.1323
0.4163 0.7500 0.1323
0.4762 0.7500 0.1323
0.5360 0.7500 0.1323
0.5958 0.7500 0.1323
0.6556 0.7500 0.1323
0.7154 0.7500 0.1323
0.7752 0.7500 0.1323
0.8351 0.7500 0.1323
0.8949 0.7500 0.1323
0.9547 0.7500 0.1323
0.0000 0.8125 0.1323
0.0575 0.8125 0.1323
0.1173 0.8125 0.1323
0.1771 0.8125 0.1323
0.2369 0.8125 0.1323
0.2967 0.8125 0.1323
0.3565 0.8125 0.1323
0.4163 0.8125 0.1323
0.4762 0.8125 0.1323
0.5360 0.8125 0.1323
0.5958 0.8125 0.1323
0.6556 0.8125 0.1323
0.7154 0.8125 0.1323
0.7752 0.8125 0.1323
0.8351 0.8125 0.1323
0.8949 0.8125 0.1323
0.9547 0.8125 0.1323
0.0000 0.8750 0.1323
0.0575 0.8750 0.1323
0.1173 0.8750 0.1323
0.1771 0.8750 0.1323
0.2369 0.8750 0.1323
0.2967 0.8750 0.1323
0.3565 0.8750 0.1323
0.4163 0.8750 0.1323
0.4762 0.8750 0.1323
0.5360 0.8750 0.1323
0.5958 0.8750 0.1323
0.6556 0.8750 0.1323
0.7154 0.8750 0.1323
0.7752 0.8750 0.1323
0.8351 0.8750 0.1323
0.8949 0.8750 0.1323
0.9547 0.8750 0.1323
0.0000 0.9375 0.1323
0.0575 0.9375 0.1323
0.1173 0.9375 0.1323
0.1771 0.9375 0.1323
0.2369 0.9375 0.1323
0.2967 0.9375 0.1323
0.3565 0.9375 0.1323
0.4163 0.9375 0.1323
0.4762 0.9375 0.1323
0.5360 0.9375 0.1323
0.5958 0.9375 0.1323
0.6556 0.9375 0.1323
0.7154 0.9375 0.1323
0.7752 0.9375 0.1323
0.8351 0.9375 0.1323
0.8949 0.9375 0.1323
0.9547 0.9375 0.1323
0.0000 1.0000 0.1323
0.0575 1.0000 0.1323
0.1173 1.0000 0.1323
0.1771 1.0000 0.1323
0.2369 1.0000 0.1323
0.2967 1.0000 0.1323
0.3565 1.0000 0.1323
0.4163 1.0000 0.1323
0.4762 1.0000 0.1323
0.5360 1.0000 0.1323
0.5958 1.0000 0.1323
0.6556 1.0000 0.1323
0.7154 1.0000 0.1323
0.7752 1.0000 0.1323
0.8351 1.0000 0.1323
0.8949 1.0000 0.1323
0.9547 1.0000 0.1323
0.0000 0.0000 0.1973
0.0575 0.0000 0.1973
0.1173 0.0000 0.1973
0.1771 0.0000 0.1973
0.2369 0.0000 0.1973
0.2967 0.0000 0.1973
0.3565 0.0000 0.1973
0.4163 0.0000 0.1973
0.4762 0.0000 0.1973
0.5360 0.0000 0.1973
0.5958 0.0000 0.1973
0.6556 0.0000 0.1973
0.7154 0.0000 0.1973
0.7752 0.0000 0.1973
0.8351 0.0000 0.1973
0.8949 0.0000 0.1973
0.9547 0.0000 0.1973
0.0000 0.0625 0.1973
0.0575 0.0625 0.1973
0.1173 0.0625 0.1973
0.1771 0.0625 0.1973
0.2369 0.0625 0.1973
0.2967 0.0625 0.1973
0.3565 0.0625 0.1973
0.4163 0.0625 0.1973
0.4762 0.0625 0.1973
0.5360 0.0625 0.1973
0.5958 0.0625 0.1973
0.6556 0.0625 0.1973
0.7154 0.0625 0.1973
0.7752 0.0625 0.1973
0.8351 0.0625 0.1973
0.8949 0.0625 0.1973
