android/app/src/main/assets/luts/cool@1.cube
# Editor for Immich, cool@1 (tool/make_luts.py)
LUT_3D_SIZE 9
0.0000 0.0000 0.0000
0.1173 0.0000 0.0000
0.2369 0.0000 0.0000
0.3565 0.0000 0.0000
0.4762 0.0000 0.0000
0.5958 0.0000 0.0000
0.7154 0.0000 0.0000
0.8351 0.0000 0.0000
0.9547 0.0000 0.0000
0.0000 0.1250 0.0000
0.1173 0.1250 0.0000
0.2369 0.1250 0.0000
0.3565 0.1250 0.0000
0.4762 0.1250 0.0000
0.5958 0.1250 0.0000
0.7154 0.1250 0.0000
0.8351 0.1250 0.0000
0.9547 0.1250 0.0000
0.0000 0.2500 0.0000
0.1173 0.2500 0.0000
0.2369 0.2500 0.0000
0.3565 0.2500 0.0000
0.4762 0.2500 0.0000
0.5958 0.2500 0.0000
0.7154 0.2500 0.0000
0.8351 0.2500 0.0000
0.9547 0.2500 0.0000
0.0000 0.3750 0.0000
0.1173 0.3750 0.0000
0.2369 0.3750 0.0000
0.3565 0.3750 0.0000
0.4762 0.3750 0.0000
0.5958 0.3750 0.0000
0.7154 0.3750 0.0000
0.8351 0.3750 0.0000
0.9547 0.3750 0.0000
0.0000 0.5000 0.0000
0.1173 0.5000 0.0000
0.2369 0.5000 0.0000
0.3565 0.5000 0.0000
0.4762 0.5000 0.0000
0.5958 0.5000 0.0000
0.7154 0.5000 0.0000
0.8351 0.5000 0.0000
0.9547 0.5000 0.0000
0.0000 0.6250 0.0000
0.1173 0.6250 0.0000
0.2369 0.6250 0.0000
0.3565 0.6250 0.0000
0.4762 0.6250 0.0000
0.5958 0.6250 0.0000
0.7154 0.6250 0.0000
0.8351 0.6250 0.0000
0.9547 0.6250 0.0000
0.0000 0.7500 0.0000
0.1173 0.7500 0.0000
0.2369 0.7500 0.0000
0.3565 0.7500 0.0000
0.4762 0.7500 0.0000
0.5958 0.7500 0.0000
0.7154 0.7500 0.0000
0.8351 0.7500 0.0000
0.9547 0.7500 0.0000
0.0000 0.8750 0.0000
0.1173 0.8750 0.0000
0.2369 0.8750 0.0000
0.3565 0.8750 0.0000
0.4762 0.8750 0.0000
0.5958 0.8750 0.0000
0.7154 0.8750 0.0000
0.8351 0.8750 0.0000
0.9547 0.8750 0.0000
0.0000 1.0000 0.0000
0.1173 1.0000 0.0000
0.2369 1.0000 0.0000
0.3565 1.0000 0.0000
0.4762 1.0000 0.0000
0.5958 1.0000 0.0000
0.7154 1.0000 0.0000
0.8351 1.0000 0.0000
0.9547 1.0000 0.0000
0.0000 0.0000 0.1323
0.1173 0.0000 0.1323
0.2369 0.0000 0.1323
0.3565 0.0000 0.1323
0.4762 0.0000 0.1323
0.5958 0.0000 0.1323
0.7154 0.0000 0.1323
0.8351 0.0000 0.1323
0.9547 0.0000 0.1323
0.0000 0.1250 0.1323
0.1173 0.1250 0.1323
0.2369 0.1250 0.1323
0.3565 0.1250 0.1323
0.4762 0.1250 0.1323
0.5958 0.1250 0.1323
0.7154 0.1250 0.1323
0.8351 0.1250 0.1323
0.9547 0.1250 0.1323
0.0000 0.2500 0.1323
0.1173 0.2500 0.1323
0.2369 0.2500 0.1323
0.3565 0.2500 0.1323
0.4762 0.2500 0.1323
0.5958 0.2500 0.1323
0.7154 0.2500 0.1323
0.8351 0.2500 0.1323
0.9547 0.2500 0.1323
0.0000 0.3750 0.1323
0.1173 0.3750 0.1323
0.2369 0.3750 0.1323
0.3565 0.3750 0.1323
0.4762 0.3750 0.1323
0.5958 0.3750 0.1323
0.7154 0.3750 0.1323
0.8351 0.3750 0.1323
0.9547 0.3750 0.1323
0.0000 0.5000 0.1323
0.1173 0.5000 0.1323
0.2369 0.5000 0.1323
0.3565 0.5000 0.1323
0.4762 0.5000 0.1323
0.5958 0.5000 0.1323
0.7154 0.5000 0.1323
0.8351 0.5000 0.1323
0.9547 0.5000 0.1323
0.0000 0.6250 0.1323
0.1173 0.6250 0.1323
0.2369 0.6250 0.1323
0.3565 0.6250 0.1323
0.4762 0.6250 0.1323
0.5958 0.6250 0.1323
0.7154 0.6250 0.1323
0.8351 0.6250 0.1323
0.9547 0.6250 0.1323
0.0000 0.7500 0.1323
0.1173 0.7500 0.1323
0.2369 0.7500 0.1323
0.3565 0.7500 0.1323
0.4762 0.7500 0.1323
0.5958 0.7500 0.1323
0.7154 0.7500 0.1323
0.8351 0.7500 0.1323
0.9547 0.7500 0.1323
0.0000 0.8750 0.1323
0.1173 0.8750 0.1323
0.2369 0.8750 0.1323
0.3565 0.8750 0.1323
0.4762 0.8750 0.1323
0.5958 0.8750 0.1323
0.7154 0.8750 0.1323
0.8351 0.8750 0.1323
0.9547 0.8750 0.1323
0.0000 1.0000 0.1323
0.1173 1.0000 0.1323
0.2369 1.0000 0.1323
0.3565 1.0000 0.1323
0.4762 1.0000 0.1323
0.5958 1.0000 0.1323
0.7154 1.0000 0.1323
0.8351 1.0000 0.1323
0.9547 1.0000 0.1323
0.0000 0.0000 0.2624
0.1173 0.0000 0.2624
0.2369 0.0000 0.2624
0.3565 0.0000 0.2624
0.4762 0.0000 0.2624
0.5958 0.0000 0.2624
0.7154 0.0000 0.2624
0.8351 0.0000 0.2624
0.9547 0.0000 0.2624
0.0000 0.1250 0.2624
0.1173 0.1250 0.2624
0.2369 0.1250 0.2624
0.3565 0.1250 0.2624
0.4762 0.1250 0.2624
0.5958 0.1250 0.2624
0.7154 0.1250 0.2624
0.8351 0.1250 0.2624
0.9547 0.1250 0.2624
0.0000 0.2500 0.2624
0.1173 0.2500 0.2624
0.2369 0.2500 0.2624
0.3565 0.2500 0.2624
0.4762 0.2500 0.2624
0.5958 0.2500 0.2624
0.7154 0.2500 0.2624
0.8351 0.2500 0.2624
0.9547 0.2500 0.2624
0.0000 0.3750 0.2624
0.1173 0.3750 0.2624
0.2369 0.3750 0.2624
0.3565 0.3750 0.2624
0.4762 0.3750 0.2624
0.5958 0.3750 0.2624
0.7154 0.3750 0.2624
0.8351 0.3750 0.2624
0.9547 0.3750 0.2624
0.0000 0.5000 0.2624
0.1173 0.5000 0.2624
0.2369 0.5000 0.2624
0.3565 0.5000 0.2624
0.4762 0.5000 0.2624
0.5958 0.5000 0.2624
0.7154 0.5000 0.2624
0.8351 0.5000 0.2624
0.9547 0.5000 0.2624
0.0000 0.6250 0.2624
0.1173 0.6250 0.2624
0.2369 0.6250 0.2624
0.3565 0.6250 0.2624
0.4762 0.6250 0.2624
0.5958 0.6250 0.2624
0.7154 0.6250 0.2624
0.8351 0.6250 0.2624
0.9547 0.6250 0.2624
0.0000 0.7500 0.2624
0.1173 0.7500 0.2624
0.2369 0.7500 0.2624
0.3565 0.7500 0.2624
0.4762 0.7500 0.2624
0.5958 0.7500 0.2624
0.7154 0.7500 0.2624
0.8351 0.7500 0.2624
0.9547 0.7500 0.2624
0.0000 0.8750 0.2624
0.1173 0.8750 0.2624
0.2369 0.8750 0.2624
0.3565 0.8750 0.2624
0.4762 0.8750 0.2624
0.5958 0.8750 0.2624
0.7154 0.8750 0.2624
0.8351 0.8750 0.2624
0.9547 0.8750 0.2624
0.0000 1.0000 0.2624
0.1173 1.0000 0.2624
0.2369 1.0000 0.2624
0.3565 1.0000 0.2624
0.4762 1.0000 0.2624
0.5958 1.0000 0.2624
0.7154 1.0000 0.2624
0.8351 1.0000 0.2624
0.9547 1.0000 0.2624
0.0000 0.0000 0.3924
0.1173 0.0000 0.3924
0.2369 0.0000 0.3924
0.3565 0.0000 0.3924
0.4762 0.0000 0.3924
0.5958 0.0000 0.3924
0.7154 0.0000 0.3924
0.8351 0.0000 0.3924
0.9547 0.0000 0.3924
0.0000 0.1250 0.3924
0.1173 0.1250 0.3924
0.2369 0.1250 0.3924
0.3565 0.1250 0.3924
0.4762 0.1250 0.3924
0.5958 0.1250 0.3924
0.7154 0.1250 0.3924
0.8351 0.1250 0.3924
0.9547 0.1250 0.3924
0.0000 0.2500 0.3924
0.1173 0.2500 0.3924
0.2369 0.2500 0.3924
0.3565 0.2500 0.3924
0.4762 0.2500 0.3924
0.5958 0.2500 0.3924
0.7154 0.2500 0.3924
0.8351 0.2500 0.3924
0.9547 0.2500 0.3924
0.0000 0.3750 0.3924
0.1173 0.3750 0.3924
0.2369 0.3750 0.3924
0.3565 0.3750 0.3924
0.4762 0.3750 0.3924
0.5958 0.3750 0.3924
0.7154 0.3750 0.3924
0.8351 0.3750 0.3924
0.9547 0.3750 0.3924
0.0000 0.5000 0.3924
0.1173 0.5000 0.3924
0.2369 0.5000 0.3924
0.3565 0.5000 0.3924
0.4762 0.5000 0.3924
0.5958 0.5000 0.3924
0.7154 0.5000 0.3924
0.8351 0.5000 0.3924
0.9547 0.5000 0.3924
0.0000 0.6250 0.3924
0.1173 0.6250 0.3924
0.2369 0.6250 0.3924
0.3565 0.6250 0.3924
0.4762 0.6250 0.3924
0.5958 0.6250 0.3924
0.7154 0.6250 0.3924
0.8351 0.6250 0.3924
0.9547 0.6250 0.3924
0.0000 0.7500 0.3924
0.1173 0.7500 0.3924
0.2369 0.7500 0.3924
0.3565 0.7500 0.3924
0.4762 0.7500 0.3924
0.5958 0.7500 0.3924
0.7154 0.7500 0.3924
0.8351 0.7500 0.3924
0.9547 0.7500 0.3924
0.0000 0.8750 0.3924
0.1173 0.8750 0.3924
0.2369 0.8750 0.3924
0.3565 0.8750 0.3924
0.4762 0.8750 0.3924
0.5958 0.8750 0.3924
0.7154 0.8750 0.3924
0.8351 0.8750 0.3924
0.9547 0.8750 0.3924
0.0000 1.0000 0.3924
0.1173 1.0000 0.3924
0.2369 1.0000 0.3924
0.3565 1.0000 0.3924
0.4762 1.0000 0.3924
0.5958 1.0000 0.3924
0.7154 1.0000 0.3924
0.8351 1.0000 0.3924
0.9547 1.0000 0.3924
0.0000 0.0000 0.5225
0.1173 0.0000 0.5225
0.2369 0.0000 0.5225
0.3565 0.0000 0.5225
0.4762 0.0000 0.5225
0.5958 0.0000 0.5225
0.7154 0.0000 0.5225
0.8351 0.0000 0.5225
0.9547 0.0000 0.5225
0.0000 0.1250 0.5225
0.1173 0.1250 0.5225
0.2369 0.1250 0.5225
0.3565 0.1250 0.5225
0.4762 0.1250 0.5225
0.5958 0.1250 0.5225
0.7154 0.1250 0.5225
0.8351 0.1250 0.5225
0.9547 0.1250 0.5225
0.0000 0.2500 0.5225
0.1173 0.2500 0.5225
0.2369 0.2500 0.5225
0.3565 0.2500 0.5225
0.4762 0.2500 0.5225
0.5958 0.2500 0.5225
0.7154 0.2500 0.5225
0.8351 0.2500 0.5225
0.9547 0.2500 0.5225
0.0000 0.3750 0.5225
0.1173 0.3750 0.5225
0.2369 0.3750 0.5225
0.3565 0.3750 0.5225
0.4762 0.3750 0.5225
0.5958 0.3750 0.5225
0.7154 0.3750 0.5225
0.8351 0.3750 0.5225
0.9547 0.3750 0.5225
0.0000 0.5000 0.5225
0.1173 0.5000 0.5225
0.2369 0.5000 0.5225
0.3565 0.5000 0.5225
0.4762 0.5000 0.5225
0.5958 0.5000 0.5225
0.7154 0.5000 0.5225
0.8351 0.5000 0.5225
0.9547 0.5000 0.5225
0.0000 0.6250 0.5225
0.1173 0.6250 0.5225
0.2369 0.6250 0.5225
0.3565 0.6250 0.5225
0.4762 0.6250 0.5225
0.5958 0.6250 0.5225
0.7154 0.6250 0.5225
0.8351 0.6250 0.5225
0.9547 0.6250 0.5225
0.0000 0.7500 0.5225
0.1173 0.7500 0.5225
0.2369 0.7500 0.5225
0.3565 0.7500 0.5225
0.4762 0.7500 0.5225
0.5958 0.7500 0.5225
0.7154 0.7500 0.5225
0.8351 0.7500 0.5225
0.9547 0.7500 0.5225
0.0000 0.8750 0.5225
0.1173 0.8750 0.5225
0.2369 0.8750 0.5225
0.3565 0.8750 0.5225
0.4762 0.8750 0.5225
0.5958 0.8750 0.5225
0.7154 0.8750 0.5225
0.8351 0.8750 0.5225
0.9547 0.8750 0.5225
0.0000 1.0000 0.5225
0.1173 1.0000 0.5225
0.2369 1.0000 0.5225
0.3565 1.0000 0.5225
0.4762 1.0000 0.5225
0.5958 1.0000 0.5225
0.7154 1.0000 0.5225
0.8351 1.0000 0.5225
0.9547 1.0000 0.5225
0.0000 0.0000 0.6525
0.1173 0.0000 0.6525
0.2369 0.0000 0.6525
0.3565 0.0000 0.6525
0.4762 0.0000 0.6525
0.5958 0.0000 0.6525
0.7154 0.0000 0.6525
0.8351 0.0000 0.6525
0.9547 0.0000 0.6525
0.0000 0.1250 0.6525
0.1173 0.1250 0.6525
0.2369 0.1250 0.6525
0.3565 0.1250 0.6525
0.4762 0.1250 0.6525
0.5958 0.1250 0.6525
0.7154 0.1250 0.6525
0.8351 0.1250 0.6525
0.9547 0.1250 0.6525
0.0000 0.2500 0.6525
0.1173 0.2500 0.6525
0.2369 0.2500 0.6525
0.3565 0.2500 0.6525
0.4762 0.2500 0.6525
0.5958 0.2500 0.6525
0.7154 0.2500 0.6525
0.8351 0.2500 0.6525
0.9547 0.2500 0.6525
0.0000 0.3750 0.6525
0.1173 0.3750 0.6525
0.2369 0.3750 0.6525
0.3565 0.3750 0.6525
0.4762 0.3750 0.6525
0.5958 0.3750 0.6525
0.7154 0.3750 0.6525
0.8351 0.3750 0.6525
0.9547 0.3750 0.6525
0.0000 0.5000 0.6525
0.1173 0.5000 0.6525
0.2369 0.5000 0.6525
0.3565 0.5000 0.6525
0.4762 0.5000 0.6525
0.5958 0.5000 0.6525
0.7154 0.5000 0.6525
0.8351 0.5000 0.6525
0.9547 0.5000 0.6525
0.0000 0.6250 0.6525
0.1173 0.6250 0.6525
0.2369 0.6250 0.6525
0.3565 0.6250 0.6525
0.4762 0.6250 0.6525
0.5958 0.6250 0.6525
0.7154 0.6250 0.6525
0.8351 0.6250 0.6525
0.9547 0.6250 0.6525
0.0000 0.7500 0.6525
0.1173 0.7500 0.6525
0.2369 0.7500 0.6525
0.3565 0.7500 0.6525
0.4762 0.7500 0.6525
0.5958 0.7500 0.6525
0.7154 0.7500 0.6525
0.8351 0.7500 0.6525
0.9547 0.7500 0.6525
0.0000 0.8750 0.6525
0.1173 0.8750 0.6525
0.2369 0.8750 0.6525
0.3565 0.8750 0.6525
0.4762 0.8750 0.6525
0.5958 0.8750 0.6525
0.7154 0.8750 0.6525
0.8351 0.8750 0.6525
0.9547 0.8750 0.6525
0.0000 1.0000 0.6525
0.1173 1.0000 0.6525
0.2369 1.0000 0.6525
0.3565 1.0000 0.6525
0.4762 1.0000 0.6525
0.5958 1.0000 0.6525
0.7154 1.0000 0.6525
0.8351 1.0000 0.6525
0.9547 1.0000 0.6525
0.0000 0.0000 0.7826
0.1173 0.0000 0.7826
0.2369 0.0000 0.7826
0.3565 0.0000 0.7826
0.4762 0.0000 0.7826
0.5958 0.0000 0.7826
0.7154 0.0000 0.7826
0.8351 0.0000 0.7826
0.9547 0.0000 0.7826
0.0000 0.1250 0.7826
0.1173 0.1250 0.7826
0.2369 0.1250 0.7826
0.3565 0.1250 0.7826
0.4762 0.1250 0.7826
0.5958 0.1250 0.7826
0.7154 0.1250 0.7826
0.8351 0.1250 0.7826
0.9547 0.1250 0.7826
0.0000 0.2500 0.7826
0.1173 0.2500 0.7826
0.2369 0.2500 0.7826
0.3565 0.2500 0.7826
0.4762 0.2500 0.7826
0.5958 0.2500 0.7826
0.7154 0.2500 0.7826
0.8351 0.2500 0.7826
0.9547 0.2500 0.7826
0.0000 0.3750 0.7826
0.1173 0.3750 0.7826
0.2369 0.3750 0.7826
0.3565 0.3750 0.7826
0.4762 0.3750 0.7826
0.5958 0.3750 0.7826
0.7154 0.3750 0.7826
0.8351 0.3750 0.7826
0.9547 0.3750 0.7826
0.0000 0.5000 0.7826
0.1173 0.5000 0.7826
0.2369 0.5000 0.7826
0.3565 0.5000 0.7826
0.4762 0.5000 0.7826
0.5958 0.5000 0.7826
0.7154 0.5000 0.7826
0.8351 0.5000 0.7826
0.9547 0.5000 0.7826
0.0000 0.6250 0.7826
0.1173 0.6250 0.7826
0.2369 0.6250 0.7826
0.3565 0.6250 0.7826
0.4762 0.6250 0.7826
0.5958 0.6250 0.7826
0.7154 0.6250 0.7826
0.8351 0.6250 0.7826
0.9547 0.6250 0.7826
0.0000 0.7500 0.7826
0.1173 0.7500 0.7826
0.2369 0.7500 0.7826
0.3565 0.7500 0.7826
0.4762 0.7500 0.7826
0.5958 0.7500 0.7826
0.7154 0.7500 0.7826
0.8351 0.7500 0.7826
0.9547 0.7500 0.7826
0.0000 0.8750 0.7826
0.1173 0.8750 0.7826
0.2369 0.8750 0.7826
0.3565 0.8750 0.7826
0.4762 0.8750 0.7826
0.5958 0.8750 0.7826
0.7154 0.8750 0.7826
0.8351 0.8750 0.7826
0.9547 0.8750 0.7826
0.0000 1.0000 0.7826
0.1173 1.0000 0.7826
0.2369 1.0000 0.7826
0.3565 1.0000 0.7826
0.4762 1.0000 0.7826
0.5958 1.0000 0.7826
0.7154 1.0000 0.7826
0.8351 1.0000 0.7826
0.9547 1.0000 0.7826
0.0000 0.0000 0.9127
0.1173 0.0000 0.9127
0.2369 0.0000 0.9127
0.3565 0.0000 0.9127
0.4762 0.0000 0.9127
0.5958 0.0000 0.9127
0.7154 0.0000 0.9127
0.8351 0.0000 0.9127
0.9547 0.0000 0.9127
0.0000 0.1250 0.9127
0.1173 0.1250 0.9127
0.2369 0.1250 0.9127
0.3565 0.1250 0.9127
0.4762 0.1250 0.9127
0.5958 0.1250 0.9127
0.7154 0.1250 0.9127
0.8351 0.1250 0.9127
0.9547 0.1250 0.9127
0.0000 0.2500 0.9127
0.1173 0.2500 0.9127
0.2369 0.2500 0.9127
0.3565 0.2500 0.9127
0.4762 0.2500 0.9127
0.5958 0.2500 0.9127
0.7154 0.2500 0.9127
0.8351 0.2500 0.9127
0.9547 0.2500 0.9127
0.0000 0.3750 0.9127
0.1173 0.3750 0.9127
0.2369 0.3750 0.9127
0.3565 0.3750 0.9127
0.4762 0.3750 0.9127
0.5958 0.3750 0.9127
0.7154 0.3750 0.9127
0.8351 0.3750 0.9127
0.9547 0.3750 0.9127
0.0000 0.5000 0.9127
0.1173 0.5000 0.9127
0.2369 0.5000 0.9127
0.3565 0.5000 0.9127
0.4762 0.5000 0.9127
0.5958 0.5000 0.9127
0.7154 0.5000 0.9127
0.8351 0.5000 0.9127
0.9547 0.5000 0.9127
0.0000 0.6250 0.9127
0.1173 0.6250 0.9127
0.2369 0.6250 0.9127
0.3565 0.6250 0.9127
0.4762 0.6250 0.9127
0.5958 0.6250 0.9127
0.7154 0.6250 0.9127
0.8351 0.6250 0.9127
0.9547 0.6250 0.9127
0.0000 0.7500 0.9127
0.1173 0.7500 0.9127
0.2369 0.7500 0.9127
0.3565 0.7500 0.9127
0.4762 0.7500 0.9127
0.5958 0.7500 0.9127
0.7154 0.7500 0.9127
0.8351 0.7500 0.9127
0.9547 0.7500 0.9127
0.0000 0.8750 0.9127
0.1173 0.8750 0.9127
0.2369 0.8750 0.9127
0.3565 0.8750 0.9127
0.4762 0.8750 0.9127
0.5958 0.8750 0.9127
0.7154 0.8750 0.9127
0.8351 0.8750 0.9127
0.9547 0.8750 0.9127
0.0000 1.0000 0.9127
0.1173 1.0000 0.9127
0.2369 1.0000 0.9127
0.3565 1.0000 0.9127
0.4762 1.0000 0.9127
0.5958 1.0000 0.9127
0.7154 1.0000 0.9127
0.8351 1.0000 0.9127
0.9547 1.0000 0.9127
0.0000 0.0000 1.0000
0.1173 0.0000 1.0000
0.2369 0.0000 1.0000
0.3565 0.0000 1.0000
0.4762 0.0000 1.0000
0.5958 0.0000 1.0000
0.7154 0.0000 1.0000
0.8351 0.0000 1.0000
0.9547 0.0000 1.0000
0.0000 0.1250 1.0000
0.1173 0.1250 1.0000
0.2369 0.1250 1.0000
0.3565 0.1250 1.0000
0.4762 0.1250 1.0000
0.5958 0.1250 1.0000
0.7154 0.1250 1.0000
0.8351 0.1250 1.0000
0.9547 0.1250 1.0000
0.0000 0.2500 1.0000
0.1173 0.2500 1.0000
0.2369 0.2500 1.0000
0.3565 0.2500 1.0000
0.4762 0.2500 1.0000
0.5958 0.2500 1.0000
0.7154 0.2500 1.0000
0.8351 0.2500 1.0000
0.9547 0.2500 1.0000
0.0000 0.3750 1.0000
0.1173 0.3750 1.0000
0.2369 0.3750 1.0000
0.3565 0.3750 1.0000
0.4762 0.3750 1.0000
0.5958 0.3750 1.0000
0.7154 0.3750 1.0000
0.8351 0.3750 1.0000
0.9547 0.3750 1.0000
0.0000 0.5000 1.0000
0.1173 0.5000 1.0000
0.2369 0.5000 1.0000
0.3565 0.5000 1.0000
0.4762 0.5000 1.0000
0.5958 0.5000 1.0000
0.7154 0.5000 1.0000
0.8351 0.5000 1.0000
0.9547 0.5000 1.0000
0.0000 0.6250 1.0000
0.1173 0.6250 1.0000
0.2369 0.6250 1.0000
0.3565 0.6250 1.0000
0.4762 0.6250 1.0000
0.5958 0.6250 1.0000
0.7154 0.6250 1.0000
0.8351 0.6250 1.0000
0.9547 0.6250 1.0000
0.0000 0.7500 1.0000
0.1173 0.7500 1.0000
0.2369 0.7500 1.0000
0.3565 0.7500 1.0000
0.4762 0.7500 1.0000
0.5958 0.7500 1.0000
0.7154 0.7500 1.0000
0.8351 0.7500 1.0000
0.9547 0.7500 1.0000
0.0000 0.8750 1.0000
0.1173 0.8750 1.0000
0.2369 0.8750 1.0000
0.3565 0.8750 1.0000
0.4762 0.8750 1.0000
0.5958 0.8750 1.0000
0.7154 0.8750 1.0000
0.8351 0.8750 1.0000
0.9547 0.8750 1.0000
0.0000 1.0000 1.0000
0.1173 1.0000 1.0000
0.2369 1.0000 1.0000
0.3565 1.0000 1.0000
0.4762 1.0000 1.0000
0.5958 1.0000 1.0000
0.7154 1.0000 1.0000
0.8351 1.0000 1.0000
0.9547 1.0000 1.0000
