android/app/src/main/assets/luts/fade@1.cube
# Editor for Immich, fade@1 (tool/make_luts.py)
LUT_3D_SIZE 5
0.1200 0.1200 0.1200
0.2804 0.1334 0.1334
0.4408 0.1468 0.1468
0.6012 0.1602 0.1602
0.7616 0.1736 0.1736
0.1651 0.3121 0.1651
0.3255 0.3255 0.1785
0.4858 0.3388 0.1918
0.6462 0.3522 0.2052
0.8066 0.3656 0.2186
0.2101 0.5041 0.2101
0.3705 0.5175 0.2235
0.5309 0.5309 0.2369
0.6913 0.5443 0.2503
0.8517 0.5577 0.2637
0.2552 0.6962 0.2552
0.4156 0.7096 0.2686
0.5760 0.7230 0.2820
0.7364 0.7364 0.2954
0.8967 0.7497 0.3087
0.3002 0.8882 0.3002
0.4606 0.9016 0.3136
0.6210 0.9150 0.3270
0.7814 0.9284 0.3404
0.9418 0.9418 0.3538
0.1245 0.1245 0.2715
0.2849 0.1379 0.2849
0.4453 0.1513 0.2983
0.6057 0.1647 0.3117
0.7661 0.1781 0.3251
0.1696 0.3166 0.3166
0.3300 0.3300 0.3300
0.4904 0.3434 0.3434
0.6508 0.3568 0.3568
0.8112 0.3702 0.3702
0.2147 0.5087 0.3617
0.3751 0.5221 0.3751
0.5355 0.5355 0.3885
0.6958 0.5488 0.4018
0.8562 0.5622 0.4152
0.2597 0.7007 0.4067
0.4201 0.7141 0.4201
0.5805 0.7275 0.4335
0.7409 0.7409 0.4469
0.9013 0.7543 0.4603
0.3048 0.8928 0.4518
0.4652 0.9062 0.4652
0.6256 0.9196 0.4786
0.7860 0.9330 0.4920
0.9464 0.9464 0.5054
0.1291 0.1291 0.4231
0.2895 0.1425 0.4365
0.4499 0.1559 0.4499
0.6103 0.1693 0.4633
0.7707 0.1827 0.4767
0.1742 0.3212 0.4682
0.3345 0.3345 0.4815
0.4949 0.3479 0.4949
0.6553 0.3613 0.5083
0.8157 0.3747 0.5217
0.2192 0.5132 0.5132
0.3796 0.5266 0.5266
0.5400 0.5400 0.5400
0.7004 0.5534 0.5534
0.8608 0.5668 0.5668
0.2643 0.7053 0.5583
0.4247 0.7187 0.5717
0.5851 0.7321 0.5851
0.7455 0.7455 0.5985
0.9058 0.7588 0.6118
0.3093 0.8973 0.6033
0.4697 0.9107 0.6167
0.6301 0.9241 0.6301
0.7905 0.9375 0.6435
0.9509 0.9509 0.6569
0.1336 0.1336 0.5746
0.2940 0.1470 0.5880
0.4544 0.1604 0.6014
0.6148 0.1738 0.6148
0.7752 0.1872 0.6282
0.1787 0.3257 0.6197
0.3391 0.3391 0.6331
0.4995 0.3525 0.6465
0.6599 0.3659 0.6599
0.8203 0.3793 0.6733
0.2238 0.5178 0.6648
0.3842 0.5312 0.6782
0.5445 0.5445 0.6915
0.7049 0.5579 0.7049
0.8653 0.5713 0.7183
0.2688 0.7098 0.7098
0.4292 0.7232 0.7232
0.5896 0.7366 0.7366
0.7500 0.7500 0.7500
0.9104 0.7634 0.7634
0.3139 0.9019 0.7549
0.4743 0.9153 0.7683
0.6347 0.9287 0.7817
0.7951 0.9421 0.7951
0.9555 0.9555 0.8085
0.1382 0.1382 0.7262
0.2986 0.1516 0.7396
0.4590 0.1650 0.7530
0.6194 0.1784 0.7664
0.7798 0.1918 0.7798
0.1833 0.3303 0.7713
0.3436 0.3436 0.7846
0.5040 0.3570 0.7980
0.6644 0.3704 0.8114
0.8248 0.3838 0.8248
0.2283 0.5223 0.8163
0.3887 0.5357 0.8297
0.5491 0.5491 0.8431
0.7095 0.5625 0.8565
0.8699 0.5759 0.8699
0.2734 0.7144 0.8614
0.4338 0.7278 0.8748
0.5942 0.7412 0.8882
0.7545 0.7545 0.9015
0.9149 0.7679 0.9149
0.3184 0.9064 0.9064
0.4788 0.9198 0.9198
0.6392 0.9332 0.9332
0.7996 0.9466 0.9466
0.9600 0.9600 0.9600
