android/app/src/main/assets/luts/fade@1.cube
# Editor for Immich, fade@1 (tool/make_luts.py)
LUT_3D_SIZE 17
0.1200 0.1200 0.1200
0.1601 0.1233 0.1233
0.2002 0.1267 0.1267
0.2403 0.1300 0.1300
0.2804 0.1334 0.1334
0.3205 0.1367 0.1367
0.3606 0.1401 0.1401
0.4007 0.1434 0.1434
0.4408 0.1468 0.1468
0.4809 0.1501 0.1501
0.5210 0.1535 0.1535
0.5611 0.1568 0.1568
0.6012 0.1602 0.1602
0.6413 0.1635 0.1635
0.6814 0.1669 0.1669
0.7215 0.1702 0.1702
0.7616 0.1736 0.1736
0.1313 0.1680 0.1313
0.1714 0.1714 0.1346
0.2115 0.1747 0.1380
0.2516 0.1781 0.1413
0.2917 0.1814 0.1447
0.3318 0.1848 0.1480
0.3719 0.1881 0.1514
0.4120 0.1915 0.1547
0.4521 0.1948 0.1581
0.4922 0.1982 0.1614
0.5322 0.2015 0.1647
0.5723 0.2048 0.1681
0.6124 0.2082 0.1714
0.6525 0.2115 0.1748
0.6926 0.2149 0.1781
0.7327 0.2182 0.1815
0.7728 0.2216 0.1848
0.1425 0.2160 0.1425
0.1826 0.2194 0.1459
0.2227 0.2227 0.1492
0.2628 0.2261 0.1526
0.3029 0.2294 0.1559
0.3430 0.2328 0.1593
0.3831 0.2361 0.1626
0.4232 0.2395 0.1660
0.4633 0.2428 0.1693
0.5034 0.2462 0.1727
0.5435 0.2495 0.1760
0.5836 0.2529 0.1794
0.6237 0.2562 0.1827
0.6638 0.2596 0.1861
0.7039 0.2629 0.1894
0.7440 0.2663 0.1928
0.7841 0.2696 0.1961
0.1538 0.2640 0.1538
0.1939 0.2674 0.1571
0.2340 0.2707 0.1605
0.2741 0.2741 0.1638
0.3142 0.2774 0.1672
0.3543 0.2808 0.1705
0.3944 0.2841 0.1739
0.4345 0.2875 0.1772
0.4746 0.2908 0.1806
0.5147 0.2942 0.1839
0.5548 0.2975 0.1873
0.5949 0.3009 0.1906
0.6350 0.3042 0.1940
0.6751 0.3076 0.1973
0.7152 0.3109 0.2007
0.7553 0.3143 0.2040
0.7954 0.3176 0.2074
0.1651 0.3121 0.1651
0.2052 0.3154 0.1684
0.2453 0.3188 0.1718
0.2854 0.3221 0.1751
0.3255 0.3255 0.1785
0.3655 0.3288 0.1818
0.4056 0.3321 0.1851
0.4457 0.3355 0.1885
0.4858 0.3388 0.1918
0.5259 0.3422 0.1952
0.5660 0.3455 0.1985
0.6061 0.3489 0.2019
0.6462 0.3522 0.2052
0.6863 0.3556 0.2086
0.7264 0.3589 0.2119
0.7665 0.3623 0.2153
0.8066 0.3656 0.2186
0.1763 0.3601 0.1763
0.2164 0.3634 0.1797
0.2565 0.3668 0.1830
0.2966 0.3701 0.1864
0.3367 0.3735 0.1897
0.3768 0.3768 0.1931
0.4169 0.3802 0.1964
0.4570 0.3835 0.1998
0.4971 0.3869 0.2031
0.5372 0.3902 0.2065
0.5773 0.3936 0.2098
0.6174 0.3969 0.2132
0.6575 0.4003 0.2165
0.6976 0.4036 0.2199
0.7377 0.4070 0.2232
0.7778 0.4103 0.2265
0.8179 0.4136 0.2299
0.1876 0.4081 0.1876
0.2277 0.4114 0.1909
0.2678 0.4148 0.1943
0.3079 0.4181 0.1976
0.3480 0.4215 0.2010
0.3881 0.4248 0.2043
0.4282 0.4282 0.2077
0.4683 0.4315 0.2110
0.5084 0.4349 0.2144
0.5485 0.4382 0.2177
0.5886 0.4416 0.2211
0.6287 0.4449 0.2244
0.6688 0.4483 0.2278
0.7089 0.4516 0.2311
0.7490 0.4550 0.2345
0.7891 0.4583 0.2378
0.8292 0.4617 0.2412
0.1989 0.4561 0.1989
0.2389 0.4594 0.2022
0.2790 0.4628 0.2055
0.3191 0.4661 0.2089
0.3592 0.4695 0.2122
0.3993 0.4728 0.2156
0.4394 0.4762 0.2189
0.4795 0.4795 0.2223
0.5196 0.4829 0.2256
0.5597 0.4862 0.2290
0.5998 0.4896 0.2323
0.6399 0.4929 0.2357
0.6800 0.4963 0.2390
0.7201 0.4996 0.2424
0.7602 0.5030 0.2457
0.8003 0.5063 0.2491
0.8404 0.5097 0.2524
0.2101 0.5041 0.2101
0.2502 0.5075 0.2135
0.2903 0.5108 0.2168
0.3304 0.5142 0.2202
0.3705 0.5175 0.2235
0.4106 0.5209 0.2269
0.4507 0.5242 0.2302
0.4908 0.5276 0.2336
0.5309 0.5309 0.2369
0.5710 0.5343 0.2403
0.6111 0.5376 0.2436
0.6512 0.5409 0.2469
0.6913 0.5443 0.2503
0.7314 0.5476 0.2536
0.7715 0.5510 0.2570
0.8116 0.5543 0.2603
0.8517 0.5577 0.2637
0.2214 0.5521 0.2214
0.2615 0.5555 0.2247
0.3016 0.5588 0.2281
0.3417 0.5622 0.2314
0.3818 0.5655 0.2348
0.4219 0.5689 0.2381
0.4620 0.5722 0.2415
0.5021 0.5756 0.2448
0.5422 0.5789 0.2482
0.5823 0.5823 0.2515
0.6224 0.5856 0.2549
0.6625 0.5890 0.2582
0.7026 0.5923 0.2616
0.7427 0.5957 0.2649
0.7828 0.5990 0.2683
0.8229 0.6024 0.2716
0.8630 0.6057 0.2750
0.2326 0.6001 0.2326
0.2727 0.6035 0.2360
0.3128 0.6068 0.2393
0.3529 0.6102 0.2427
0.3930 0.6135 0.2460
0.4331 0.6169 0.2494
0.4732 0.6202 0.2527
0.5133 0.6236 0.2561
0.5534 0.6269 0.2594
0.5935 0.6303 0.2628
0.6336 0.6336 0.2661
0.6737 0.6370 0.2695
0.7138 0.6403 0.2728
0.7539 0.6437 0.2762
0.7940 0.6470 0.2795
0.8341 0.6504 0.2829
0.8742 0.6537 0.2862
0.2439 0.6482 0.2439
0.2840 0.6515 0.2473
0.3241 0.6549 0.2506
0.3642 0.6582 0.2540
0.4043 0.6616 0.2573
0.4444 0.6649 0.2607
0.4845 0.6682 0.2640
0.5246 0.6716 0.2673
0.5647 0.6749 0.2707
0.6048 0.6783 0.2740
0.6449 0.6816 0.2774
0.6850 0.6850 0.2807
0.7251 0.6883 0.2841
0.7652 0.6917 0.2874
0.8053 0.6950 0.2908
0.8454 0.6984 0.2941
0.8855 0.7017 0.2975
0.2552 0.6962 0.2552
0.2953 0.6995 0.2585
0.3354 0.7029 0.2619
0.3755 0.7062 0.2652
0.4156 0.7096 0.2686
0.4557 0.7129 0.2719
0.4958 0.7163 0.2753
0.5359 0.7196 0.2786
0.5760 0.7230 0.2820
0.6161 0.7263 0.2853
0.6562 0.7297 0.2887
0.6963 0.7330 0.2920
0.7364 0.7364 0.2954
0.7765 0.7397 0.2987
0.8166 0.7431 0.3021
0.8566 0.7464 0.3054
0.8967 0.7497 0.3087
0.2664 0.7442 0.2664
0.3065 0.7475 0.2698
0.3466 0.7509 0.2731
0.3867 0.7542 0.2765
0.4268 0.7576 0.2798
0.4669 0.7609 0.2832
0.5070 0.7643 0.2865
0.5471 0.7676 0.2899
0.5872 0.7710 0.2932
0.6273 0.7743 0.2966
0.6674 0.7777 0.2999
0.7075 0.7810 0.3033
0.7476 0.7844 0.3066
0.7877 0.7877 0.3100
0.8278 0.7911 0.3133
0.8679 0.7944 0.3167
0.9080 0.7978 0.3200
0.2777 0.7922 0.2777
0.3178 0.7956 0.2811
0.3579 0.7989 0.2844
0.3980 0.8022 0.2877
0.4381 0.8056 0.2911
0.4782 0.8089 0.2944
0.5183 0.8123 0.2978
0.5584 0.8156 0.3011
0.5985 0.8190 0.3045
0.6386 0.8223 0.3078
0.6787 0.8257 0.3112
0.7188 0.8290 0.3145
0.7589 0.8324 0.3179
0.7990 0.8357 0.3212
0.8391 0.8391 0.3246
0.8792 0.8424 0.3279
0.9193 0.8458 0.3313
0.2890 0.8402 0.2890
0.3291 0.8436 0.2923
0.3692 0.8469 0.2957
0.4093 0.8503 0.2990
0.4494 0.8536 0.3024
0.4895 0.8570 0.3057
0.5296 0.8603 0.3091
0.5697 0.8637 0.3124
0.6098 0.8670 0.3158
0.6499 0.8704 0.3191
0.6900 0.8737 0.3225
0.7300 0.8770 0.3258
0.7701 0.8804 0.3291
0.8102 0.8837 0.3325
0.8503 0.8871 0.3358
0.8904 0.8904 0.3392
0.9305 0.8938 0.3425
0.3002 0.8882 0.3002
0.3403 0.8916 0.3036
0.3804 0.8949 0.3069
0.4205 0.8983 0.3103
0.4606 0.9016 0.3136
0.5007 0.9050 0.3170
0.5408 0.9083 0.3203
0.5809 0.9117 0.3237
0.6210 0.9150 0.3270
0.6611 0.9184 0.3304
0.7012 0.9217 0.3337
0.7413 0.9251 0.3371
0.7814 0.9284 0.3404
0.8215 0.9318 0.3438
0.8616 0.9351 0.3471
0.9017 0.9385 0.3505
0.9418 0.9418 0.3538
0.1211 0.1211 0.1579
0.1612 0.1245 0.1612
0.2013 0.1278 0.1646
0.2414 0.1312 0.1679
0.2815 0.1345 0.1713
0.3216 0.1379 0.1746
0.3617 0.1412 0.1780
0.4018 0.1446 0.1813
0.4419 0.1479 0.1847
0.4820 0.1513 0.1880
0.5221 0.1546 0.1914
0.5622 0.1580 0.1947
0.6023 0.1613 0.1981
0.6424 0.1647 0.2014
0.6825 0.1680 0.2048
0.7226 0.1714 0.2081
0.7627 0.1747 0.2115
0.1324 0.1692 0.1692
0.1725 0.1725 0.1725
0.2126 0.1758 0.1758
0.2527 0.1792 0.1792
0.2928 0.1825 0.1825
0.3329 0.1859 0.1859
0.3730 0.1892 0.1892
0.4131 0.1926 0.1926
0.4532 0.1959 0.1959
0.4933 0.1993 0.1993
0.5334 0.2026 0.2026
0.5735 0.2060 0.2060
0.6136 0.2093 0.2093
0.6537 0.2127 0.2127
0.6938 0.2160 0.2160
0.7339 0.2194 0.2194
0.7740 0.2227 0.2227
0.1437 0.2172 0.1804
0.1838 0.2205 0.1838
0.2239 0.2239 0.1871
0.2640 0.2272 0.1905
0.3041 0.2306 0.1938
0.3442 0.2339 0.1972
0.3843 0.2373 0.2005
0.4244 0.2406 0.2039
0.4645 0.2440 0.2072
0.5046 0.2473 0.2106
0.5447 0.2507 0.2139
0.5847 0.2540 0.2172
0.6248 0.2573 0.2206
0.6649 0.2607 0.2239
0.7050 0.2640 0.2273
0.7451 0.2674 0.2306
0.7852 0.2707 0.2340
0.1549 0.2652 0.1917
0.1950 0.2685 0.1950
0.2351 0.2719 0.1984
0.2752 0.2752 0.2017
0.3153 0.2786 0.2051
0.3554 0.2819 0.2084
0.3955 0.2853 0.2118
0.4356 0.2886 0.2151
0.4757 0.2920 0.2185
0.5158 0.2953 0.2218
0.5559 0.2987 0.2252
0.5960 0.3020 0.2285
0.6361 0.3054 0.2319
0.6762 0.3087 0.2352
0.7163 0.3121 0.2386
0.7564 0.3154 0.2419
0.7965 0.3188 0.2453
0.1662 0.3132 0.2029
0.2063 0.3165 0.2063
0.2464 0.3199 0.2096
0.2865 0.3232 0.2130
0.3266 0.3266 0.2163
0.3667 0.3299 0.2197
0.4068 0.3333 0.2230
0.4469 0.3366 0.2264
0.4870 0.3400 0.2297
0.5271 0.3433 0.2331
0.5672 0.3467 0.2364
0.6073 0.3500 0.2398
0.6474 0.3534 0.2431
0.6875 0.3567 0.2465
0.7276 0.3601 0.2498
0.7677 0.3634 0.2532
0.8078 0.3668 0.2565
0.1775 0.3612 0.2142
0.2176 0.3646 0.2176
0.2577 0.3679 0.2209
0.2978 0.3713 0.2243
0.3379 0.3746 0.2276
0.3780 0.3780 0.2310
0.4180 0.3813 0.2343
0.4581 0.3846 0.2376
0.4982 0.3880 0.2410
0.5383 0.3913 0.2443
0.5784 0.3947 0.2477
0.6185 0.3980 0.2510
0.6586 0.4014 0.2544
0.6987 0.4047 0.2577
0.7388 0.4081 0.2611
0.7789 0.4114 0.2644
0.8190 0.4148 0.2678
0.1887 0.4092 0.2255
0.2288 0.4126 0.2288
0.2689 0.4159 0.2322
0.3090 0.4193 0.2355
0.3491 0.4226 0.2389
0.3892 0.4260 0.2422
0.4293 0.4293 0.2456
0.4694 0.4327 0.2489
0.5095 0.4360 0.2523
0.5496 0.4394 0.2556
0.5897 0.4427 0.2590
0.6298 0.4461 0.2623
0.6699 0.4494 0.2657
0.7100 0.4528 0.2690
0.7501 0.4561 0.2724
0.7902 0.4595 0.2757
0.8303 0.4628 0.2790
0.2000 0.4572 0.2367
0.2401 0.4606 0.2401
0.2802 0.4639 0.2434
0.3203 0.4673 0.2468
0.3604 0.4706 0.2501
0.4005 0.4740 0.2535
0.4406 0.4773 0.2568
0.4807 0.4807 0.2602
0.5208 0.4840 0.2635
0.5609 0.4874 0.2669
0.6010 0.4907 0.2702
0.6411 0.4941 0.2736
0.6812 0.4974 0.2769
0.7213 0.5008 0.2803
0.7614 0.5041 0.2836
0.8015 0.5075 0.2870
0.8416 0.5108 0.2903
0.2113 0.5053 0.2480
0.2514 0.5086 0.2514
0.2914 0.5119 0.2547
0.3315 0.5153 0.2580
0.3716 0.5186 0.2614
0.4117 0.5220 0.2647
0.4518 0.5253 0.2681
0.4919 0.5287 0.2714
0.5320 0.5320 0.2748
0.5721 0.5354 0.2781
0.6122 0.5387 0.2815
0.6523 0.5421 0.2848
0.6924 0.5454 0.2882
0.7325 0.5488 0.2915
0.7726 0.5521 0.2949
0.8127 0.5555 0.2982
0.8528 0.5588 0.3016
0.2225 0.5533 0.2593
0.2626 0.5566 0.2626
0.3027 0.5600 0.2660
0.3428 0.5633 0.2693
0.3829 0.5667 0.2727
0.4230 0.5700 0.2760
0.4631 0.5734 0.2794
0.5032 0.5767 0.2827
0.5433 0.5801 0.2861
0.5834 0.5834 0.2894
0.6235 0.5868 0.2928
0.6636 0.5901 0.2961
0.7037 0.5934 0.2994
0.7438 0.5968 0.3028
0.7839 0.6001 0.3061
0.8240 0.6035 0.3095
0.8641 0.6068 0.3128
0.2338 0.6013 0.2705
0.2739 0.6046 0.2739
0.3140 0.6080 0.2772
0.3541 0.6113 0.2806
0.3942 0.6147 0.2839
0.4343 0.6180 0.2873
0.4744 0.6214 0.2906
0.5145 0.6247 0.2940
0.5546 0.6281 0.2973
0.5947 0.6314 0.3007
0.6348 0.6348 0.3040
0.6749 0.6381 0.3074
0.7150 0.6415 0.3107
0.7551 0.6448 0.3141
0.7952 0.6482 0.3174
0.8353 0.6515 0.3208
0.8754 0.6549 0.3241
0.2450 0.6493 0.2818
0.2851 0.6526 0.2851
0.3252 0.6560 0.2885
0.3653 0.6593 0.2918
0.4054 0.6627 0.2952
0.4455 0.6660 0.2985
0.4856 0.6694 0.3019
0.5257 0.6727 0.3052
0.5658 0.6761 0.3086
0.6059 0.6794 0.3119
0.6460 0.6828 0.3153
0.6861 0.6861 0.3186
0.7262 0.6895 0.3220
0.7663 0.6928 0.3253
0.8064 0.6962 0.3287
0.8465 0.6995 0.3320
0.8866 0.7029 0.3354
0.2563 0.6973 0.2931
0.2964 0.7007 0.2964
0.3365 0.7040 0.2998
0.3766 0.7074 0.3031
0.4167 0.7107 0.3065
0.4568 0.7141 0.3098
0.4969 0.7174 0.3132
0.5370 0.7207 0.3165
0.5771 0.7241 0.3198
0.6172 0.7274 0.3232
0.6573 0.7308 0.3265
0.6974 0.7341 0.3299
0.7375 0.7375 0.3332
0.7776 0.7408 0.3366
0.8177 0.7442 0.3399
0.8578 0.7475 0.3433
0.8979 0.7509 0.3466
0.2676 0.7453 0.3043
0.3077 0.7487 0.3077
0.3478 0.7520 0.3110
0.3879 0.7554 0.3144
0.4280 0.7587 0.3177
0.4681 0.7621 0.3211
0.5082 0.7654 0.3244
0.5483 0.7688 0.3278
0.5884 0.7721 0.3311
0.6285 0.7755 0.3345
0.6686 0.7788 0.3378
0.7087 0.7822 0.3412
0.7488 0.7855 0.3445
0.7889 0.7889 0.3479
0.8290 0.7922 0.3512
0.8691 0.7956 0.3546
0.9091 0.7989 0.3579
0.2788 0.7933 0.3156
0.3189 0.7967 0.3189
0.3590 0.8000 0.3223
0.3991 0.8034 0.3256
0.4392 0.8067 0.3290
0.4793 0.8101 0.3323
0.5194 0.8134 0.3357
0.5595 0.8168 0.3390
0.5996 0.8201 0.3424
0.6397 0.8235 0.3457
0.6798 0.8268 0.3491
0.7199 0.8302 0.3524
0.7600 0.8335 0.3558
0.8001 0.8369 0.3591
0.8402 0.8402 0.3625
0.8803 0.8436 0.3658
0.9204 0.8469 0.3692
0.2901 0.8414 0.3269
0.3302 0.8447 0.3302
0.3703 0.8481 0.3336
0.4104 0.8514 0.3369
0.4505 0.8547 0.3402
0.4906 0.8581 0.3436
0.5307 0.8614 0.3469
0.5708 0.8648 0.3503
0.6109 0.8681 0.3536
0.6510 0.8715 0.3570
0.6911 0.8748 0.3603
0.7312 0.8782 0.3637
0.7713 0.8815 0.3670
0.8114 0.8849 0.3704
0.8515 0.8882 0.3737
0.8916 0.8916 0.3771
0.9317 0.8949 0.3804
0.3014 0.8894 0.3381
0.3415 0.8927 0.3415
0.3816 0.8961 0.3448
0.4217 0.8994 0.3482
0.4618 0.9028 0.3515
0.5019 0.9061 0.3549
0.5420 0.9095 0.3582
0.5821 0.9128 0.3616
0.6222 0.9162 0.3649
0.6623 0.9195 0.3683
0.7024 0.9229 0.3716
0.7425 0.9262 0.3750
0.7825 0.9295 0.3783
0.8226 0.9329 0.3816
0.8627 0.9362 0.3850
0.9028 0.9396 0.3883
0.9429 0.9429 0.3917
0.1223 0.1223 0.1958
0.1624 0.1256 0.1991
0.2025 0.1290 0.2025
0.2426 0.1323 0.2058
0.2827 0.1357 0.2092
0.3228 0.1390 0.2125
0.3629 0.1424 0.2159
0.4030 0.1457 0.2192
0.4431 0.1491 0.2226
0.4832 0.1524 0.2259
0.5233 0.1558 0.2293
0.5634 0.1591 0.2326
0.6035 0.1625 0.2360
0.6436 0.1658 0.2393
0.6837 0.1692 0.2427
0.7238 0.1725 0.2460
0.7638 0.1758 0.2493
0.1335 0.1703 0.2070
0.1736 0.1736 0.2104
0.2137 0.1770 0.2137
0.2538 0.1803 0.2171
0.2939 0.1837 0.2204
0.3340 0.1870 0.2238
0.3741 0.1904 0.2271
0.4142 0.1937 0.2305
0.4543 0.1971 0.2338
0.4944 0.2004 0.2372
0.5345 0.2038 0.2405
0.5746 0.2071 0.2439
0.6147 0.2105 0.2472
0.6548 0.2138 0.2506
0.6949 0.2172 0.2539
0.7350 0.2205 0.2573
0.7751 0.2239 0.2606
0.1448 0.2183 0.2183
0.1849 0.2217 0.2217
0.2250 0.2250 0.2250
0.2651 0.2283 0.2283
0.3052 0.2317 0.2317
0.3453 0.2350 0.2350
0.3854 0.2384 0.2384
0.4255 0.2417 0.2417
0.4656 0.2451 0.2451
0.5057 0.2484 0.2484
0.5458 0.2518 0.2518
0.5859 0.2551 0.2551
0.6260 0.2585 0.2585
0.6661 0.2618 0.2618
0.7062 0.2652 0.2652
0.7463 0.2685 0.2685
0.7864 0.2719 0.2719
0.1561 0.2663 0.2296
0.1962 0.2697 0.2329
0.2363 0.2730 0.2363
0.2764 0.2764 0.2396
0.3165 0.2797 0.2430
0.3566 0.2831 0.2463
0.3967 0.2864 0.2497
0.4368 0.2898 0.2530
0.4769 0.2931 0.2564
0.5170 0.2965 0.2597
0.5571 0.2998 0.2631
0.5972 0.3032 0.2664
0.6372 0.3065 0.2697
0.6773 0.3098 0.2731
0.7174 0.3132 0.2764
0.7575 0.3165 0.2798
0.7976 0.3199 0.2831
0.1673 0.3143 0.2408
0.2074 0.3177 0.2442
0.2475 0.3210 0.2475
0.2876 0.3244 0.2509
0.3277 0.3277 0.2542
0.3678 0.3311 0.2576
0.4079 0.3344 0.2609
0.4480 0.3378 0.2643
0.4881 0.3411 0.2676
0.5282 0.3445 0.2710
0.5683 0.3478 0.2743
0.6084 0.3512 0.2777
0.6485 0.3545 0.2810
0.6886 0.3579 0.2844
0.7287 0.3612 0.2877
0.7688 0.3646 0.2911
0.8089 0.3679 0.2944
0.1786 0.3623 0.2521
0.2187 0.3657 0.2554
0.2588 0.3690 0.2588
0.2989 0.3724 0.2621
0.3390 0.3757 0.2655
0.3791 0.3791 0.2688
0.4192 0.3824 0.2722
0.4593 0.3858 0.2755
0.4994 0.3891 0.2789
0.5395 0.3925 0.2822
0.5796 0.3958 0.2856
0.6197 0.3992 0.2889
0.6598 0.4025 0.2923
0.6999 0.4059 0.2956
0.7400 0.4092 0.2990
0.7801 0.4126 0.3023
0.8202 0.4159 0.3057
0.1899 0.4104 0.2634
0.2300 0.4137 0.2667
0.2701 0.4171 0.2701
0.3102 0.4204 0.2734
0.3503 0.4238 0.2768
0.3904 0.4271 0.2801
0.4305 0.4305 0.2835
0.4705 0.4338 0.2868
0.5106 0.4371 0.2901
0.5507 0.4405 0.2935
0.5908 0.4438 0.2968
0.6309 0.4472 0.3002
0.6710 0.4505 0.3035
0.7111 0.4539 0.3069
0.7512 0.4572 0.3102
0.7913 0.4606 0.3136
0.8314 0.4639 0.3169
0.2011 0.4584 0.2746
0.2412 0.4617 0.2780
0.2813 0.4651 0.2813
0.3214 0.4684 0.2847
0.3615 0.4718 0.2880
0.4016 0.4751 0.2914
0.4417 0.4785 0.2947
0.4818 0.4818 0.2981
0.5219 0.4852 0.3014
0.5620 0.4885 0.3048
0.6021 0.4919 0.3081
0.6422 0.4952 0.3115
0.6823 0.4986 0.3148
0.7224 0.5019 0.3182
0.7625 0.5053 0.3215
0.8026 0.5086 0.3249
0.8427 0.5120 0.3282
0.2124 0.5064 0.2859
0.2525 0.5097 0.2892
0.2926 0.5131 0.2926
0.3327 0.5164 0.2959
0.3728 0.5198 0.2993
0.4129 0.5231 0.3026
0.4530 0.5265 0.3060
0.4931 0.5298 0.3093
0.5332 0.5332 0.3127
0.5733 0.5365 0.3160
0.6134 0.5399 0.3194
0.6535 0.5432 0.3227
0.6936 0.5466 0.3261
0.7337 0.5499 0.3294
0.7738 0.5533 0.3328
0.8139 0.5566 0.3361
0.8540 0.5600 0.3395
0.2237 0.5544 0.2972
0.2638 0.5578 0.3005
0.3039 0.5611 0.3039
0.3439 0.5644 0.3072
0.3840 0.5678 0.3105
0.4241 0.5711 0.3139
0.4642 0.5745 0.3172
0.5043 0.5778 0.3206
0.5444 0.5812 0.3239
0.5845 0.5845 0.3273
0.6246 0.5879 0.3306
0.6647 0.5912 0.3340
0.7048 0.5946 0.3373
0.7449 0.5979 0.3407
0.7850 0.6013 0.3440
0.8251 0.6046 0.3474
0.8652 0.6080 0.3507
0.2349 0.6024 0.3084
0.2750 0.6058 0.3118
0.3151 0.6091 0.3151
0.3552 0.6125 0.3185
0.3953 0.6158 0.3218
0.4354 0.6192 0.3252
0.4755 0.6225 0.3285
0.5156 0.6259 0.3319
0.5557 0.6292 0.3352
0.5958 0.6326 0.3386
0.6359 0.6359 0.3419
0.6760 0.6393 0.3453
0.7161 0.6426 0.3486
0.7562 0.6459 0.3519
0.7963 0.6493 0.3553
0.8364 0.6526 0.3586
0.8765 0.6560 0.3620
0.2462 0.6504 0.3197
0.2863 0.6538 0.3230
0.3264 0.6571 0.3264
0.3665 0.6605 0.3297
0.4066 0.6638 0.3331
0.4467 0.6672 0.3364
0.4868 0.6705 0.3398
0.5269 0.6739 0.3431
0.5670 0.6772 0.3465
0.6071 0.6806 0.3498
0.6472 0.6839 0.3532
0.6873 0.6873 0.3565
0.7274 0.6906 0.3599
0.7675 0.6940 0.3632
0.8076 0.6973 0.3666
0.8477 0.7007 0.3699
0.8878 0.7040 0.3733
0.2574 0.6984 0.3309
0.2975 0.7018 0.3343
0.3376 0.7051 0.3376
0.3777 0.7085 0.3410
0.4178 0.7118 0.3443
0.4579 0.7152 0.3477
0.4980 0.7185 0.3510
0.5381 0.7219 0.3544
0.5782 0.7252 0.3577
0.6183 0.7286 0.3611
0.6584 0.7319 0.3644
0.6985 0.7353 0.3678
0.7386 0.7386 0.3711
0.7787 0.7420 0.3745
0.8188 0.7453 0.3778
0.8589 0.7487 0.3812
0.8990 0.7520 0.3845
0.2687 0.7465 0.3422
0.3088 0.7498 0.3456
0.3489 0.7532 0.3489
0.3890 0.7565 0.3523
0.4291 0.7599 0.3556
0.4692 0.7632 0.3590
0.5093 0.7666 0.3623
0.5494 0.7699 0.3657
0.5895 0.7732 0.3690
0.6296 0.7766 0.3723
0.6697 0.7799 0.3757
0.7098 0.7833 0.3790
0.7499 0.7866 0.3824
0.7900 0.7900 0.3857
0.8301 0.7933 0.3891
0.8702 0.7967 0.3924
0.9103 0.8000 0.3958
0.2800 0.7945 0.3535
0.3201 0.7978 0.3568
0.3602 0.8012 0.3602
0.4003 0.8045 0.3635
0.4404 0.8079 0.3669
0.4805 0.8112 0.3702
0.5206 0.8146 0.3736
0.5607 0.8179 0.3769
0.6008 0.8213 0.3803
0.6409 0.8246 0.3836
0.6810 0.8280 0.3870
0.7211 0.8313 0.3903
0.7612 0.8347 0.3937
0.8013 0.8380 0.3970
0.8414 0.8414 0.4004
0.8815 0.8447 0.4037
0.9216 0.8481 0.4071
0.2912 0.8425 0.3647
0.3313 0.8458 0.3681
0.3714 0.8492 0.3714
0.4115 0.8525 0.3748
0.4516 0.8559 0.3781
0.4917 0.8592 0.3815
0.5318 0.8626 0.3848
0.5719 0.8659 0.3882
0.6120 0.8693 0.3915
0.6521 0.8726 0.3949
0.6922 0.8760 0.3982
0.7323 0.8793 0.4016
0.7724 0.8827 0.4049
0.8125 0.8860 0.4083
0.8526 0.8894 0.4116
0.8927 0.8927 0.4150
0.9328 0.8961 0.4183
0.3025 0.8905 0.3760
0.3426 0.8939 0.3794
0.3827 0.8972 0.3827
0.4228 0.9006 0.3861
0.4629 0.9039 0.3894
0.5030 0.9072 0.3927
0.5431 0.9106 0.3961
0.5832 0.9139 0.3994
0.6233 0.9173 0.4028
0.6634 0.9206 0.4061
0.7035 0.9240 0.4095
0.7436 0.9273 0.4128
0.7837 0.9307 0.4162
0.8238 0.9340 0.4195
0.8639 0.9374 0.4229
0.9040 0.9407 0.4262
0.9441 0.9441 0.4296
0.1234 0.1234 0.2337
0.1635 0.1268 0.2370
0.2036 0.1301 0.2404
0.2437 0.1335 0.2437
0.2838 0.1368 0.2471
0.3239 0.1402 0.2504
0.3640 0.1435 0.2538
0.4041 0.1469 0.2571
0.4442 0.1502 0.2604
0.4843 0.1535 0.2638
0.5244 0.1569 0.2671
0.5645 0.1602 0.2705
0.6046 0.1636 0.2738
0.6447 0.1669 0.2772
0.6848 0.1703 0.2805
0.7249 0.1736 0.2839
0.7650 0.1770 0.2872
0.1347 0.1714 0.2449
0.1748 0.1748 0.2483
0.2149 0.1781 0.2516
0.2550 0.1815 0.2550
0.2951 0.1848 0.2583
0.3352 0.1882 0.2617
0.3753 0.1915 0.2650
0.4154 0.1949 0.2684
0.4555 0.1982 0.2717
0.4956 0.2016 0.2751
0.5357 0.2049 0.2784
0.5758 0.2083 0.2818
0.6159 0.2116 0.2851
0.6560 0.2150 0.2885
0.6961 0.2183 0.2918
0.7362 0.2217 0.2952
