android/app/src/main/assets/luts/fade@1.cube
# Editor for Immich, fade@1 (tool/make_luts.py)
LUT_3D_SIZE 9
0.1200 0.1200 0.1200
0.2002 0.1267 0.1267
0.2804 0.1334 0.1334
0.3606 0.1401 0.1401
0.4408 0.1468 0.1468
0.5210 0.1535 0.1535
0.6012 0.1602 0.1602
0.6814 0.1669 0.1669
0.7616 0.1736 0.1736
0.1425 0.2160 0.1425
0.2227 0.2227 0.1492
0.3029 0.2294 0.1559
0.3831 0.2361 0.1626
0.4633 0.2428 0.1693
0.5435 0.2495 0.1760
0.6237 0.2562 0.1827
0.7039 0.2629 0.1894
0.7841 0.2696 0.1961
0.1651 0.3121 0.1651
0.2453 0.3188 0.1718
0.3255 0.3255 0.1785
0.4056 0.3321 0.1851
0.4858 0.3388 0.1918
0.5660 0.3455 0.1985
0.6462 0.3522 0.2052
0.7264 0.3589 0.2119
0.8066 0.3656 0.2186
0.1876 0.4081 0.1876
0.2678 0.4148 0.1943
0.3480 0.4215 0.2010
0.4282 0.4282 0.2077
0.5084 0.4349 0.2144
0.5886 0.4416 0.2211
0.6688 0.4483 0.2278
0.7490 0.4550 0.2345
0.8292 0.4617 0.2412
0.2101 0.5041 0.2101
0.2903 0.5108 0.2168
0.3705 0.5175 0.2235
0.4507 0.5242 0.2302
0.5309 0.5309 0.2369
0.6111 0.5376 0.2436
0.6913 0.5443 0.2503
0.7715 0.5510 0.2570
0.8517 0.5577 0.2637
0.2326 0.6001 0.2326
0.3128 0.6068 0.2393
0.3930 0.6135 0.2460
0.4732 0.6202 0.2527
0.5534 0.6269 0.2594
0.6336 0.6336 0.2661
0.7138 0.6403 0.2728
0.7940 0.6470 0.2795
0.8742 0.6537 0.2862
0.2552 0.6962 0.2552
0.3354 0.7029 0.2619
0.4156 0.7096 0.2686
0.4958 0.7163 0.2753
0.5760 0.7230 0.2820
0.6562 0.7297 0.2887
0.7364 0.7364 0.2954
0.8166 0.7431 0.3021
0.8967 0.7497 0.3087
0.2777 0.7922 0.2777
0.3579 0.7989 0.2844
0.4381 0.8056 0.2911
0.5183 0.8123 0.2978
0.5985 0.8190 0.3045
0.6787 0.8257 0.3112
0.7589 0.8324 0.3179
0.8391 0.8391 0.3246
0.9193 0.8458 0.3313
0.3002 0.8882 0.3002
0.3804 0.8949 0.3069
0.4606 0.9016 0.3136
0.5408 0.9083 0.3203
0.6210 0.9150 0.3270
0.7012 0.9217 0.3337
0.7814 0.9284 0.3404
0.8616 0.9351 0.3471
0.9418 0.9418 0.3538
0.1223 0.1223 0.1958
0.2025 0.1290 0.2025
0.2827 0.1357 0.2092
0.3629 0.1424 0.2159
0.4431 0.1491 0.2226
0.5233 0.1558 0.2293
0.6035 0.1625 0.2360
0.6837 0.1692 0.2427
0.7638 0.1758 0.2493
0.1448 0.2183 0.2183
0.2250 0.2250 0.2250
0.3052 0.2317 0.2317
0.3854 0.2384 0.2384
0.4656 0.2451 0.2451
0.5458 0.2518 0.2518
0.6260 0.2585 0.2585
0.7062 0.2652 0.2652
0.7864 0.2719 0.2719
0.1673 0.3143 0.2408
0.2475 0.3210 0.2475
0.3277 0.3277 0.2542
0.4079 0.3344 0.2609
0.4881 0.3411 0.2676
0.5683 0.3478 0.2743
0.6485 0.3545 0.2810
0.7287 0.3612 0.2877
0.8089 0.3679 0.2944
0.1899 0.4104 0.2634
0.2701 0.4171 0.2701
0.3503 0.4238 0.2768
0.4305 0.4305 0.2835
0.5106 0.4371 0.2901
0.5908 0.4438 0.2968
0.6710 0.4505 0.3035
0.7512 0.4572 0.3102
0.8314 0.4639 0.3169
0.2124 0.5064 0.2859
0.2926 0.5131 0.2926
0.3728 0.5198 0.2993
0.4530 0.5265 0.3060
0.5332 0.5332 0.3127
0.6134 0.5399 0.3194
0.6936 0.5466 0.3261
0.7738 0.5533 0.3328
0.8540 0.5600 0.3395
0.2349 0.6024 0.3084
0.3151 0.6091 0.3151
0.3953 0.6158 0.3218
0.4755 0.6225 0.3285
0.5557 0.6292 0.3352
0.6359 0.6359 0.3419
0.7161 0.6426 0.3486
0.7963 0.6493 0.3553
0.8765 0.6560 0.3620
0.2574 0.6984 0.3309
0.3376 0.7051 0.3376
0.4178 0.7118 0.3443
0.4980 0.7185 0.3510
0.5782 0.7252 0.3577
0.6584 0.7319 0.3644
0.7386 0.7386 0.3711
0.8188 0.7453 0.3778
0.8990 0.7520 0.3845
0.2800 0.7945 0.3535
0.3602 0.8012 0.3602
0.4404 0.8079 0.3669
0.5206 0.8146 0.3736
0.6008 0.8213 0.3803
0.6810 0.8280 0.3870
0.7612 0.8347 0.3937
0.8414 0.8414 0.4004
0.9216 0.8481 0.4071
0.3025 0.8905 0.3760
0.3827 0.8972 0.3827
0.4629 0.9039 0.3894
0.5431 0.9106 0.3961
0.6233 0.9173 0.4028
0.7035 0.9240 0.4095
0.7837 0.9307 0.4162
0.8639 0.9374 0.4229
0.9441 0.9441 0.4296
0.1245 0.1245 0.2715
0.2047 0.1312 0.2782
0.2849 0.1379 0.2849
0.3651 0.1446 0.2916
0.4453 0.1513 0.2983
0.5255 0.1580 0.3050
0.6057 0.1647 0.3117
0.6859 0.1714 0.3184
0.7661 0.1781 0.3251
0.1471 0.2206 0.2941
0.2273 0.2273 0.3008
0.3075 0.2340 0.3075
0.3877 0.2407 0.3142
0.4679 0.2474 0.3209
0.5481 0.2541 0.3276
0.6283 0.2608 0.3343
0.7085 0.2675 0.3410
0.7887 0.2742 0.3477
0.1696 0.3166 0.3166
0.2498 0.3233 0.3233
0.3300 0.3300 0.3300
0.4102 0.3367 0.3367
0.4904 0.3434 0.3434
0.5706 0.3501 0.3501
0.6508 0.3568 0.3568
0.7310 0.3635 0.3635
0.8112 0.3702 0.3702
0.1921 0.4126 0.3391
0.2723 0.4193 0.3458
0.3525 0.4260 0.3525
0.4327 0.4327 0.3592
0.5129 0.4394 0.3659
0.5931 0.4461 0.3726
0.6733 0.4528 0.3793
0.7535 0.4595 0.3860
0.8337 0.4662 0.3927
0.2147 0.5087 0.3617
0.2949 0.5154 0.3684
0.3751 0.5221 0.3751
0.4553 0.5288 0.3818
0.5355 0.5355 0.3885
0.6156 0.5421 0.3951
0.6958 0.5488 0.4018
0.7760 0.5555 0.4085
0.8562 0.5622 0.4152
0.2372 0.6047 0.3842
0.3174 0.6114 0.3909
0.3976 0.6181 0.3976
0.4778 0.6248 0.4043
0.5580 0.6315 0.4110
0.6382 0.6382 0.4177
0.7184 0.6449 0.4244
0.7986 0.6516 0.4311
0.8788 0.6583 0.4378
0.2597 0.7007 0.4067
0.3399 0.7074 0.4134
0.4201 0.7141 0.4201
0.5003 0.7208 0.4268
0.5805 0.7275 0.4335
0.6607 0.7342 0.4402
0.7409 0.7409 0.4469
0.8211 0.7476 0.4536
0.9013 0.7543 0.4603
0.2823 0.7968 0.4293
0.3624 0.8034 0.4359
0.4426 0.8101 0.4426
0.5228 0.8168 0.4493
0.6030 0.8235 0.4560
0.6832 0.8302 0.4627
0.7634 0.8369 0.4694
0.8436 0.8436 0.4761
0.9238 0.8503 0.4828
0.3048 0.8928 0.4518
0.3850 0.8995 0.4585
0.4652 0.9062 0.4652
0.5454 0.9129 0.4719
0.6256 0.9196 0.4786
0.7058 0.9263 0.4853
0.7860 0.9330 0.4920
0.8662 0.9397 0.4987
0.9464 0.9464 0.5054
0.1268 0.1268 0.3473
0.2070 0.1335 0.3540
0.2872 0.1402 0.3607
0.3674 0.1469 0.3674
0.4476 0.1536 0.3741
0.5278 0.1603 0.3808
0.6080 0.1670 0.3875
0.6882 0.1737 0.3942
0.7684 0.1804 0.4009
0.1494 0.2229 0.3699
0.2295 0.2295 0.3765
0.3097 0.2362 0.3832
0.3899 0.2429 0.3899
0.4701 0.2496 0.3966
0.5503 0.2563 0.4033
0.6305 0.2630 0.4100
0.7107 0.2697 0.4167
0.7909 0.2764 0.4234
0.1719 0.3189 0.3924
0.2521 0.3256 0.3991
0.3323 0.3323 0.4058
0.4125 0.3390 0.4125
0.4927 0.3457 0.4192
0.5729 0.3524 0.4259
0.6531 0.3591 0.4326
0.7333 0.3658 0.4393
0.8135 0.3725 0.4460
0.1944 0.4149 0.4149
0.2746 0.4216 0.4216
0.3548 0.4283 0.4283
0.4350 0.4350 0.4350
0.5152 0.4417 0.4417
0.5954 0.4484 0.4484
0.6756 0.4551 0.4551
0.7558 0.4618 0.4618
0.8360 0.4685 0.4685
0.2169 0.5109 0.4374
0.2971 0.5176 0.4441
0.3773 0.5243 0.4508
0.4575 0.5310 0.4575
0.5377 0.5377 0.4642
0.6179 0.5444 0.4709
0.6981 0.5511 0.4776
0.7783 0.5578 0.4843
0.8585 0.5645 0.4910
0.2395 0.6070 0.4600
0.3197 0.6137 0.4667
0.3999 0.6204 0.4734
0.4801 0.6271 0.4801
0.5603 0.6338 0.4868
0.6405 0.6405 0.4935
0.7206 0.6471 0.5001
0.8008 0.6538 0.5068
0.8810 0.6605 0.5135
0.2620 0.7030 0.4825
0.3422 0.7097 0.4892
0.4224 0.7164 0.4959
0.5026 0.7231 0.5026
0.5828 0.7298 0.5093
0.6630 0.7365 0.5160
0.7432 0.7432 0.5227
0.8234 0.7499 0.5294
0.9036 0.7566 0.5361
0.2845 0.7990 0.5050
0.3647 0.8057 0.5117
0.4449 0.8124 0.5184
0.5251 0.8191 0.5251
0.6053 0.8258 0.5318
0.6855 0.8325 0.5385
0.7657 0.8392 0.5452
0.8459 0.8459 0.5519
0.9261 0.8526 0.5586
0.3071 0.8951 0.5276
0.3873 0.9018 0.5343
0.4674 0.9084 0.5409
0.5476 0.9151 0.5476
0.6278 0.9218 0.5543
0.7080 0.9285 0.5610
0.7882 0.9352 0.5677
0.8684 0.9419 0.5744
0.9486 0.9486 0.5811
0.1291 0.1291 0.4231
0.2093 0.1358 0.4298
0.2895 0.1425 0.4365
0.3697 0.1492 0.4432
0.4499 0.1559 0.4499
0.5301 0.1626 0.4566
0.6103 0.1693 0.4633
0.6905 0.1760 0.4700
0.7707 0.1827 0.4767
0.1516 0.2251 0.4456
0.2318 0.2318 0.4523
0.3120 0.2385 0.4590
0.3922 0.2452 0.4657
0.4724 0.2519 0.4724
0.5526 0.2586 0.4791
0.6328 0.2653 0.4858
0.7130 0.2720 0.4925
0.7932 0.2787 0.4992
0.1742 0.3212 0.4682
0.2544 0.3279 0.4749
0.3345 0.3345 0.4815
0.4147 0.3412 0.4882
0.4949 0.3479 0.4949
0.5751 0.3546 0.5016
0.6553 0.3613 0.5083
0.7355 0.3680 0.5150
0.8157 0.3747 0.5217
0.1967 0.4172 0.4907
0.2769 0.4239 0.4974
0.3571 0.4306 0.5041
0.4373 0.4373 0.5108
0.5175 0.4440 0.5175
0.5977 0.4507 0.5242
0.6779 0.4574 0.5309
0.7581 0.4641 0.5376
0.8383 0.4708 0.5443
0.2192 0.5132 0.5132
0.2994 0.5199 0.5199
0.3796 0.5266 0.5266
0.4598 0.5333 0.5333
0.5400 0.5400 0.5400
0.6202 0.5467 0.5467
0.7004 0.5534 0.5534
0.7806 0.5601 0.5601
0.8608 0.5668 0.5668
0.2417 0.6092 0.5357
0.3219 0.6159 0.5424
0.4021 0.6226 0.5491
0.4823 0.6293 0.5558
0.5625 0.6360 0.5625
0.6427 0.6427 0.5692
0.7229 0.6494 0.5759
0.8031 0.6561 0.5826
0.8833 0.6628 0.5893
0.2643 0.7053 0.5583
0.3445 0.7120 0.5650
0.4247 0.7187 0.5717
0.5049 0.7254 0.5784
0.5851 0.7321 0.5851
0.6653 0.7388 0.5918
0.7455 0.7455 0.5985
0.8256 0.7521 0.6051
0.9058 0.7588 0.6118
0.2868 0.8013 0.5808
0.3670 0.8080 0.5875
0.4472 0.8147 0.5942
0.5274 0.8214 0.6009
0.6076 0.8281 0.6076
0.6878 0.8348 0.6143
0.7680 0.8415 0.6210
0.8482 0.8482 0.6277
0.9284 0.8549 0.6344
0.3093 0.8973 0.6033
0.3895 0.9040 0.6100
0.4697 0.9107 0.6167
0.5499 0.9174 0.6234
0.6301 0.9241 0.6301
0.7103 0.9308 0.6368
0.7905 0.9375 0.6435
0.8707 0.9442 0.6502
0.9509 0.9509 0.6569
0.1314 0.1314 0.4989
0.2116 0.1381 0.5056
0.2918 0.1448 0.5123
0.3720 0.1515 0.5190
0.4522 0.1582 0.5257
0.5324 0.1649 0.5324
0.6126 0.1716 0.5391
0.6927 0.1782 0.5457
0.7729 0.1849 0.5524
0.1539 0.2274 0.5214
0.2341 0.2341 0.5281
0.3143 0.2408 0.5348
0.3945 0.2475 0.5415
0.4747 0.2542 0.5482
0.5549 0.2609 0.5549
0.6351 0.2676 0.5616
0.7153 0.2743 0.5683
0.7955 0.2810 0.5750
0.1764 0.3234 0.5439
0.2566 0.3301 0.5506
0.3368 0.3368 0.5573
0.4170 0.3435 0.5640
0.4972 0.3502 0.5707
0.5774 0.3569 0.5774
0.6576 0.3636 0.5841
0.7378 0.3703 0.5908
0.8180 0.3770 0.5975
0.1990 0.4195 0.5665
0.2792 0.4262 0.5732
0.3594 0.4329 0.5799
0.4395 0.4395 0.5865
0.5197 0.4462 0.5932
0.5999 0.4529 0.5999
0.6801 0.4596 0.6066
0.7603 0.4663 0.6133
0.8405 0.4730 0.6200
0.2215 0.5155 0.5890
0.3017 0.5222 0.5957
0.3819 0.5289 0.6024
0.4621 0.5356 0.6091
0.5423 0.5423 0.6158
0.6225 0.5490 0.6225
0.7027 0.5557 0.6292
0.7829 0.5624 0.6359
0.8631 0.5691 0.6426
0.2440 0.6115 0.6115
0.3242 0.6182 0.6182
0.4044 0.6249 0.6249
0.4846 0.6316 0.6316
0.5648 0.6383 0.6383
0.6450 0.6450 0.6450
0.7252 0.6517 0.6517
0.8054 0.6584 0.6584
0.8856 0.6651 0.6651
0.2665 0.7075 0.6340
0.3467 0.7142 0.6407
0.4269 0.7209 0.6474
0.5071 0.7276 0.6541
0.5873 0.7343 0.6608
0.6675 0.7410 0.6675
0.7477 0.7477 0.6742
0.8279 0.7544 0.6809
0.9081 0.7611 0.6876
0.2891 0.8036 0.6566
0.3693 0.8103 0.6633
0.4495 0.8170 0.6700
0.5297 0.8237 0.6767
0.6099 0.8304 0.6834
0.6901 0.8371 0.6901
0.7703 0.8438 0.6968
0.8505 0.8505 0.7035
0.9306 0.8571 0.7101
0.3116 0.8996 0.6791
0.3918 0.9063 0.6858
0.4720 0.9130 0.6925
0.5522 0.9197 0.6992
0.6324 0.9264 0.7059
0.7126 0.9331 0.7126
0.7928 0.9398 0.7193
0.8730 0.9465 0.7260
0.9532 0.9532 0.7327
0.1336 0.1336 0.5746
0.2138 0.1403 0.5813
0.2940 0.1470 0.5880
0.3742 0.1537 0.5947
0.4544 0.1604 0.6014
0.5346 0.1671 0.6081
0.6148 0.1738 0.6148
0.6950 0.1805 0.6215
0.7752 0.1872 0.6282
0.1562 0.2297 0.5972
0.2364 0.2364 0.6039
0.3166 0.2431 0.6106
0.3968 0.2498 0.6173
0.4770 0.2565 0.6240
0.5572 0.2632 0.6307
0.6374 0.2699 0.6374
0.7176 0.2766 0.6441
0.7977 0.2832 0.6507
0.1787 0.3257 0.6197
0.2589 0.3324 0.6264
0.3391 0.3391 0.6331
0.4193 0.3458 0.6398
0.4995 0.3525 0.6465
0.5797 0.3592 0.6532
0.6599 0.3659 0.6599
0.7401 0.3726 0.6666
0.8203 0.3793 0.6733
0.2012 0.4217 0.6422
0.2814 0.4284 0.6489
0.3616 0.4351 0.6556
0.4418 0.4418 0.6623
0.5220 0.4485 0.6690
0.6022 0.4552 0.6757
0.6824 0.4619 0.6824
0.7626 0.4686 0.6891
0.8428 0.4753 0.6958
0.2238 0.5178 0.6648
0.3040 0.5245 0.6715
0.3842 0.5312 0.6782
0.4644 0.5379 0.6849
0.5445 0.5445 0.6915
0.6247 0.5512 0.6982
0.7049 0.5579 0.7049
0.7851 0.5646 0.7116
0.8653 0.5713 0.7183
0.2463 0.6138 0.6873
0.3265 0.6205 0.6940
0.4067 0.6272 0.7007
0.4869 0.6339 0.7074
0.5671 0.6406 0.7141
0.6473 0.6473 0.7208
0.7275 0.6540 0.7275
0.8077 0.6607 0.7342
0.8879 0.6674 0.7409
0.2688 0.7098 0.7098
0.3490 0.7165 0.7165
0.4292 0.7232 0.7232
0.5094 0.7299 0.7299
0.5896 0.7366 0.7366
0.6698 0.7433 0.7433
0.7500 0.7500 0.7500
0.8302 0.7567 0.7567
0.9104 0.7634 0.7634
0.2913 0.8058 0.7323
0.3715 0.8125 0.7390
0.4517 0.8192 0.7457
0.5319 0.8259 0.7524
0.6121 0.8326 0.7591
0.6923 0.8393 0.7658
0.7725 0.8460 0.7725
0.8527 0.8527 0.7792
0.9329 0.8594 0.7859
0.3139 0.9019 0.7549
0.3941 0.9086 0.7616
0.4743 0.9153 0.7683
0.5545 0.9220 0.7750
0.6347 0.9287 0.7817
0.7149 0.9354 0.7884
0.7951 0.9421 0.7951
0.8753 0.9488 0.8018
0.9555 0.9555 0.8085
0.1359 0.1359 0.6504
0.2161 0.1426 0.6571
0.2963 0.1493 0.6638
0.3765 0.1560 0.6705
0.4567 0.1627 0.6772
0.5369 0.1694 0.6839
0.6171 0.1761 0.6906
0.6973 0.1828 0.6973
0.7775 0.1895 0.7040
0.1584 0.2319 0.6729
0.2386 0.2386 0.6796
0.3188 0.2453 0.6863
0.3990 0.2520 0.6930
0.4792 0.2587 0.6997
0.5594 0.2654 0.7064
0.6396 0.2721 0.7131
0.7198 0.2788 0.7198
0.8000 0.2855 0.7265
0.1810 0.3280 0.6955
0.2612 0.3347 0.7022
0.3414 0.3414 0.7089
0.4216 0.3481 0.7156
0.5018 0.3548 0.7223
0.5820 0.3615 0.7290
0.6622 0.3682 0.7357
0.7424 0.3749 0.7424
0.8226 0.3816 0.7491
0.2035 0.4240 0.7180
0.2837 0.4307 0.7247
0.3639 0.4374 0.7314
0.4441 0.4441 0.7381
0.5243 0.4508 0.7448
0.6045 0.4575 0.7515
0.6847 0.4642 0.7582
0.7649 0.4709 0.7649
0.8451 0.4776 0.7716
0.2260 0.5200 0.7405
0.3062 0.5267 0.7472
0.3864 0.5334 0.7539
0.4666 0.5401 0.7606
0.5468 0.5468 0.7673
0.6270 0.5535 0.7740
0.7072 0.5602 0.7807
0.7874 0.5669 0.7874
0.8676 0.5736 0.7941
0.2486 0.6161 0.7631
0.3288 0.6228 0.7698
0.4090 0.6295 0.7765
0.4892 0.6362 0.7832
0.5694 0.6429 0.7899
0.6495 0.6495 0.7965
0.7297 0.6562 0.8032
0.8099 0.6629 0.8099
0.8901 0.6696 0.8166
0.2711 0.7121 0.7856
0.3513 0.7188 0.7923
0.4315 0.7255 0.7990
0.5117 0.7322 0.8057
0.5919 0.7389 0.8124
0.6721 0.7456 0.8191
0.7523 0.7523 0.8258
0.8325 0.7590 0.8325
0.9127 0.7657 0.8392
0.2936 0.8081 0.8081
0.3738 0.8148 0.8148
0.4540 0.8215 0.8215
0.5342 0.8282 0.8282
0.6144 0.8349 0.8349
0.6946 0.8416 0.8416
0.7748 0.8483 0.8483
0.8550 0.8550 0.8550
0.9352 0.8617 0.8617
0.3162 0.9042 0.8307
0.3963 0.9108 0.8373
0.4765 0.9175 0.8440
0.5567 0.9242 0.8507
0.6369 0.9309 0.8574
0.7171 0.9376 0.8641
0.7973 0.9443 0.8708
0.8775 0.9510 0.8775
0.9577 0.9577 0.8842
0.1382 0.1382 0.7262
0.2184 0.1449 0.7329
0.2986 0.1516 0.7396
0.3788 0.1583 0.7463
0.4590 0.1650 0.7530
0.5392 0.1717 0.7597
0.6194 0.1784 0.7664
0.6996 0.1851 0.7731
0.7798 0.1918 0.7798
0.1607 0.2342 0.7487
0.2409 0.2409 0.7554
0.3211 0.2476 0.7621
0.4013 0.2543 0.7688
0.4815 0.2610 0.7755
0.5617 0.2677 0.7822
0.6419 0.2744 0.7889
0.7221 0.2811 0.7956
0.8023 0.2878 0.8023
0.1833 0.3303 0.7713
0.2634 0.3369 0.7779
0.3436 0.3436 0.7846
0.4238 0.3503 0.7913
0.5040 0.3570 0.7980
0.5842 0.3637 0.8047
0.6644 0.3704 0.8114
0.7446 0.3771 0.8181
0.8248 0.3838 0.8248
0.2058 0.4263 0.7938
0.2860 0.4330 0.8005
0.3662 0.4397 0.8072
0.4464 0.4464 0.8139
0.5266 0.4531 0.8206
0.6068 0.4598 0.8273
0.6870 0.4665 0.8340
0.7672 0.4732 0.8407
0.8474 0.4799 0.8474
0.2283 0.5223 0.8163
0.3085 0.5290 0.8230
0.3887 0.5357 0.8297
0.4689 0.5424 0.8364
0.5491 0.5491 0.8431
0.6293 0.5558 0.8498
0.7095 0.5625 0.8565
0.7897 0.5692 0.8632
0.8699 0.5759 0.8699
0.2508 0.6183 0.8388
0.3310 0.6250 0.8455
0.4112 0.6317 0.8522
0.4914 0.6384 0.8589
0.5716 0.6451 0.8656
0.6518 0.6518 0.8723
0.7320 0.6585 0.8790
0.8122 0.6652 0.8857
0.8924 0.6719 0.8924
0.2734 0.7144 0.8614
0.3536 0.7211 0.8681
0.4338 0.7278 0.8748
0.5140 0.7345 0.8815
0.5942 0.7412 0.8882
0.6744 0.7479 0.8949
0.7545 0.7545 0.9015
0.8347 0.7612 0.9082
0.9149 0.7679 0.9149
0.2959 0.8104 0.8839
0.3761 0.8171 0.8906
0.4563 0.8238 0.8973
0.5365 0.8305 0.9040
0.6167 0.8372 0.9107
0.6969 0.8439 0.9174
0.7771 0.8506 0.9241
0.8573 0.8573 0.9308
0.9375 0.8640 0.9375
0.3184 0.9064 0.9064
0.3986 0.9131 0.9131
0.4788 0.9198 0.9198
0.5590 0.9265 0.9265
0.6392 0.9332 0.9332
0.7194 0.9399 0.9399
0.7996 0.9466 0.9466
0.8798 0.9533 0.9533
0.9600 0.9600 0.9600
