android/app/src/main/assets/luts/film@1.cube
# Editor for Immich, film@1 (tool/make_luts.py)
LUT_3D_SIZE 5
0.0441 0.0659 0.0777
0.2199 0.0696 0.0798
0.4482 0.0745 0.0831
0.6809 0.0796 0.0865
0.8702 0.0836 0.0890
0.0640 0.2591 0.0856
0.2430 0.2627 0.0878
0.4725 0.2675 0.0912
0.7043 0.2724 0.0946
0.8907 0.2762 0.0971
0.0875 0.4986 0.0971
0.2697 0.5023 0.0994
0.5001 0.5071 0.1029
0.7310 0.5119 0.1063
0.9144 0.5156 0.1088
0.1111 0.7370 0.1086
0.2963 0.7408 0.1111
0.5278 0.7456 0.1146
0.7576 0.7504 0.1181
0.9380 0.7541 0.1205
0.1313 0.9265 0.1168
0.3194 0.9305 0.1194
0.5518 0.9355 0.1230
0.7805 0.9405 0.1265
0.9577 0.9442 0.1289
0.0461 0.0673 0.2637
0.2223 0.0710 0.2651
0.4507 0.0759 0.2676
0.6833 0.0809 0.2702
0.8723 0.0849 0.2718
0.0660 0.2604 0.2689
0.2454 0.2640 0.2703
0.4749 0.2688 0.2729
0.7067 0.2737 0.2755
0.8928 0.2775 0.2771
0.0895 0.4999 0.2776
0.2720 0.5036 0.2791
0.5026 0.5083 0.2817
0.7334 0.5131 0.2843
0.9165 0.5168 0.2858
0.1131 0.7382 0.2863
0.2986 0.7420 0.2879
0.5302 0.7469 0.2905
0.7599 0.7517 0.2931
0.9399 0.7553 0.2946
0.1333 0.9278 0.2915
0.3217 0.9318 0.2931
0.5542 0.9368 0.2959
0.7828 0.9418 0.2985
0.9597 0.9455 0.2999
0.0485 0.0690 0.4896
0.2250 0.0727 0.4907
0.4535 0.0776 0.4930
0.6861 0.0826 0.4954
0.8748 0.0866 0.4968
0.0684 0.2620 0.4940
0.2481 0.2657 0.4952
0.4777 0.2705 0.4975
0.7094 0.2753 0.4998
0.8952 0.2791 0.5011
0.0919 0.5015 0.5018
0.2747 0.5052 0.5030
0.5054 0.5100 0.5054
0.7361 0.5147 0.5077
0.9188 0.5184 0.5089
0.1155 0.7399 0.5095
0.3013 0.7437 0.5108
0.5330 0.7485 0.5132
0.7626 0.7533 0.5155
0.9423 0.7570 0.5166
0.1357 0.9295 0.5137
0.3244 0.9335 0.5151
0.5570 0.9385 0.5174
0.7855 0.9434 0.5197
0.9620 0.9472 0.5208
0.0508 0.0706 0.7105
0.2276 0.0744 0.7120
0.4563 0.0793 0.7146
0.6887 0.0843 0.7173
0.8772 0.0883 0.7190
0.0707 0.2636 0.7160
0.2507 0.2673 0.7175
0.4805 0.2721 0.7201
0.7121 0.2769 0.7228
0.8976 0.2807 0.7244
0.0943 0.5031 0.7249
0.2774 0.5068 0.7264
0.5082 0.5116 0.7290
0.7387 0.5164 0.7316
0.9212 0.5200 0.7331
0.1179 0.7415 0.7336
0.3040 0.7453 0.7352
0.5357 0.7502 0.7378
0.7653 0.7550 0.7403
0.9447 0.7586 0.7417
0.1381 0.9312 0.7386
0.3271 0.9352 0.7402
0.5598 0.9402 0.7429
0.7881 0.9451 0.7454
0.9644 0.9489 0.7467
0.0527 0.0719 0.8815
0.2299 0.0756 0.8839
0.4587 0.0806 0.8875
0.6911 0.0856 0.8911
0.8792 0.0896 0.8937
0.0727 0.2649 0.8901
0.2530 0.2686 0.8925
0.4829 0.2734 0.8960
0.7144 0.2782 0.8996
0.8996 0.2820 0.9020
0.0963 0.5044 0.9020
0.2797 0.5081 0.9044
0.5106 0.5129 0.9079
0.7411 0.5176 0.9113
0.9232 0.5213 0.9137
0.1200 0.7428 0.9136
0.3063 0.7466 0.9160
0.5382 0.7515 0.9195
0.7676 0.7563 0.9229
0.9467 0.7599 0.9251
0.1402 0.9325 0.9214
0.3295 0.9366 0.9239
0.5622 0.9416 0.9274
0.7905 0.9465 0.9307
0.9664 0.9502 0.9328
