android/app/src/main/assets/luts/film@1.cube
# Editor for Immich, film@1 (tool/make_luts.py)
LUT_3D_SIZE 9
0.0441 0.0659 0.0777
0.1225 0.0675 0.0785
0.2199 0.0696 0.0798
0.3305 0.0720 0.0814
0.4482 0.0745 0.0831
0.5670 0.0771 0.0849
0.6809 0.0796 0.0865
0.7840 0.0818 0.0880
0.8702 0.0836 0.0890
0.0533 0.1537 0.0810
0.1327 0.1553 0.0818
0.2308 0.1574 0.0831
0.3418 0.1597 0.0847
0.4597 0.1622 0.0865
0.5784 0.1647 0.0883
0.6920 0.1672 0.0899
0.7945 0.1693 0.0913
0.8798 0.1711 0.0924
0.0640 0.2591 0.0856
0.1442 0.2607 0.0865
0.2430 0.2627 0.0878
0.3545 0.2650 0.0894
0.4725 0.2675 0.0912
0.5911 0.2700 0.0930
0.7043 0.2724 0.0946
0.8062 0.2745 0.0961
0.8907 0.2762 0.0971
0.0755 0.3760 0.0911
0.1567 0.3776 0.0920
0.2561 0.3797 0.0934
0.3679 0.3820 0.0950
0.4861 0.3845 0.0968
0.6046 0.3869 0.0986
0.7175 0.3893 0.1003
0.8187 0.3913 0.1017
0.9024 0.3930 0.1027
0.0875 0.4986 0.0971
0.1695 0.5003 0.0980
0.2697 0.5023 0.0994
0.3819 0.5046 0.1011
0.5001 0.5071 0.1029
0.6185 0.5095 0.1047
0.7310 0.5119 0.1063
0.8317 0.5139 0.1078
0.9144 0.5156 0.1088
0.0995 0.6209 0.1031
0.1824 0.6226 0.1040
0.2832 0.6246 0.1055
0.3958 0.6270 0.1071
0.5142 0.6295 0.1090
0.6324 0.6319 0.1108
0.7446 0.6342 0.1125
0.8446 0.6363 0.1139
0.9265 0.6379 0.1148
0.1111 0.7370 0.1086
0.1949 0.7387 0.1097
0.2963 0.7408 0.1111
0.4092 0.7431 0.1128
0.5278 0.7456 0.1146
0.6459 0.7481 0.1165
0.7576 0.7504 0.1181
0.8570 0.7525 0.1195
0.9380 0.7541 0.1205
0.1218 0.8408 0.1134
0.2065 0.8426 0.1144
0.3085 0.8447 0.1159
0.4218 0.8471 0.1176
0.5404 0.8496 0.1195
0.6584 0.8521 0.1213
0.7698 0.8545 0.1230
0.8685 0.8566 0.1244
0.9485 0.8582 0.1254
0.1313 0.9265 0.1168
0.2168 0.9283 0.1179
0.3194 0.9305 0.1194
0.4331 0.9330 0.1211
0.5518 0.9355 0.1230
0.6696 0.9381 0.1248
0.7805 0.9405 0.1265
0.8786 0.9426 0.1279
0.9577 0.9442 0.1289
0.0450 0.0665 0.1629
0.1235 0.0682 0.1635
0.2211 0.0702 0.1646
0.3317 0.0726 0.1659
0.4494 0.0752 0.1674
0.5682 0.0777 0.1690
0.6821 0.0802 0.1704
0.7851 0.0824 0.1716
0.8712 0.0842 0.1723
0.0543 0.1543 0.1654
0.1337 0.1559 0.1660
0.2319 0.1580 0.1671
0.3430 0.1603 0.1685
0.4609 0.1628 0.1700
0.5796 0.1654 0.1715
0.6931 0.1678 0.1729
0.7955 0.1699 0.1741
0.8808 0.1717 0.1749
0.0649 0.2597 0.1692
0.1453 0.2613 0.1699
0.2442 0.2633 0.1710
0.3556 0.2656 0.1723
0.4736 0.2681 0.1739
0.5922 0.2706 0.1754
0.7054 0.2730 0.1768
0.8072 0.2751 0.1780
0.8917 0.2768 0.1788
0.0765 0.3766 0.1739
0.1577 0.3782 0.1746
0.2572 0.3803 0.1757
0.3691 0.3826 0.1771
0.4872 0.3850 0.1786
0.6057 0.3875 0.1802
0.7186 0.3898 0.1816
0.8198 0.3919 0.1828
0.9033 0.3936 0.1835
0.0884 0.4992 0.1791
0.1706 0.5008 0.1798
0.2708 0.5029 0.1809
0.3830 0.5052 0.1823
0.5013 0.5076 0.1839
0.6197 0.5101 0.1854
0.7321 0.5124 0.1869
0.8327 0.5145 0.1880
0.9154 0.5161 0.1887
0.1004 0.6215 0.1842
0.1835 0.6232 0.1850
0.2843 0.6252 0.1861
0.3969 0.6275 0.1875
0.5153 0.6300 0.1891
0.6336 0.6325 0.1907
0.7457 0.6348 0.1921
0.8456 0.6368 0.1932
0.9274 0.6385 0.1940
0.1120 0.7375 0.1890
0.1959 0.7392 0.1897
0.2974 0.7413 0.1909
0.4104 0.7437 0.1924
0.5289 0.7462 0.1939
0.6470 0.7487 0.1955
0.7587 0.7510 0.1969
0.8580 0.7530 0.1981
0.9389 0.7547 0.1988
0.1228 0.8414 0.1928
0.2075 0.8431 0.1936
0.3096 0.8453 0.1948
0.4229 0.8477 0.1963
0.5416 0.8502 0.1979
0.6595 0.8527 0.1995
0.7708 0.8551 0.2009
0.8695 0.8571 0.2020
0.9494 0.8587 0.2027
0.1322 0.9271 0.1954
0.2178 0.9289 0.1962
0.3205 0.9311 0.1974
0.4342 0.9335 0.1989
0.5529 0.9361 0.2005
0.6707 0.9387 0.2021
0.7816 0.9410 0.2036
0.8796 0.9431 0.2047
0.9586 0.9448 0.2054
0.0461 0.0673 0.2637
0.1247 0.0689 0.2642
0.2223 0.0710 0.2651
0.3330 0.0734 0.2662
0.4507 0.0759 0.2676
0.5695 0.0785 0.2689
0.6833 0.0809 0.2702
0.7863 0.0831 0.2712
0.8723 0.0849 0.2718
0.0554 0.1551 0.2657
0.1349 0.1567 0.2661
0.2332 0.1587 0.2670
0.3443 0.1611 0.2682
0.4622 0.1636 0.2696
0.5808 0.1661 0.2709
0.6944 0.1685 0.2722
0.7967 0.1706 0.2732
0.8819 0.1724 0.2738
0.0660 0.2604 0.2689
0.1464 0.2620 0.2694
0.2454 0.2640 0.2703
0.3569 0.2663 0.2715
0.4749 0.2688 0.2729
0.5935 0.2713 0.2743
0.7067 0.2737 0.2755
0.8084 0.2758 0.2765
0.8928 0.2775 0.2771
0.0775 0.3773 0.2730
0.1589 0.3789 0.2736
0.2585 0.3810 0.2745
0.3704 0.3833 0.2757
0.4885 0.3857 0.2771
0.6070 0.3882 0.2784
0.7198 0.3905 0.2797
0.8209 0.3926 0.2807
0.9044 0.3943 0.2812
0.0895 0.4999 0.2776
0.1717 0.5015 0.2781
0.2720 0.5036 0.2791
0.3843 0.5059 0.2803
0.5026 0.5083 0.2817
0.6209 0.5108 0.2831
0.7334 0.5131 0.2843
0.8339 0.5152 0.2853
0.9165 0.5168 0.2858
0.1015 0.6222 0.2822
0.1846 0.6239 0.2827
0.2855 0.6259 0.2837
0.3982 0.6282 0.2849
0.5166 0.6307 0.2863
0.6348 0.6332 0.2877
0.7469 0.6355 0.2889
0.8467 0.6375 0.2899
0.9284 0.6391 0.2905
0.1131 0.7382 0.2863
0.1971 0.7399 0.2869
0.2986 0.7420 0.2879
0.4116 0.7444 0.2891
0.5302 0.7469 0.2905
0.6483 0.7494 0.2919
0.7599 0.7517 0.2931
0.8591 0.7537 0.2941
0.9399 0.7553 0.2946
0.1238 0.8421 0.2895
0.2087 0.8438 0.2901
0.3108 0.8460 0.2912
0.4242 0.8484 0.2924
0.5428 0.8509 0.2939
0.6608 0.8534 0.2952
0.7720 0.8558 0.2965
0.8706 0.8578 0.2974
0.9505 0.8594 0.2979
0.1333 0.9278 0.2915
0.2190 0.9296 0.2921
0.3217 0.9318 0.2931
0.4354 0.9342 0.2944
0.5542 0.9368 0.2959
0.6720 0.9394 0.2973
0.7828 0.9418 0.2985
0.8807 0.9438 0.2994
0.9597 0.9455 0.2999
0.0473 0.0681 0.3745
0.1259 0.0697 0.3749
0.2236 0.0718 0.3756
0.3343 0.0742 0.3767
0.4521 0.0767 0.3780
0.5708 0.0793 0.3792
0.6847 0.0818 0.3804
0.7876 0.0840 0.3813
0.8735 0.0858 0.3818
0.0566 0.1559 0.3761
0.1362 0.1575 0.3765
0.2345 0.1595 0.3773
0.3456 0.1619 0.3784
0.4635 0.1644 0.3796
0.5822 0.1669 0.3809
0.6957 0.1693 0.3821
0.7980 0.1714 0.3830
0.8831 0.1732 0.3835
0.0672 0.2612 0.3791
0.1477 0.2628 0.3794
0.2467 0.2648 0.3803
0.3582 0.2672 0.3814
0.4763 0.2696 0.3826
0.5949 0.2721 0.3839
0.7080 0.2745 0.3850
0.8097 0.2766 0.3859
0.8939 0.2783 0.3864
0.0787 0.3781 0.3828
0.1601 0.3797 0.3832
0.2598 0.3818 0.3841
0.3717 0.3841 0.3852
0.4899 0.3865 0.3865
0.6084 0.3890 0.3877
0.7211 0.3913 0.3889
0.8222 0.3934 0.3897
0.9056 0.3950 0.3902
0.0907 0.5007 0.3871
0.1730 0.5023 0.3875
0.2733 0.5044 0.3883
0.3856 0.5067 0.3895
0.5039 0.5091 0.3907
0.6223 0.5116 0.3920
0.7347 0.5139 0.3931
0.8351 0.5160 0.3940
0.9176 0.5176 0.3944
0.1027 0.6230 0.3913
0.1859 0.6246 0.3917
0.2868 0.6267 0.3926
0.3995 0.6290 0.3937
0.5180 0.6315 0.3950
0.6362 0.6340 0.3963
0.7482 0.6363 0.3974
0.8480 0.6383 0.3982
0.9296 0.6399 0.3987
0.1143 0.7390 0.3950
0.1984 0.7407 0.3955
0.2999 0.7428 0.3964
0.4130 0.7452 0.3975
0.5315 0.7477 0.3988
0.6496 0.7501 0.4001
0.7612 0.7525 0.4012
0.8604 0.7545 0.4020
0.9411 0.7561 0.4025
0.1250 0.8429 0.3979
0.2100 0.8446 0.3984
0.3121 0.8468 0.3993
0.4255 0.8492 0.4005
0.5442 0.8517 0.4018
0.6621 0.8542 0.4030
0.7733 0.8566 0.4041
0.8718 0.8586 0.4050
0.9516 0.8602 0.4054
0.1345 0.9286 0.3994
0.2203 0.9304 0.4000
0.3230 0.9326 0.4009
0.4368 0.9351 0.4021
0.5555 0.9376 0.4034
0.6733 0.9402 0.4046
0.7841 0.9426 0.4058
0.8819 0.9446 0.4066
0.9608 0.9463 0.4070
0.0485 0.0690 0.4896
0.1272 0.0706 0.4900
0.2250 0.0727 0.4907
0.3357 0.0751 0.4918
0.4535 0.0776 0.4930
0.5723 0.0802 0.4943
0.6861 0.0826 0.4954
0.7889 0.0848 0.4963
0.8748 0.0866 0.4968
0.0578 0.1567 0.4912
0.1375 0.1583 0.4915
0.2359 0.1604 0.4923
0.3470 0.1627 0.4934
0.4650 0.1652 0.4946
0.5836 0.1678 0.4958
0.6971 0.1702 0.4970
0.7993 0.1723 0.4978
0.8843 0.1740 0.4983
0.0684 0.2620 0.4940
0.1490 0.2636 0.4944
0.2481 0.2657 0.4952
0.3596 0.2680 0.4962
0.4777 0.2705 0.4975
0.5963 0.2730 0.4987
0.7094 0.2753 0.4998
0.8110 0.2774 0.5007
0.8952 0.2791 0.5011
0.0799 0.3790 0.4977
0.1614 0.3806 0.4981
0.2612 0.3826 0.4989
0.3731 0.3849 0.5000
0.4913 0.3874 0.5012
0.6098 0.3898 0.5024
0.7225 0.3922 0.5035
0.8235 0.3942 0.5044
0.9068 0.3959 0.5048
0.0919 0.5015 0.5018
0.1743 0.5032 0.5022
0.2747 0.5052 0.5030
0.3870 0.5075 0.5041
0.5054 0.5100 0.5054
0.6237 0.5124 0.5066
0.7361 0.5147 0.5077
0.8364 0.5168 0.5085
0.9188 0.5184 0.5089
0.1039 0.6238 0.5059
0.1872 0.6255 0.5063
0.2882 0.6275 0.5072
0.4009 0.6299 0.5083
0.5194 0.6323 0.5095
0.6376 0.6348 0.5107
0.7496 0.6371 0.5118
0.8493 0.6391 0.5126
0.9308 0.6408 0.5130
0.1155 0.7399 0.5095
0.1997 0.7416 0.5100
0.3013 0.7437 0.5108
0.4144 0.7460 0.5119
0.5330 0.7485 0.5132
0.6510 0.7510 0.5144
0.7626 0.7533 0.5155
0.8617 0.7554 0.5163
0.9423 0.7570 0.5166
0.1262 0.8437 0.5123
0.2113 0.8455 0.5127
0.3135 0.8476 0.5136
0.4269 0.8500 0.5147
0.5456 0.8525 0.5160
0.6635 0.8551 0.5172
0.7747 0.8574 0.5183
0.8731 0.8595 0.5191
0.9528 0.8611 0.5194
0.1357 0.9295 0.5137
0.2216 0.9313 0.5142
0.3244 0.9335 0.5151
0.4382 0.9359 0.5162
0.5570 0.9385 0.5174
0.6747 0.9410 0.5187
0.7855 0.9434 0.5197
0.8832 0.9455 0.5205
0.9620 0.9472 0.5208
0.0497 0.0698 0.6035
0.1285 0.0715 0.6039
0.2263 0.0736 0.6047
0.3371 0.0759 0.6058
0.4549 0.0785 0.6071
0.5737 0.0810 0.6084
0.6874 0.0835 0.6096
0.7902 0.0857 0.6105
0.8760 0.0875 0.6110
0.0589 0.1576 0.6052
0.1387 0.1592 0.6056
0.2372 0.1612 0.6064
0.3484 0.1636 0.6076
0.4664 0.1661 0.6088
0.5850 0.1686 0.6101
0.6984 0.1710 0.6113
0.8006 0.1731 0.6122
0.8856 0.1749 0.6127
0.0696 0.2629 0.6082
0.1503 0.2645 0.6086
0.2494 0.2665 0.6095
0.3610 0.2688 0.6106
0.4791 0.2713 0.6118
0.5977 0.2738 0.6131
0.7107 0.2762 0.6143
0.8123 0.2782 0.6152
0.8964 0.2799 0.6156
0.0811 0.3798 0.6121
0.1627 0.3814 0.6125
0.2625 0.3834 0.6133
0.3745 0.3857 0.6145
0.4927 0.3882 0.6157
0.6112 0.3907 0.6170
0.7239 0.3930 0.6181
0.8248 0.3951 0.6190
0.9080 0.3967 0.6195
0.0931 0.5024 0.6163
0.1756 0.5040 0.6167
0.2760 0.5060 0.6176
0.3884 0.5083 0.6187
0.5068 0.5108 0.6200
0.6251 0.5133 0.6213
0.7374 0.5156 0.6224
0.8377 0.5176 0.6232
0.9200 0.5192 0.6237
0.1051 0.6247 0.6205
0.1885 0.6263 0.6210
0.2896 0.6284 0.6219
0.4023 0.6307 0.6230
0.5208 0.6332 0.6243
0.6390 0.6356 0.6255
0.7509 0.6379 0.6266
0.8506 0.6400 0.6275
0.9320 0.6416 0.6279
0.1167 0.7407 0.6243
0.2010 0.7424 0.6247
0.3027 0.7445 0.6256
0.4158 0.7469 0.6268
0.5344 0.7494 0.6280
0.6524 0.7518 0.6293
0.7639 0.7542 0.6304
0.8630 0.7562 0.6312
0.9435 0.7578 0.6316
0.1275 0.8446 0.6271
0.2126 0.8463 0.6276
0.3149 0.8485 0.6285
0.4284 0.8509 0.6297
0.5470 0.8534 0.6309
0.6649 0.8559 0.6322
0.7761 0.8583 0.6333
0.8744 0.8603 0.6341
0.9540 0.8619 0.6344
0.1369 0.9303 0.6286
0.2229 0.9321 0.6291
0.3258 0.9343 0.6300
0.4396 0.9368 0.6312
0.5584 0.9394 0.6325
0.6761 0.9419 0.6337
0.7868 0.9443 0.6348
0.8845 0.9464 0.6356
0.9632 0.9480 0.6359
0.0508 0.0706 0.7105
0.1298 0.0723 0.7110
0.2276 0.0744 0.7120
0.3385 0.0767 0.7132
0.4563 0.0793 0.7146
0.5750 0.0819 0.7160
0.6887 0.0843 0.7173
0.7915 0.0865 0.7183
0.8772 0.0883 0.7190
0.0601 0.1584 0.7126
0.1400 0.1600 0.7131
0.2385 0.1620 0.7141
0.3498 0.1644 0.7153
0.4677 0.1669 0.7167
0.5864 0.1694 0.7181
0.6998 0.1718 0.7194
0.8019 0.1739 0.7204
0.8867 0.1757 0.7210
0.0707 0.2636 0.7160
0.1515 0.2653 0.7166
0.2507 0.2673 0.7175
0.3624 0.2696 0.7188
0.4805 0.2721 0.7201
0.5990 0.2746 0.7215
0.7121 0.2769 0.7228
0.8136 0.2790 0.7238
0.8976 0.2807 0.7244
0.0823 0.3806 0.7203
0.1640 0.3822 0.7208
0.2638 0.3842 0.7218
0.3759 0.3865 0.7230
0.4941 0.3890 0.7244
0.6125 0.3915 0.7258
0.7252 0.3938 0.7270
0.8261 0.3958 0.7280
0.9092 0.3975 0.7286
0.0943 0.5031 0.7249
0.1769 0.5048 0.7254
0.2774 0.5068 0.7264
0.3898 0.5091 0.7277
0.5082 0.5116 0.7290
0.6265 0.5141 0.7304
0.7387 0.5164 0.7316
0.8390 0.5184 0.7326
0.9212 0.5200 0.7331
0.1063 0.6254 0.7295
0.1898 0.6271 0.7301
0.2909 0.6292 0.7310
0.4037 0.6315 0.7323
0.5222 0.6340 0.7336
0.6404 0.6364 0.7350
0.7522 0.6387 0.7362
0.8518 0.6408 0.7372
0.9332 0.6424 0.7377
0.1179 0.7415 0.7336
0.2022 0.7432 0.7342
0.3040 0.7453 0.7352
0.4172 0.7477 0.7364
0.5357 0.7502 0.7378
0.6538 0.7526 0.7391
0.7653 0.7550 0.7403
0.8642 0.7570 0.7413
0.9447 0.7586 0.7417
0.1287 0.8454 0.7368
0.2139 0.8471 0.7374
0.3162 0.8493 0.7384
0.4297 0.8517 0.7396
0.5484 0.8542 0.7410
0.6663 0.8567 0.7424
0.7774 0.8591 0.7435
0.8757 0.8611 0.7444
0.9552 0.8627 0.7449
0.1381 0.9312 0.7386
0.2242 0.9330 0.7392
0.3271 0.9352 0.7402
0.4410 0.9376 0.7415
0.5598 0.9402 0.7429
0.6775 0.9427 0.7442
0.7881 0.9451 0.7454
0.8858 0.9472 0.7463
0.9644 0.9489 0.7467
0.0518 0.0713 0.8051
0.1309 0.0730 0.8058
0.2288 0.0751 0.8069
0.3397 0.0775 0.8083
0.4575 0.0800 0.8099
0.5763 0.0826 0.8115
0.6900 0.0850 0.8130
0.7926 0.0872 0.8142
0.8783 0.0890 0.8151
0.0611 0.1590 0.8078
0.1411 0.1607 0.8085
0.2397 0.1627 0.8097
0.3510 0.1651 0.8111
0.4690 0.1676 0.8127
0.5876 0.1701 0.8143
0.7010 0.1725 0.8158
0.8030 0.1746 0.8170
0.8878 0.1764 0.8178
0.0718 0.2643 0.8119
0.1527 0.2660 0.8126
0.2520 0.2680 0.8137
0.3637 0.2703 0.8152
0.4818 0.2728 0.8167
0.6003 0.2753 0.8183
0.7133 0.2776 0.8198
0.8147 0.2797 0.8209
0.8986 0.2814 0.8217
0.0833 0.3812 0.8167
0.1651 0.3829 0.8175
0.2651 0.3849 0.8186
0.3771 0.3872 0.8200
0.4954 0.3897 0.8216
0.6138 0.3922 0.8232
0.7264 0.3945 0.8246
0.8272 0.3965 0.8257
0.9103 0.3982 0.8265
0.0953 0.5038 0.8220
0.1780 0.5055 0.8227
0.2786 0.5075 0.8239
0.3911 0.5098 0.8253
0.5094 0.5123 0.8269
0.6277 0.5148 0.8284
0.7400 0.5171 0.8298
0.8402 0.5191 0.8309
0.9223 0.5207 0.8317
0.1074 0.6261 0.8272
0.1909 0.6278 0.8279
0.2921 0.6299 0.8291
0.4050 0.6322 0.8305
0.5235 0.6347 0.8321
0.6416 0.6371 0.8336
0.7535 0.6395 0.8350
0.8530 0.6415 0.8361
0.9343 0.6431 0.8368
0.1190 0.7422 0.8319
0.2034 0.7439 0.8327
0.3052 0.7460 0.8338
0.4184 0.7484 0.8352
0.5370 0.7509 0.8368
0.6551 0.7534 0.8383
0.7665 0.7557 0.8397
0.8654 0.7577 0.8408
0.9457 0.7593 0.8414
0.1298 0.8461 0.8357
0.2150 0.8479 0.8365
0.3175 0.8500 0.8376
0.4310 0.8524 0.8391
0.5497 0.8550 0.8406
0.6676 0.8575 0.8421
0.7786 0.8598 0.8435
0.8769 0.8619 0.8445
0.9563 0.8635 0.8452
0.1392 0.9319 0.8381
0.2254 0.9337 0.8389
0.3284 0.9359 0.8401
0.4423 0.9384 0.8415
0.5611 0.9410 0.8430
0.6788 0.9435 0.8445
0.7894 0.9459 0.8459
0.8869 0.9480 0.8469
0.9654 0.9496 0.8475
0.0527 0.0719 0.8815
0.1319 0.0735 0.8825
0.2299 0.0756 0.8839
0.3408 0.0780 0.8856
0.4587 0.0806 0.8875
0.5774 0.0831 0.8893
0.6911 0.0856 0.8911
0.7936 0.0878 0.8926
0.8792 0.0896 0.8937
0.0620 0.1596 0.8852
0.1421 0.1612 0.8862
0.2408 0.1633 0.8876
0.3521 0.1656 0.8893
0.4701 0.1682 0.8911
0.5888 0.1707 0.8930
0.7021 0.1731 0.8947
0.8041 0.1752 0.8962
0.8888 0.1770 0.8972
0.0727 0.2649 0.8901
0.1537 0.2665 0.8911
0.2530 0.2686 0.8925
0.3648 0.2709 0.8942
0.4829 0.2734 0.8960
0.6014 0.2759 0.8979
0.7144 0.2782 0.8996
0.8158 0.2803 0.9010
0.8996 0.2820 0.9020
0.0843 0.3818 0.8959
0.1661 0.3834 0.8969
0.2661 0.3855 0.8983
0.3783 0.3878 0.8999
0.4965 0.3903 0.9018
0.6149 0.3927 0.9036
0.7275 0.3951 0.9053
0.8283 0.3971 0.9067
0.9112 0.3988 0.9077
0.0963 0.5044 0.9020
0.1791 0.5060 0.9030
0.2797 0.5081 0.9044
0.3922 0.5104 0.9061
0.5106 0.5129 0.9079
0.6289 0.5153 0.9097
0.7411 0.5176 0.9113
0.8412 0.5197 0.9127
0.9232 0.5213 0.9137
0.1083 0.6267 0.9080
0.1920 0.6284 0.9090
0.2932 0.6304 0.9104
0.4061 0.6328 0.9121
0.5246 0.6353 0.9139
0.6428 0.6377 0.9157
0.7546 0.6400 0.9173
0.8541 0.6421 0.9187
0.9352 0.6437 0.9196
0.1200 0.7428 0.9136
0.2045 0.7445 0.9146
0.3063 0.7466 0.9160
0.4196 0.7490 0.9177
0.5382 0.7515 0.9195
0.6562 0.7539 0.9213
0.7676 0.7563 0.9229
0.8664 0.7583 0.9242
0.9467 0.7599 0.9251
0.1307 0.8467 0.9182
0.2161 0.8485 0.9192
0.3186 0.8506 0.9206
0.4322 0.8530 0.9223
0.5509 0.8556 0.9241
0.6687 0.8581 0.9259
0.7797 0.8604 0.9275
0.8779 0.8625 0.9288
0.9572 0.8641 0.9296
0.1402 0.9325 0.9214
0.2264 0.9343 0.9225
0.3295 0.9366 0.9239
0.4434 0.9390 0.9256
0.5622 0.9416 0.9274
0.6799 0.9441 0.9291
0.7905 0.9465 0.9307
0.8880 0.9486 0.9320
0.9664 0.9502 0.9328
