android/app/src/main/assets/luts/film@1.cube
# Editor for Immich, film@1 (tool/make_luts.py)
LUT_3D_SIZE 17
0.0441 0.0659 0.0777
0.0805 0.0666 0.0780
0.1225 0.0675 0.0785
0.1692 0.0685 0.0791
0.2199 0.0696 0.0798
0.2740 0.0708 0.0805
0.3305 0.0720 0.0814
0.3888 0.0732 0.0822
0.4482 0.0745 0.0831
0.5078 0.0758 0.0840
0.5670 0.0771 0.0849
0.6250 0.0783 0.0857
0.6809 0.0796 0.0865
0.7342 0.0807 0.0873
0.7840 0.0818 0.0880
0.8296 0.0827 0.0885
0.8702 0.0836 0.0890
0.0485 0.1072 0.0791
0.0852 0.1080 0.0795
0.1274 0.1089 0.0800
0.1743 0.1098 0.0806
0.2252 0.1109 0.0812
0.2793 0.1121 0.0820
0.3360 0.1133 0.0828
0.3944 0.1145 0.0837
0.4538 0.1158 0.0846
0.5134 0.1171 0.0855
0.5725 0.1184 0.0864
0.6304 0.1196 0.0872
0.6863 0.1208 0.0880
0.7394 0.1219 0.0888
0.7891 0.1230 0.0895
0.8345 0.1239 0.0900
0.8749 0.1247 0.0905
0.0533 0.1537 0.0810
0.0903 0.1545 0.0813
0.1327 0.1553 0.0818
0.1798 0.1563 0.0824
0.2308 0.1574 0.0831
0.2851 0.1585 0.0839
0.3418 0.1597 0.0847
0.4003 0.1610 0.0856
0.4597 0.1622 0.0865
0.5193 0.1635 0.0874
0.5784 0.1647 0.0883
0.6362 0.1660 0.0891
0.6920 0.1672 0.0899
0.7450 0.1683 0.0907
0.7945 0.1693 0.0913
0.8397 0.1702 0.0919
0.8798 0.1711 0.0924
0.0585 0.2046 0.0831
0.0957 0.2053 0.0835
0.1383 0.2062 0.0840
0.1856 0.2072 0.0846
0.2368 0.2082 0.0853
0.2912 0.2094 0.0861
0.3480 0.2106 0.0869
0.4065 0.2118 0.0878
0.4659 0.2130 0.0887
0.5256 0.2143 0.0896
0.5846 0.2155 0.0905
0.6423 0.2168 0.0913
0.6980 0.2179 0.0921
0.7509 0.2190 0.0929
0.8002 0.2201 0.0936
0.8452 0.2210 0.0941
0.8851 0.2218 0.0946
0.0640 0.2591 0.0856
0.1014 0.2598 0.0860
0.1442 0.2607 0.0865
0.1917 0.2617 0.0871
0.2430 0.2627 0.0878
0.2975 0.2639 0.0886
0.3545 0.2650 0.0894
0.4130 0.2663 0.0903
0.4725 0.2675 0.0912
0.5321 0.2688 0.0921
0.5911 0.2700 0.0930
0.6487 0.2712 0.0938
0.7043 0.2724 0.0946
0.7570 0.2735 0.0954
0.8062 0.2745 0.0961
0.8510 0.2754 0.0966
0.8907 0.2762 0.0971
0.0697 0.3165 0.0883
0.1073 0.3172 0.0886
0.1504 0.3181 0.0892
0.1980 0.3191 0.0898
0.2495 0.3201 0.0905
0.3041 0.3212 0.0913
0.3611 0.3224 0.0921
0.4197 0.3237 0.0930
0.4792 0.3249 0.0939
0.5388 0.3261 0.0948
0.5978 0.3274 0.0957
0.6554 0.3286 0.0966
0.7108 0.3297 0.0974
0.7634 0.3308 0.0981
0.8124 0.3318 0.0988
0.8570 0.3327 0.0993
0.8965 0.3335 0.0998
0.0755 0.3760 0.0911
0.1134 0.3768 0.0915
0.1567 0.3776 0.0920
0.2045 0.3786 0.0926
0.2561 0.3797 0.0934
0.3109 0.3808 0.0942
0.3679 0.3820 0.0950
0.4266 0.3832 0.0959
0.4861 0.3845 0.0968
0.5457 0.3857 0.0977
0.6046 0.3869 0.0986
0.6621 0.3881 0.0995
0.7175 0.3893 0.1003
0.7699 0.3903 0.1010
0.8187 0.3913 0.1017
0.8631 0.3922 0.1022
0.9024 0.3930 0.1027
0.0815 0.4370 0.0941
0.1196 0.4378 0.0945
0.1631 0.4386 0.0950
0.2111 0.4396 0.0956
0.2629 0.4407 0.0964
0.3177 0.4418 0.0971
0.3749 0.4430 0.0980
0.4336 0.4442 0.0989
0.4931 0.4454 0.0998
0.5527 0.4467 0.1007
0.6115 0.4479 0.1016
0.6690 0.4491 0.1025
0.7242 0.4502 0.1033
0.7766 0.4513 0.1040
0.8252 0.4523 0.1047
0.8694 0.4532 0.1052
0.9084 0.4539 0.1057
0.0875 0.4986 0.0971
0.1259 0.4994 0.0975
0.1695 0.5003 0.0980
0.2177 0.5012 0.0987
0.2697 0.5023 0.0994
0.3246 0.5034 0.1002
0.3819 0.5046 0.1011
0.4406 0.5058 0.1019
0.5001 0.5071 0.1029
0.5597 0.5083 0.1038
0.6185 0.5095 0.1047
0.6759 0.5107 0.1055
0.7310 0.5119 0.1063
0.7832 0.5129 0.1071
0.8317 0.5139 0.1078
0.8757 0.5148 0.1083
0.9144 0.5156 0.1088
0.0935 0.5602 0.1001
0.1321 0.5610 0.1005
0.1760 0.5618 0.1011
0.2244 0.5628 0.1017
0.2764 0.5639 0.1024
0.3315 0.5650 0.1033
0.3888 0.5662 0.1041
0.4476 0.5674 0.1050
0.5072 0.5687 0.1059
0.5667 0.5699 0.1068
0.6255 0.5711 0.1077
0.6828 0.5723 0.1086
0.7378 0.5735 0.1094
0.7899 0.5745 0.1102
0.8382 0.5755 0.1108
0.8819 0.5764 0.1114
0.9205 0.5771 0.1118
0.0995 0.6209 0.1031
0.1384 0.6217 0.1035
0.1824 0.6226 0.1040
0.2310 0.6236 0.1047
0.2832 0.6246 0.1055
0.3384 0.6258 0.1063
0.3958 0.6270 0.1071
0.4546 0.6282 0.1080
0.5142 0.6295 0.1090
0.5737 0.6307 0.1099
0.6324 0.6319 0.1108
0.6897 0.6331 0.1116
0.7446 0.6342 0.1125
0.7965 0.6353 0.1132
0.8446 0.6363 0.1139
0.8882 0.6372 0.1144
0.9265 0.6379 0.1148
0.1054 0.6801 0.1059
0.1445 0.6809 0.1064
0.1887 0.6818 0.1069
0.2374 0.6828 0.1076
0.2898 0.6839 0.1083
0.3451 0.6850 0.1092
0.4026 0.6862 0.1100
0.4615 0.6874 0.1109
0.5211 0.6887 0.1119
0.5806 0.6899 0.1128
0.6393 0.6912 0.1137
0.6964 0.6923 0.1146
0.7512 0.6935 0.1154
0.8029 0.6945 0.1161
0.8509 0.6955 0.1168
0.8942 0.6964 0.1173
0.9323 0.6972 0.1178
0.1111 0.7370 0.1086
0.1504 0.7378 0.1091
0.1949 0.7387 0.1097
0.2438 0.7397 0.1103
0.2963 0.7408 0.1111
0.3517 0.7419 0.1119
0.4092 0.7431 0.1128
0.4682 0.7444 0.1137
0.5278 0.7456 0.1146
0.5873 0.7469 0.1156
0.6459 0.7481 0.1165
0.7029 0.7493 0.1173
0.7576 0.7504 0.1181
0.8092 0.7515 0.1189
0.8570 0.7525 0.1195
0.9001 0.7534 0.1201
0.9380 0.7541 0.1205
0.1166 0.7908 0.1111
0.1562 0.7916 0.1116
0.2008 0.7925 0.1122
0.2499 0.7935 0.1128
0.3025 0.7946 0.1136
0.3580 0.7958 0.1144
0.4157 0.7970 0.1153
0.4746 0.7983 0.1162
0.5342 0.7995 0.1172
0.5937 0.8008 0.1181
0.6523 0.8020 0.1190
0.7093 0.8032 0.1199
0.7638 0.8044 0.1207
0.8153 0.8054 0.1214
0.8629 0.8064 0.1221
0.9058 0.8073 0.1227
0.9434 0.8080 0.1231
0.1218 0.8408 0.1134
0.1616 0.8416 0.1138
0.2065 0.8426 0.1144
0.2557 0.8436 0.1151
0.3085 0.8447 0.1159
0.3641 0.8459 0.1167
0.4218 0.8471 0.1176
0.4808 0.8484 0.1185
0.5404 0.8496 0.1195
0.5999 0.8509 0.1204
0.6584 0.8521 0.1213
0.7153 0.8533 0.1222
0.7698 0.8545 0.1230
0.8211 0.8556 0.1237
0.8685 0.8566 0.1244
0.9112 0.8574 0.1249
0.9485 0.8582 0.1254
0.1267 0.8863 0.1153
0.1668 0.8871 0.1157
0.2118 0.8881 0.1163
0.2612 0.8891 0.1170
0.3141 0.8902 0.1178
0.3699 0.8914 0.1187
0.4276 0.8927 0.1195
0.4867 0.8939 0.1205
0.5463 0.8952 0.1214
0.6057 0.8965 0.1223
0.6642 0.8977 0.1233
0.7210 0.8990 0.1241
0.7753 0.9001 0.1249
0.8265 0.9012 0.1257
0.8737 0.9022 0.1264
0.9162 0.9031 0.1269
0.9533 0.9038 0.1273
0.1313 0.9265 0.1168
0.1715 0.9273 0.1173
0.2168 0.9283 0.1179
0.2663 0.9294 0.1186
0.3194 0.9305 0.1194
0.3752 0.9317 0.1202
0.4331 0.9330 0.1211
0.4922 0.9342 0.1220
0.5518 0.9355 0.1230
0.6112 0.9368 0.1239
0.6696 0.9381 0.1248
0.7263 0.9393 0.1257
0.7805 0.9405 0.1265
0.8315 0.9416 0.1273
0.8786 0.9426 0.1279
0.9209 0.9435 0.1285
0.9577 0.9442 0.1289
0.0445 0.0662 0.1180
0.0810 0.0669 0.1183
0.1230 0.0678 0.1187
0.1697 0.0688 0.1192
0.2205 0.0699 0.1199
0.2745 0.0711 0.1206
0.3311 0.0723 0.1213
0.3894 0.0735 0.1221
0.4488 0.0748 0.1229
0.5084 0.0761 0.1238
0.5676 0.0774 0.1246
0.6255 0.0786 0.1254
0.6815 0.0798 0.1261
0.7347 0.0810 0.1268
0.7845 0.0821 0.1274
0.8301 0.0830 0.1279
0.8707 0.0839 0.1283
0.0490 0.1075 0.1192
0.0857 0.1083 0.1195
0.1279 0.1091 0.1200
0.1748 0.1101 0.1205
0.2257 0.1112 0.1211
0.2799 0.1124 0.1218
0.3365 0.1136 0.1226
0.3949 0.1148 0.1234
0.4543 0.1161 0.1242
0.5140 0.1174 0.1250
0.5731 0.1186 0.1259
0.6310 0.1199 0.1266
0.6868 0.1211 0.1274
0.7399 0.1222 0.1281
0.7896 0.1232 0.1287
0.8349 0.1242 0.1292
0.8753 0.1250 0.1296
0.0538 0.1540 0.1209
0.0908 0.1547 0.1212
0.1332 0.1556 0.1216
0.1803 0.1566 0.1221
0.2314 0.1577 0.1228
0.2857 0.1588 0.1235
0.3424 0.1600 0.1242
0.4008 0.1612 0.1250
0.4603 0.1625 0.1259
0.5199 0.1638 0.1267
0.5790 0.1650 0.1275
0.6368 0.1663 0.1283
0.6925 0.1674 0.1291
0.7455 0.1686 0.1297
0.7950 0.1696 0.1303
0.8402 0.1705 0.1308
0.8803 0.1713 0.1312
0.0590 0.2049 0.1228
0.0962 0.2056 0.1231
0.1388 0.2065 0.1236
0.1861 0.2074 0.1241
0.2373 0.2085 0.1247
0.2917 0.2096 0.1255
0.3486 0.2108 0.1262
0.4071 0.2121 0.1270
0.4665 0.2133 0.1279
0.5261 0.2146 0.1287
0.5852 0.2158 0.1295
0.6429 0.2170 0.1303
0.6986 0.2182 0.1311
0.7514 0.2193 0.1317
0.8007 0.2203 0.1323
0.8457 0.2213 0.1328
0.8856 0.2221 0.1332
0.0644 0.2594 0.1250
0.1019 0.2601 0.1254
0.1447 0.2610 0.1258
0.1922 0.2619 0.1264
0.2436 0.2630 0.1270
0.2981 0.2641 0.1277
0.3550 0.2653 0.1285
0.4136 0.2665 0.1293
0.4730 0.2678 0.1301
0.5326 0.2690 0.1310
0.5916 0.2703 0.1318
0.6493 0.2715 0.1326
0.7049 0.2726 0.1333
0.7576 0.2737 0.1340
0.8067 0.2747 0.1346
0.8515 0.2757 0.1351
0.8912 0.2765 0.1355
0.0701 0.3168 0.1275
0.1078 0.3175 0.1278
0.1509 0.3184 0.1283
0.1985 0.3193 0.1288
0.2500 0.3204 0.1295
0.3047 0.3215 0.1302
0.3617 0.3227 0.1310
0.4203 0.3239 0.1318
0.4798 0.3252 0.1326
0.5394 0.3264 0.1335
0.5983 0.3276 0.1343
0.6559 0.3288 0.1351
0.7114 0.3300 0.1358
0.7639 0.3311 0.1365
0.8129 0.3321 0.1371
0.8575 0.3330 0.1376
0.8969 0.3338 0.1380
0.0760 0.3763 0.1301
0.1139 0.3770 0.1305
0.1572 0.3779 0.1309
0.2050 0.3789 0.1315
0.2567 0.3799 0.1321
0.3114 0.3811 0.1329
0.3685 0.3823 0.1336
0.4272 0.3835 0.1345
0.4867 0.3847 0.1353
0.5462 0.3860 0.1361
0.6052 0.3872 0.1370
0.6627 0.3884 0.1378
0.7180 0.3895 0.1385
0.7705 0.3906 0.1392
0.8192 0.3916 0.1398
0.8636 0.3925 0.1403
0.9028 0.3933 0.1406
0.0819 0.4373 0.1329
0.1201 0.4380 0.1332
0.1636 0.4389 0.1337
0.2116 0.4399 0.1342
0.2634 0.4409 0.1349
0.3183 0.4421 0.1356
0.3754 0.4432 0.1364
0.4341 0.4445 0.1372
0.4937 0.4457 0.1381
0.5532 0.4469 0.1389
0.6121 0.4482 0.1397
0.6695 0.4493 0.1405
0.7248 0.4505 0.1413
0.7771 0.4516 0.1420
0.8257 0.4525 0.1426
0.8699 0.4534 0.1431
0.9088 0.4542 0.1434
0.0879 0.4989 0.1357
0.1264 0.4997 0.1360
0.1700 0.5005 0.1365
0.2182 0.5015 0.1371
0.2702 0.5026 0.1377
0.3252 0.5037 0.1385
0.3824 0.5049 0.1392
0.4412 0.5061 0.1401
0.5007 0.5073 0.1409
0.5603 0.5086 0.1418
0.6191 0.5098 0.1426
0.6764 0.5110 0.1434
0.7316 0.5121 0.1441
0.7837 0.5132 0.1448
0.8322 0.5142 0.1454
0.8761 0.5151 0.1459
0.9149 0.5158 0.1463
0.0940 0.5605 0.1385
0.1326 0.5612 0.1388
0.1765 0.5621 0.1393
0.2249 0.5631 0.1399
0.2770 0.5641 0.1405
0.3321 0.5653 0.1413
0.3894 0.5665 0.1421
0.4482 0.5677 0.1429
0.5077 0.5689 0.1438
0.5673 0.5702 0.1446
0.6261 0.5714 0.1454
0.6833 0.5726 0.1462
0.7384 0.5737 0.1470
0.7904 0.5748 0.1477
0.8387 0.5758 0.1482
0.8824 0.5766 0.1487
0.9209 0.5774 0.1491
0.0999 0.6212 0.1412
0.1388 0.6220 0.1416
0.1829 0.6229 0.1421
0.2315 0.6238 0.1426
0.2837 0.6249 0.1433
0.3389 0.6261 0.1441
0.3963 0.6272 0.1449
0.4552 0.6285 0.1457
0.5147 0.6297 0.1466
0.5743 0.6310 0.1474
0.6330 0.6322 0.1482
0.6902 0.6334 0.1490
0.7451 0.6345 0.1498
0.7970 0.6356 0.1505
0.8451 0.6365 0.1510
0.8886 0.6374 0.1515
0.9269 0.6382 0.1519
0.1058 0.6804 0.1438
0.1449 0.6811 0.1442
0.1892 0.6820 0.1447
0.2380 0.6830 0.1453
0.2903 0.6841 0.1460
0.3456 0.6853 0.1467
0.4031 0.6865 0.1475
0.4620 0.6877 0.1484
0.5216 0.6889 0.1492
0.5811 0.6902 0.1501
0.6398 0.6914 0.1509
0.6969 0.6926 0.1517
0.7517 0.6937 0.1525
0.8034 0.6948 0.1531
0.8513 0.6958 0.1537
0.8947 0.6967 0.1542
0.9327 0.6974 0.1546
0.1115 0.7372 0.1463
0.1509 0.7380 0.1467
0.1954 0.7389 0.1472
0.2443 0.7399 0.1478
0.2968 0.7410 0.1485
0.3522 0.7422 0.1493
0.4098 0.7434 0.1501
0.4687 0.7446 0.1509
0.5283 0.7459 0.1518
0.5878 0.7471 0.1526
0.6464 0.7484 0.1535
0.7035 0.7496 0.1543
0.7581 0.7507 0.1550
0.8097 0.7518 0.1557
0.8575 0.7527 0.1563
0.9006 0.7536 0.1568
0.9384 0.7544 0.1571
0.1170 0.7911 0.1486
0.1566 0.7919 0.1490
0.2013 0.7928 0.1495
0.2504 0.7938 0.1501
0.3030 0.7949 0.1508
0.3586 0.7961 0.1516
0.4162 0.7973 0.1524
0.4752 0.7985 0.1532
0.5348 0.7998 0.1541
0.5943 0.8010 0.1549
0.6528 0.8023 0.1558
0.7098 0.8035 0.1566
0.7643 0.8046 0.1573
0.8158 0.8057 0.1580
0.8633 0.8067 0.1586
0.9063 0.8075 0.1591
0.9438 0.8083 0.1594
0.1223 0.8411 0.1506
0.1621 0.8419 0.1510
0.2070 0.8428 0.1515
0.2562 0.8438 0.1521
0.3090 0.8450 0.1528
0.3646 0.8461 0.1536
0.4223 0.8474 0.1544
0.4814 0.8486 0.1553
0.5410 0.8499 0.1561
0.6004 0.8512 0.1570
0.6590 0.8524 0.1578
0.7158 0.8536 0.1586
0.7703 0.8548 0.1594
0.8216 0.8558 0.1601
0.8689 0.8568 0.1606
0.9117 0.8577 0.1611
0.9490 0.8585 0.1615
0.1272 0.8866 0.1522
0.1672 0.8874 0.1527
0.2123 0.8883 0.1532
0.2617 0.8894 0.1538
0.3147 0.8905 0.1545
0.3704 0.8917 0.1553
0.4282 0.8929 0.1561
0.4872 0.8942 0.1570
0.5469 0.8955 0.1578
0.6063 0.8968 0.1587
0.6648 0.8980 0.1596
0.7215 0.8992 0.1604
0.7759 0.9004 0.1611
0.8270 0.9015 0.1618
0.8742 0.9025 0.1624
0.9167 0.9033 0.1628
0.9538 0.9041 0.1632
0.1317 0.9268 0.1535
0.1720 0.9276 0.1540
0.2173 0.9286 0.1545
0.2668 0.9296 0.1551
0.3199 0.9308 0.1558
0.3757 0.9320 0.1566
0.4336 0.9332 0.1575
0.4927 0.9345 0.1583
0.5523 0.9358 0.1592
0.6117 0.9371 0.1601
0.6701 0.9383 0.1609
0.7268 0.9396 0.1617
0.7811 0.9407 0.1625
0.8320 0.9418 0.1631
0.8791 0.9428 0.1637
0.9213 0.9437 0.1642
0.9582 0.9445 0.1645
0.0450 0.0665 0.1629
0.0815 0.0673 0.1632
0.1235 0.0682 0.1635
0.1703 0.0691 0.1640
0.2211 0.0702 0.1646
0.2751 0.0714 0.1652
0.3317 0.0726 0.1659
0.3900 0.0739 0.1666
0.4494 0.0752 0.1674
0.5090 0.0764 0.1682
0.5682 0.0777 0.1690
0.6261 0.0790 0.1697
0.6821 0.0802 0.1704
0.7353 0.0813 0.1710
0.7851 0.0824 0.1716
0.8306 0.0833 0.1720
0.8712 0.0842 0.1723
0.0495 0.1079 0.1640
0.0862 0.1086 0.1642
0.1284 0.1095 0.1646
0.1754 0.1105 0.1651
0.2263 0.1115 0.1656
0.2805 0.1127 0.1663
0.3371 0.1139 0.1670
0.3955 0.1151 0.1677
0.4549 0.1164 0.1685
0.5146 0.1177 0.1693
0.5737 0.1190 0.1700
0.6315 0.1202 0.1708
0.6874 0.1214 0.1715
0.7405 0.1225 0.1721
0.7901 0.1236 0.1726
0.8355 0.1245 0.1731
0.8758 0.1253 0.1734
0.0543 0.1543 0.1654
0.0913 0.1551 0.1657
0.1337 0.1559 0.1660
0.1809 0.1569 0.1665
0.2319 0.1580 0.1671
0.2862 0.1591 0.1678
0.3430 0.1603 0.1685
0.4014 0.1616 0.1692
0.4609 0.1628 0.1700
0.5205 0.1641 0.1708
0.5796 0.1654 0.1715
0.6374 0.1666 0.1723
0.6931 0.1678 0.1729
0.7461 0.1689 0.1736
0.7955 0.1699 0.1741
0.8407 0.1708 0.1746
0.8808 0.1717 0.1749
0.0595 0.2052 0.1672
0.0967 0.2059 0.1674
0.1394 0.2068 0.1678
0.1867 0.2078 0.1683
0.2379 0.2088 0.1689
0.2923 0.2100 0.1695
0.3492 0.2112 0.1703
0.4077 0.2124 0.1710
0.4671 0.2136 0.1718
0.5267 0.2149 0.1726
0.5858 0.2161 0.1733
0.6435 0.2174 0.1741
0.6991 0.2185 0.1748
0.7520 0.2196 0.1754
0.8013 0.2206 0.1759
0.8462 0.2216 0.1764
0.8861 0.2224 0.1767
0.0649 0.2597 0.1692
0.1024 0.2604 0.1695
0.1453 0.2613 0.1699
0.1928 0.2622 0.1704
0.2442 0.2633 0.1710
0.2987 0.2644 0.1716
0.3556 0.2656 0.1723
0.4142 0.2669 0.1731
0.4736 0.2681 0.1739
0.5332 0.2694 0.1746
0.5922 0.2706 0.1754
0.6499 0.2718 0.1761
0.7054 0.2730 0.1768
0.7581 0.2740 0.1775
0.8072 0.2751 0.1780
0.8520 0.2760 0.1784
0.8917 0.2768 0.1788
0.0706 0.3171 0.1715
0.1083 0.3178 0.1718
0.1514 0.3187 0.1722
0.1991 0.3196 0.1727
0.2506 0.3207 0.1733
0.3053 0.3218 0.1739
0.3623 0.3230 0.1746
0.4209 0.3242 0.1754
0.4804 0.3255 0.1762
0.5399 0.3267 0.1770
0.5989 0.3280 0.1777
0.6565 0.3292 0.1785
0.7119 0.3303 0.1791
0.7645 0.3314 0.1798
0.8134 0.3324 0.1803
0.8580 0.3333 0.1807
0.8974 0.3341 0.1811
0.0765 0.3766 0.1739
0.1144 0.3774 0.1742
0.1577 0.3782 0.1746
0.2056 0.3792 0.1751
0.2572 0.3803 0.1757
0.3120 0.3814 0.1764
0.3691 0.3826 0.1771
0.4277 0.3838 0.1779
0.4872 0.3850 0.1786
0.5468 0.3863 0.1794
0.6057 0.3875 0.1802
0.6632 0.3887 0.1809
0.7186 0.3898 0.1816
0.7710 0.3909 0.1822
0.8198 0.3919 0.1828
0.8641 0.3928 0.1832
0.9033 0.3936 0.1835
0.0824 0.4376 0.1765
0.1206 0.4383 0.1768
0.1641 0.4392 0.1772
0.2121 0.4402 0.1777
0.2640 0.4412 0.1783
0.3188 0.4424 0.1790
0.3760 0.4435 0.1797
0.4347 0.4448 0.1804
0.4942 0.4460 0.1812
0.5538 0.4472 0.1820
0.6127 0.4485 0.1828
0.6701 0.4496 0.1835
0.7253 0.4508 0.1842
0.7776 0.4519 0.1848
0.8262 0.4528 0.1854
0.8704 0.4537 0.1858
0.9093 0.4545 0.1861
0.0884 0.4992 0.1791
0.1269 0.5000 0.1794
0.1706 0.5008 0.1798
0.2188 0.5018 0.1803
0.2708 0.5029 0.1809
0.3257 0.5040 0.1816
0.3830 0.5052 0.1823
0.4418 0.5064 0.1831
0.5013 0.5076 0.1839
0.5608 0.5089 0.1847
0.6197 0.5101 0.1854
0.6770 0.5113 0.1862
0.7321 0.5124 0.1869
0.7843 0.5135 0.1875
0.8327 0.5145 0.1880
0.8767 0.5154 0.1884
0.9154 0.5161 0.1887
0.0945 0.5608 0.1817
0.1331 0.5615 0.1820
0.1770 0.5624 0.1824
0.2254 0.5634 0.1829
0.2775 0.5645 0.1835
0.3326 0.5656 0.1842
0.3900 0.5668 0.1850
0.4488 0.5680 0.1857
0.5083 0.5692 0.1865
0.5679 0.5705 0.1873
0.6267 0.5717 0.1881
0.6839 0.5729 0.1888
0.7389 0.5740 0.1895
0.7909 0.5751 0.1901
0.8392 0.5761 0.1907
0.8829 0.5769 0.1911
0.9214 0.5777 0.1914
0.1004 0.6215 0.1842
0.1394 0.6223 0.1845
0.1835 0.6232 0.1850
0.2320 0.6241 0.1855
0.2843 0.6252 0.1861
0.3395 0.6264 0.1868
0.3969 0.6275 0.1875
0.4558 0.6288 0.1883
0.5153 0.6300 0.1891
0.5748 0.6313 0.1899
0.6336 0.6325 0.1907
0.6908 0.6337 0.1914
0.7457 0.6348 0.1921
0.7975 0.6359 0.1927
0.8456 0.6368 0.1932
0.8891 0.6377 0.1937
0.9274 0.6385 0.1940
0.1063 0.6807 0.1867
0.1455 0.6815 0.1870
0.1898 0.6823 0.1874
0.2385 0.6833 0.1880
0.2909 0.6844 0.1886
0.3462 0.6856 0.1893
0.4037 0.6868 0.1900
0.4626 0.6880 0.1908
0.5222 0.6892 0.1916
0.5817 0.6905 0.1924
0.6404 0.6917 0.1932
0.6975 0.6929 0.1939
0.7523 0.6940 0.1946
0.8040 0.6951 0.1952
0.8519 0.6961 0.1957
0.8952 0.6970 0.1962
0.9332 0.6977 0.1965
0.1120 0.7375 0.1890
0.1514 0.7383 0.1893
0.1959 0.7392 0.1897
0.2448 0.7402 0.1903
0.2974 0.7413 0.1909
0.3528 0.7425 0.1916
0.4104 0.7437 0.1924
0.4693 0.7449 0.1931
0.5289 0.7462 0.1939
0.5884 0.7474 0.1947
0.6470 0.7487 0.1955
0.7040 0.7499 0.1962
0.7587 0.7510 0.1969
0.8103 0.7521 0.1975
0.8580 0.7530 0.1981
0.9011 0.7539 0.1985
0.9389 0.7547 0.1988
0.1175 0.7914 0.1910
0.1571 0.7922 0.1914
0.2019 0.7931 0.1918
0.2509 0.7941 0.1924
0.3036 0.7952 0.1930
0.3591 0.7964 0.1937
0.4168 0.7976 0.1945
0.4758 0.7988 0.1952
0.5354 0.8001 0.1960
0.5948 0.8013 0.1968
0.6534 0.8026 0.1976
0.7104 0.8038 0.1984
0.7649 0.8049 0.1990
0.8163 0.8060 0.1997
0.8639 0.8070 0.2002
0.9068 0.8078 0.2006
0.9443 0.8086 0.2009
0.1228 0.8414 0.1928
0.1626 0.8422 0.1932
0.2075 0.8431 0.1936
0.2568 0.8442 0.1942
0.3096 0.8453 0.1948
0.3652 0.8464 0.1955
0.4229 0.8477 0.1963
0.4820 0.8489 0.1971
0.5416 0.8502 0.1979
0.6010 0.8515 0.1987
0.6595 0.8527 0.1995
0.7164 0.8539 0.2002
0.7708 0.8551 0.2009
0.8221 0.8561 0.2015
0.8695 0.8571 0.2020
0.9122 0.8580 0.2024
0.9494 0.8587 0.2027
0.1277 0.8869 0.1943
0.1677 0.8877 0.1946
0.2129 0.8886 0.1951
0.2623 0.8897 0.1957
0.3152 0.8908 0.1963
0.3710 0.8920 0.1970
0.4287 0.8932 0.1978
0.4878 0.8945 0.1986
0.5474 0.8958 0.1994
0.6069 0.8971 0.2002
0.6653 0.8983 0.2010
0.7221 0.8995 0.2017
0.7764 0.9007 0.2024
0.8275 0.9018 0.2030
0.8747 0.9028 0.2036
0.9172 0.9036 0.2040
0.9542 0.9044 0.2043
0.1322 0.9271 0.1954
0.1725 0.9279 0.1957
0.2178 0.9289 0.1962
0.2674 0.9299 0.1968
0.3205 0.9311 0.1974
0.3763 0.9323 0.1982
0.4342 0.9335 0.1989
0.4933 0.9348 0.1997
0.5529 0.9361 0.2005
0.6123 0.9374 0.2013
0.6707 0.9387 0.2021
0.7274 0.9399 0.2029
0.7816 0.9410 0.2036
0.8326 0.9421 0.2042
0.8796 0.9431 0.2047
0.9218 0.9440 0.2051
0.9586 0.9448 0.2054
0.0455 0.0669 0.2117
0.0821 0.0676 0.2119
0.1241 0.0685 0.2122
0.1709 0.0695 0.2127
0.2217 0.0706 0.2132
0.2757 0.0718 0.2138
0.3323 0.0730 0.2144
0.3907 0.0742 0.2151
0.4500 0.0755 0.2159
0.5097 0.0768 0.2166
0.5688 0.0781 0.2173
0.6267 0.0793 0.2180
0.6827 0.0805 0.2186
0.7359 0.0817 0.2192
0.7857 0.0827 0.2197
0.8312 0.0837 0.2201
0.8718 0.0846 0.2204
0.0500 0.1082 0.2126
0.0868 0.1090 0.2128
0.1290 0.1098 0.2132
0.1760 0.1108 0.2136
0.2269 0.1119 0.2141
0.2811 0.1130 0.2147
0.3378 0.1143 0.2154
0.3962 0.1155 0.2161
0.4556 0.1168 0.2168
0.5152 0.1181 0.2175
0.5743 0.1193 0.2182
0.6322 0.1206 0.2189
0.6880 0.1217 0.2196
0.7411 0.1229 0.2202
0.7907 0.1239 0.2207
0.8360 0.1249 0.2211
