android/app/src/main/assets/luts/noir@1.cube
# Editor for Immich, noir@1 (tool/make_luts.py)
LUT_3D_SIZE 17
0.0000 0.0000 0.0000
0.0003 0.0003 0.0003
0.0010 0.0010 0.0010
0.0024 0.0024 0.0024
0.0042 0.0042 0.0042
0.0066 0.0066 0.0066
0.0095 0.0095 0.0095
0.0130 0.0130 0.0130
0.0172 0.0172 0.0172
0.0220 0.0220 0.0220
0.0275 0.0275 0.0275
0.0337 0.0337 0.0337
0.0407 0.0407 0.0407
0.0485 0.0485 0.0485
0.0571 0.0571 0.0571
0.0666 0.0666 0.0666
0.0769 0.0769 0.0769
0.0030 0.0030 0.0030
0.0050 0.0050 0.0050
0.0076 0.0076 0.0076
0.0107 0.0107 0.0107
0.0145 0.0145 0.0145
0.0189 0.0189 0.0189
0.0239 0.0239 0.0239
0.0297 0.0297 0.0297
0.0362 0.0362 0.0362
0.0435 0.0435 0.0435
0.0516 0.0516 0.0516
0.0605 0.0605 0.0605
0.0702 0.0702 0.0702
0.0809 0.0809 0.0809
0.0925 0.0925 0.0925
0.1050 0.1050 0.1050
0.1184 0.1184 0.1184
0.0120 0.0120 0.0120
0.0160 0.0160 0.0160
0.0206 0.0206 0.0206
0.0260 0.0260 0.0260
0.0320 0.0320 0.0320
0.0388 0.0388 0.0388
0.0463 0.0463 0.0463
0.0547 0.0547 0.0547
0.0639 0.0639 0.0639
0.0740 0.0740 0.0740
0.0850 0.0850 0.0850
0.0969 0.0969 0.0969
0.1098 0.1098 0.1098
0.1235 0.1235 0.1235
0.1383 0.1383 0.1383
0.1539 0.1539 0.1539
0.1705 0.1705 0.1705
0.0281 0.0281 0.0281
0.0344 0.0344 0.0344
0.0414 0.0414 0.0414
0.0493 0.0493 0.0493
0.0580 0.0580 0.0580
0.0675 0.0675 0.0675
0.0779 0.0779 0.0779
0.0893 0.0893 0.0893
0.1015 0.1015 0.1015
0.1147 0.1147 0.1147
0.1288 0.1288 0.1288
0.1438 0.1438 0.1438
0.1598 0.1598 0.1598
0.1767 0.1767 0.1767
0.1945 0.1945 0.1945
0.2131 0.2131 0.2131
0.2326 0.2326 0.2326
0.0523 0.0523 0.0523
0.0613 0.0613 0.0613
0.0712 0.0712 0.0712
0.0819 0.0819 0.0819
0.0936 0.0936 0.0936
0.1062 0.1062 0.1062
0.1197 0.1197 0.1197
0.1342 0.1342 0.1342
0.1496 0.1496 0.1496
0.1659 0.1659 0.1659
0.1831 0.1831 0.1831
0.2012 0.2012 0.2012
0.2201 0.2201 0.2201
0.2399 0.2399 0.2399
0.2605 0.2605 0.2605
0.2817 0.2817 0.2817
0.3037 0.3037 0.3037
0.0861 0.0861 0.0861
0.0981 0.0981 0.0981
0.1110 0.1110 0.1110
0.1249 0.1249 0.1249
0.1397 0.1397 0.1397
0.1554 0.1554 0.1554
0.1720 0.1720 0.1720
0.1896 0.1896 0.1896
0.2080 0.2080 0.2080
0.2272 0.2272 0.2272
0.2473 0.2473 0.2473
0.2681 0.2681 0.2681
0.2897 0.2897 0.2897
0.3118 0.3118 0.3118
0.3346 0.3346 0.3346
0.3579 0.3579 0.3579
0.3817 0.3817 0.3817
0.1301 0.1301 0.1301
0.1453 0.1453 0.1453
0.1613 0.1613 0.1613
0.1783 0.1783 0.1783
0.1962 0.1962 0.1962
0.2149 0.2149 0.2149
0.2345 0.2345 0.2345
0.2548 0.2548 0.2548
0.2759 0.2759 0.2759
0.2977 0.2977 0.2977
0.3201 0.3201 0.3201
0.3431 0.3431 0.3431
0.3665 0.3665 0.3665
0.3905 0.3905 0.3905
0.4147 0.4147 0.4147
0.4393 0.4393 0.4393
0.4640 0.4640 0.4640
0.1847 0.1847 0.1847
0.2029 0.2029 0.2029
0.2219 0.2219 0.2219
0.2418 0.2418 0.2418
0.2624 0.2624 0.2624
0.2837 0.2837 0.2837
0.3058 0.3058 0.3058
0.3284 0.3284 0.3284
0.3516 0.3516 0.3516
0.3752 0.3752 0.3752
0.3993 0.3993 0.3993
0.4236 0.4236 0.4236
0.4483 0.4483 0.4483
0.4731 0.4731 0.4731
0.4980 0.4980 0.4980
0.5229 0.5229 0.5229
0.5477 0.5477 0.5477
0.2492 0.2492 0.2492
0.2701 0.2701 0.2701
0.2917 0.2917 0.2917
0.3139 0.3139 0.3139
0.3368 0.3368 0.3368
0.3601 0.3601 0.3601
0.3839 0.3839 0.3839
0.4081 0.4081 0.4081
0.4326 0.4326 0.4326
0.4573 0.4573 0.4573
0.4821 0.4821 0.4821
0.5071 0.5071 0.5071
0.5319 0.5319 0.5319
0.5567 0.5567 0.5567
0.5813 0.5813 0.5813
0.6056 0.6056 0.6056
0.6296 0.6296 0.6296
0.3222 0.3222 0.3222
0.3452 0.3452 0.3452
0.3687 0.3687 0.3687
0.3927 0.3927 0.3927
0.4170 0.4170 0.4170
0.4416 0.4416 0.4416
0.4663 0.4663 0.4663
0.4912 0.4912 0.4912
0.5161 0.5161 0.5161
0.5410 0.5410 0.5410
0.5657 0.5657 0.5657
0.5902 0.5902 0.5902
0.6144 0.6144 0.6144
0.6382 0.6382 0.6382
0.6616 0.6616 0.6616
0.6845 0.6845 0.6845
0.7068 0.7068 0.7068
0.4015 0.4015 0.4015
0.4259 0.4259 0.4259
0.4506 0.4506 0.4506
0.4754 0.4754 0.4754
0.5003 0.5003 0.5003
0.5252 0.5252 0.5252
0.5500 0.5500 0.5500
0.5746 0.5746 0.5746
0.5991 0.5991 0.5991
0.6231 0.6231 0.6231
0.6468 0.6468 0.6468
0.6700 0.6700 0.6700
0.6927 0.6927 0.6927
0.7147 0.7147 0.7147
0.7361 0.7361 0.7361
0.7568 0.7568 0.7568
0.7767 0.7767 0.7767
0.4844 0.4844 0.4844
0.5094 0.5094 0.5094
0.5342 0.5342 0.5342
0.5590 0.5590 0.5590
0.5836 0.5836 0.5836
0.6079 0.6079 0.6079
0.6318 0.6318 0.6318
0.6553 0.6553 0.6553
0.6783 0.6783 0.6783
0.7008 0.7008 0.7008
0.7226 0.7226 0.7226
0.7438 0.7438 0.7438
0.7642 0.7642 0.7642
0.7838 0.7838 0.7838
0.8025 0.8025 0.8025
0.8205 0.8205 0.8205
0.8375 0.8375 0.8375
0.5680 0.5680 0.5680
0.5924 0.5924 0.5924
0.6166 0.6166 0.6166
0.6404 0.6404 0.6404
0.6638 0.6638 0.6638
0.6866 0.6866 0.6866
0.7088 0.7088 0.7088
0.7304 0.7304 0.7304
0.7513 0.7513 0.7513
0.7714 0.7714 0.7714
0.7907 0.7907 0.7907
0.8092 0.8092 0.8092
0.8268 0.8268 0.8268
0.8435 0.8435 0.8435
0.8593 0.8593 0.8593
0.8741 0.8741 0.8741
0.8881 0.8881 0.8881
0.6490 0.6490 0.6490
0.6721 0.6721 0.6721
0.6947 0.6947 0.6947
0.7167 0.7167 0.7167
0.7381 0.7381 0.7381
0.7587 0.7587 0.7587
0.7785 0.7785 0.7785
0.7975 0.7975 0.7975
0.8157 0.8157 0.8157
0.8330 0.8330 0.8330
0.8493 0.8493 0.8493
0.8648 0.8648 0.8648
0.8793 0.8793 0.8793
0.8929 0.8929 0.8929
0.9055 0.9055 0.9055
0.9173 0.9173 0.9173
0.9281 0.9281 0.9281
0.7246 0.7246 0.7246
0.7457 0.7457 0.7457
0.7660 0.7660 0.7660
0.7855 0.7855 0.7855
0.8042 0.8042 0.8042
0.8221 0.8221 0.8221
0.8390 0.8390 0.8390
0.8551 0.8551 0.8551
0.8702 0.8702 0.8702
0.8844 0.8844 0.8844
0.8976 0.8976 0.8976
0.9099 0.9099 0.9099
0.9213 0.9213 0.9213
0.9318 0.9318 0.9318
0.9414 0.9414 0.9414
0.9501 0.9501 0.9501
0.9581 0.9581 0.9581
0.7924 0.7924 0.7924
0.8108 0.8108 0.8108
0.8284 0.8284 0.8284
0.8450 0.8450 0.8450
0.8607 0.8607 0.8607
0.8755 0.8755 0.8755
0.8893 0.8893 0.8893
0.9022 0.9022 0.9022
0.9142 0.9142 0.9142
0.9252 0.9252 0.9252
0.9354 0.9354 0.9354
0.9447 0.9447 0.9447
0.9531 0.9531 0.9531
0.9607 0.9607 0.9607
0.9676 0.9676 0.9676
0.9736 0.9736 0.9736
0.9790 0.9790 0.9790
0.8508 0.8508 0.8508
0.8662 0.8662 0.8662
0.8806 0.8806 0.8806
0.8941 0.8941 0.8941
0.9067 0.9067 0.9067
0.9183 0.9183 0.9183
0.9290 0.9290 0.9290
0.9389 0.9389 0.9389
0.9479 0.9479 0.9479
0.9560 0.9560 0.9560
0.9633 0.9633 0.9633
0.9699 0.9699 0.9699
0.9757 0.9757 0.9757
0.9808 0.9808 0.9808
0.9852 0.9852 0.9852
0.9890 0.9890 0.9890
0.9922 0.9922 0.9922
0.0000 0.0000 0.0000
0.0005 0.0005 0.0005
0.0014 0.0014 0.0014
0.0029 0.0029 0.0029
0.0049 0.0049 0.0049
0.0075 0.0075 0.0075
0.0106 0.0106 0.0106
0.0144 0.0144 0.0144
0.0188 0.0188 0.0188
0.0238 0.0238 0.0238
0.0296 0.0296 0.0296
0.0360 0.0360 0.0360
0.0433 0.0433 0.0433
0.0513 0.0513 0.0513
0.0602 0.0602 0.0602
0.0700 0.0700 0.0700
0.0806 0.0806 0.0806
0.0036 0.0036 0.0036
0.0058 0.0058 0.0058
0.0086 0.0086 0.0086
0.0119 0.0119 0.0119
0.0159 0.0159 0.0159
0.0205 0.0205 0.0205
0.0258 0.0258 0.0258
0.0318 0.0318 0.0318
0.0386 0.0386 0.0386
0.0461 0.0461 0.0461
0.0545 0.0545 0.0545
0.0637 0.0637 0.0637
0.0738 0.0738 0.0738
0.0847 0.0847 0.0847
0.0966 0.0966 0.0966
0.1095 0.1095 0.1095
0.1232 0.1232 0.1232
0.0133 0.0133 0.0133
0.0175 0.0175 0.0175
0.0224 0.0224 0.0224
0.0279 0.0279 0.0279
0.0342 0.0342 0.0342
0.0412 0.0412 0.0412
0.0491 0.0491 0.0491
0.0577 0.0577 0.0577
0.0673 0.0673 0.0673
0.0777 0.0777 0.0777
0.0890 0.0890 0.0890
0.1012 0.1012 0.1012
0.1143 0.1143 0.1143
0.1284 0.1284 0.1284
0.1435 0.1435 0.1435
0.1594 0.1594 0.1594
0.1763 0.1763 0.1763
0.0301 0.0301 0.0301
0.0367 0.0367 0.0367
0.0440 0.0440 0.0440
0.0521 0.0521 0.0521
0.0611 0.0611 0.0611
0.0709 0.0709 0.0709
0.0817 0.0817 0.0817
0.0933 0.0933 0.0933
0.1059 0.1059 0.1059
0.1194 0.1194 0.1194
0.1338 0.1338 0.1338
0.1492 0.1492 0.1492
0.1655 0.1655 0.1655
0.1826 0.1826 0.1826
0.2007 0.2007 0.2007
0.2197 0.2197 0.2197
0.2394 0.2394 0.2394
0.0553 0.0553 0.0553
0.0646 0.0646 0.0646
0.0747 0.0747 0.0747
0.0858 0.0858 0.0858
0.0978 0.0978 0.0978
0.1107 0.1107 0.1107
0.1245 0.1245 0.1245
0.1393 0.1393 0.1393
0.1550 0.1550 0.1550
0.1716 0.1716 0.1716
0.1891 0.1891 0.1891
0.2075 0.2075 0.2075
0.2268 0.2268 0.2268
0.2468 0.2468 0.2468
0.2676 0.2676 0.2676
0.2891 0.2891 0.2891
0.3113 0.3113 0.3113
0.0901 0.0901 0.0901
0.1024 0.1024 0.1024
0.1156 0.1156 0.1156
0.1298 0.1298 0.1298
0.1449 0.1449 0.1449
0.1609 0.1609 0.1609
0.1779 0.1779 0.1779
0.1957 0.1957 0.1957
0.2144 0.2144 0.2144
0.2340 0.2340 0.2340
0.2543 0.2543 0.2543
0.2754 0.2754 0.2754
0.2971 0.2971 0.2971
0.3195 0.3195 0.3195
0.3425 0.3425 0.3425
0.3660 0.3660 0.3660
0.3899 0.3899 0.3899
0.1352 0.1352 0.1352
0.1506 0.1506 0.1506
0.1670 0.1670 0.1670
0.1843 0.1843 0.1843
0.2024 0.2024 0.2024
0.2215 0.2215 0.2215
0.2413 0.2413 0.2413
0.2619 0.2619 0.2619
0.2832 0.2832 0.2832
0.3052 0.3052 0.3052
0.3278 0.3278 0.3278
0.3510 0.3510 0.3510
0.3746 0.3746 0.3746
0.3987 0.3987 0.3987
0.4230 0.4230 0.4230
0.4477 0.4477 0.4477
0.4725 0.4725 0.4725
0.1908 0.1908 0.1908
0.2093 0.2093 0.2093
0.2286 0.2286 0.2286
0.2487 0.2487 0.2487
0.2696 0.2696 0.2696
0.2911 0.2911 0.2911
0.3134 0.3134 0.3134
0.3362 0.3362 0.3362
0.3595 0.3595 0.3595
0.3833 0.3833 0.3833
0.4075 0.4075 0.4075
0.4320 0.4320 0.4320
0.4567 0.4567 0.4567
0.4815 0.4815 0.4815
0.5064 0.5064 0.5064
0.5313 0.5313 0.5313
0.5561 0.5561 0.5561
0.2562 0.2562 0.2562
0.2773 0.2773 0.2773
0.2992 0.2992 0.2992
0.3216 0.3216 0.3216
0.3446 0.3446 0.3446
0.3681 0.3681 0.3681
0.3921 0.3921 0.3921
0.4164 0.4164 0.4164
0.4410 0.4410 0.4410
0.4657 0.4657 0.4657
0.4906 0.4906 0.4906
0.5155 0.5155 0.5155
0.5404 0.5404 0.5404
0.5651 0.5651 0.5651
0.5896 0.5896 0.5896
0.6138 0.6138 0.6138
0.6377 0.6377 0.6377
0.3299 0.3299 0.3299
0.3531 0.3531 0.3531
0.3768 0.3768 0.3768
0.4009 0.4009 0.4009
0.4253 0.4253 0.4253
0.4500 0.4500 0.4500
0.4748 0.4748 0.4748
0.4997 0.4997 0.4997
0.5246 0.5246 0.5246
0.5494 0.5494 0.5494
0.5740 0.5740 0.5740
0.5985 0.5985 0.5985
0.6226 0.6226 0.6226
0.6462 0.6462 0.6462
0.6695 0.6695 0.6695
0.6921 0.6921 0.6921
0.7142 0.7142 0.7142
0.4098 0.4098 0.4098
0.4343 0.4343 0.4343
0.4590 0.4590 0.4590
0.4838 0.4838 0.4838
0.5087 0.5087 0.5087
0.5336 0.5336 0.5336
0.5584 0.5584 0.5584
0.5830 0.5830 0.5830
0.6073 0.6073 0.6073
0.6312 0.6312 0.6312
0.6548 0.6548 0.6548
0.6778 0.6778 0.6778
0.7003 0.7003 0.7003
0.7221 0.7221 0.7221
0.7432 0.7432 0.7432
0.7637 0.7637 0.7637
0.7833 0.7833 0.7833
0.4929 0.4929 0.4929
0.5178 0.5178 0.5178
0.5427 0.5427 0.5427
0.5674 0.5674 0.5674
0.5919 0.5919 0.5919
0.6160 0.6160 0.6160
0.6398 0.6398 0.6398
0.6632 0.6632 0.6632
0.6860 0.6860 0.6860
0.7083 0.7083 0.7083
0.7299 0.7299 0.7299
0.7508 0.7508 0.7508
0.7709 0.7709 0.7709
0.7902 0.7902 0.7902
0.8087 0.8087 0.8087
0.8264 0.8264 0.8264
0.8431 0.8431 0.8431
0.5763 0.5763 0.5763
0.6007 0.6007 0.6007
0.6248 0.6248 0.6248
0.6484 0.6484 0.6484
0.6716 0.6716 0.6716
0.6942 0.6942 0.6942
0.7162 0.7162 0.7162
0.7376 0.7376 0.7376
0.7582 0.7582 0.7582
0.7780 0.7780 0.7780
0.7971 0.7971 0.7971
0.8153 0.8153 0.8153
0.8326 0.8326 0.8326
0.8490 0.8490 0.8490
0.8644 0.8644 0.8644
0.8790 0.8790 0.8790
0.8926 0.8926 0.8926
0.6569 0.6569 0.6569
0.6799 0.6799 0.6799
0.7023 0.7023 0.7023
0.7241 0.7241 0.7241
0.7452 0.7452 0.7452
0.7655 0.7655 0.7655
0.7851 0.7851 0.7851
0.8038 0.8038 0.8038
0.8217 0.8217 0.8217
0.8386 0.8386 0.8386
0.8547 0.8547 0.8547
0.8698 0.8698 0.8698
0.8840 0.8840 0.8840
0.8973 0.8973 0.8973
0.9096 0.9096 0.9096
0.9210 0.9210 0.9210
0.9316 0.9316 0.9316
0.7318 0.7318 0.7318
0.7527 0.7527 0.7527
0.7727 0.7727 0.7727
0.7920 0.7920 0.7920
0.8104 0.8104 0.8104
0.8279 0.8279 0.8279
0.8446 0.8446 0.8446
0.8603 0.8603 0.8603
0.8751 0.8751 0.8751
0.8890 0.8890 0.8890
0.9019 0.9019 0.9019
0.9139 0.9139 0.9139
0.9250 0.9250 0.9250
0.9352 0.9352 0.9352
0.9445 0.9445 0.9445
0.9529 0.9529 0.9529
0.9606 0.9606 0.9606
0.7988 0.7988 0.7988
0.8169 0.8169 0.8169
0.8341 0.8341 0.8341
0.8504 0.8504 0.8504
0.8658 0.8658 0.8658
0.8803 0.8803 0.8803
0.8938 0.8938 0.8938
0.9064 0.9064 0.9064
0.9180 0.9180 0.9180
0.9288 0.9288 0.9288
0.9386 0.9386 0.9386
0.9476 0.9476 0.9476
0.9558 0.9558 0.9558
0.9631 0.9631 0.9631
0.9697 0.9697 0.9697
0.9755 0.9755 0.9755
0.9807 0.9807 0.9807
0.8561 0.8561 0.8561
0.8712 0.8712 0.8712
0.8853 0.8853 0.8853
0.8985 0.8985 0.8985
0.9107 0.9107 0.9107
0.9221 0.9221 0.9221
0.9325 0.9325 0.9325
0.9420 0.9420 0.9420
0.9507 0.9507 0.9507
0.9586 0.9586 0.9586
0.9656 0.9656 0.9656
0.9719 0.9719 0.9719
0.9775 0.9775 0.9775
0.9824 0.9824 0.9824
0.9866 0.9866 0.9866
0.9902 0.9902 0.9902
0.9932 0.9932 0.9932
0.0001 0.0001 0.0001
0.0007 0.0007 0.0007
0.0019 0.0019 0.0019
0.0035 0.0035 0.0035
0.0057 0.0057 0.0057
0.0085 0.0085 0.0085
0.0118 0.0118 0.0118
0.0158 0.0158 0.0158
0.0204 0.0204 0.0204
0.0257 0.0257 0.0257
0.0317 0.0317 0.0317
0.0384 0.0384 0.0384
0.0459 0.0459 0.0459
0.0543 0.0543 0.0543
0.0635 0.0635 0.0635
0.0735 0.0735 0.0735
0.0845 0.0845 0.0845
0.0043 0.0043 0.0043
0.0067 0.0067 0.0067
0.0097 0.0097 0.0097
0.0132 0.0132 0.0132
0.0174 0.0174 0.0174
0.0222 0.0222 0.0222
0.0278 0.0278 0.0278
0.0340 0.0340 0.0340
0.0411 0.0411 0.0411
0.0489 0.0489 0.0489
0.0575 0.0575 0.0575
0.0670 0.0670 0.0670
0.0774 0.0774 0.0774
0.0887 0.0887 0.0887
0.1009 0.1009 0.1009
0.1140 0.1140 0.1140
0.1281 0.1281 0.1281
0.0147 0.0147 0.0147
0.0191 0.0191 0.0191
0.0242 0.0242 0.0242
0.0300 0.0300 0.0300
0.0365 0.0365 0.0365
0.0438 0.0438 0.0438
0.0519 0.0519 0.0519
0.0609 0.0609 0.0609
0.0707 0.0707 0.0707
0.0814 0.0814 0.0814
0.0930 0.0930 0.0930
0.1056 0.1056 0.1056
0.1190 0.1190 0.1190
0.1334 0.1334 0.1334
0.1488 0.1488 0.1488
0.1650 0.1650 0.1650
0.1822 0.1822 0.1822
0.0323 0.0323 0.0323
0.0391 0.0391 0.0391
0.0467 0.0467 0.0467
0.0551 0.0551 0.0551
0.0643 0.0643 0.0643
0.0745 0.0745 0.0745
0.0855 0.0855 0.0855
0.0975 0.0975 0.0975
0.1104 0.1104 0.1104
0.1242 0.1242 0.1242
0.1389 0.1389 0.1389
0.1546 0.1546 0.1546
0.1712 0.1712 0.1712
0.1887 0.1887 0.1887
0.2071 0.2071 0.2071
0.2263 0.2263 0.2263
0.2463 0.2463 0.2463
0.0584 0.0584 0.0584
0.0679 0.0679 0.0679
0.0784 0.0784 0.0784
0.0898 0.0898 0.0898
0.1021 0.1021 0.1021
0.1153 0.1153 0.1153
0.1294 0.1294 0.1294
0.1445 0.1445 0.1445
0.1605 0.1605 0.1605
0.1775 0.1775 0.1775
0.1953 0.1953 0.1953
0.2140 0.2140 0.2140
0.2335 0.2335 0.2335
0.2538 0.2538 0.2538
0.2748 0.2748 0.2748
0.2966 0.2966 0.2966
0.3190 0.3190 0.3190
0.0941 0.0941 0.0941
0.1068 0.1068 0.1068
0.1203 0.1203 0.1203
0.1348 0.1348 0.1348
0.1502 0.1502 0.1502
0.1666 0.1666 0.1666
0.1838 0.1838 0.1838
0.2020 0.2020 0.2020
0.2210 0.2210 0.2210
0.2408 0.2408 0.2408
0.2614 0.2614 0.2614
0.2827 0.2827 0.2827
0.3047 0.3047 0.3047
0.3273 0.3273 0.3273
0.3504 0.3504 0.3504
0.3740 0.3740 0.3740
0.3981 0.3981 0.3981
0.1403 0.1403 0.1403
0.1561 0.1561 0.1561
0.1728 0.1728 0.1728
0.1903 0.1903 0.1903
0.2088 0.2088 0.2088
0.2281 0.2281 0.2281
0.2482 0.2482 0.2482
0.2690 0.2690 0.2690
0.2906 0.2906 0.2906
0.3128 0.3128 0.3128
0.3356 0.3356 0.3356
0.3590 0.3590 0.3590
0.3827 0.3827 0.3827
0.4069 0.4069 0.4069
0.4314 0.4314 0.4314
0.4561 0.4561 0.4561
0.4809 0.4809 0.4809
0.1970 0.1970 0.1970
0.2157 0.2157 0.2157
0.2353 0.2353 0.2353
0.2557 0.2557 0.2557
0.2768 0.2768 0.2768
0.2986 0.2986 0.2986
0.3211 0.3211 0.3211
0.3441 0.3441 0.3441
0.3676 0.3676 0.3676
0.3915 0.3915 0.3915
0.4158 0.4158 0.4158
0.4404 0.4404 0.4404
0.4651 0.4651 0.4651
0.4900 0.4900 0.4900
0.5149 0.5149 0.5149
0.5398 0.5398 0.5398
0.5645 0.5645 0.5645
0.2633 0.2633 0.2633
0.2847 0.2847 0.2847
0.3067 0.3067 0.3067
0.3294 0.3294 0.3294
0.3526 0.3526 0.3526
0.3762 0.3762 0.3762
0.4003 0.4003 0.4003
0.4247 0.4247 0.4247
0.4494 0.4494 0.4494
0.4742 0.4742 0.4742
0.4991 0.4991 0.4991
0.5240 0.5240 0.5240
0.5488 0.5488 0.5488
0.5734 0.5734 0.5734
0.5979 0.5979 0.5979
0.6220 0.6220 0.6220
0.6457 0.6457 0.6457
0.3378 0.3378 0.3378
0.3611 0.3611 0.3611
0.3850 0.3850 0.3850
0.4092 0.4092 0.4092
0.4337 0.4337 0.4337
0.4584 0.4584 0.4584
0.4832 0.4832 0.4832
0.5081 0.5081 0.5081
0.5330 0.5330 0.5330
0.5578 0.5578 0.5578
0.5824 0.5824 0.5824
0.6067 0.6067 0.6067
0.6306 0.6306 0.6306
0.6542 0.6542 0.6542
0.6772 0.6772 0.6772
0.6997 0.6997 0.6997
0.7216 0.7216 0.7216
0.4180 0.4180 0.4180
0.4426 0.4426 0.4426
0.4674 0.4674 0.4674
0.4923 0.4923 0.4923
0.5172 0.5172 0.5172
0.5421 0.5421 0.5421
0.5668 0.5668 0.5668
0.5913 0.5913 0.5913
0.6154 0.6154 0.6154
0.6393 0.6393 0.6393
0.6626 0.6626 0.6626
0.6855 0.6855 0.6855
0.7077 0.7077 0.7077
0.7294 0.7294 0.7294
0.7503 0.7503 0.7503
0.7704 0.7704 0.7704
0.7898 0.7898 0.7898
0.5014 0.5014 0.5014
0.5263 0.5263 0.5263
0.5511 0.5511 0.5511
0.5757 0.5757 0.5757
0.6001 0.6001 0.6001
0.6242 0.6242 0.6242
0.6478 0.6478 0.6478
0.6710 0.6710 0.6710
0.6937 0.6937 0.6937
0.7157 0.7157 0.7157
0.7371 0.7371 0.7371
0.7577 0.7577 0.7577
0.7776 0.7776 0.7776
0.7966 0.7966 0.7966
0.8148 0.8148 0.8148
0.8321 0.8321 0.8321
0.8486 0.8486 0.8486
0.5846 0.5846 0.5846
0.6089 0.6089 0.6089
0.6328 0.6328 0.6328
0.6563 0.6563 0.6563
0.6793 0.6793 0.6793
0.7018 0.7018 0.7018
0.7235 0.7235 0.7235
0.7447 0.7447 0.7447
0.7650 0.7650 0.7650
0.7846 0.7846 0.7846
0.8033 0.8033 0.8033
0.8212 0.8212 0.8212
0.8382 0.8382 0.8382
0.8543 0.8543 0.8543
0.8695 0.8695 0.8695
0.8837 0.8837 0.8837
0.8970 0.8970 0.8970
0.6648 0.6648 0.6648
0.6876 0.6876 0.6876
0.7098 0.7098 0.7098
0.7313 0.7313 0.7313
0.7522 0.7522 0.7522
0.7722 0.7722 0.7722
0.7915 0.7915 0.7915
0.8100 0.8100 0.8100
0.8275 0.8275 0.8275
0.8442 0.8442 0.8442
0.8599 0.8599 0.8599
0.8748 0.8748 0.8748
0.8886 0.8886 0.8886
0.9016 0.9016 0.9016
0.9136 0.9136 0.9136
0.9247 0.9247 0.9247
0.9349 0.9349 0.9349
0.7390 0.7390 0.7390
0.7596 0.7596 0.7596
0.7794 0.7794 0.7794
0.7983 0.7983 0.7983
0.8165 0.8165 0.8165
0.8337 0.8337 0.8337
0.8500 0.8500 0.8500
0.8654 0.8654 0.8654
0.8799 0.8799 0.8799
0.8935 0.8935 0.8935
0.9061 0.9061 0.9061
0.9178 0.9178 0.9178
0.9285 0.9285 0.9285
0.9384 0.9384 0.9384
0.9474 0.9474 0.9474
0.9556 0.9556 0.9556
0.9630 0.9630 0.9630
0.8050 0.8050 0.8050
0.8228 0.8228 0.8228
0.8397 0.8397 0.8397
0.8557 0.8557 0.8557
0.8708 0.8708 0.8708
0.8850 0.8850 0.8850
0.8982 0.8982 0.8982
0.9104 0.9104 0.9104
0.9218 0.9218 0.9218
0.9322 0.9322 0.9322
0.9418 0.9418 0.9418
0.9505 0.9505 0.9505
0.9584 0.9584 0.9584
0.9655 0.9655 0.9655
0.9718 0.9718 0.9718
0.9774 0.9774 0.9774
0.9823 0.9823 0.9823
0.8613 0.8613 0.8613
0.8761 0.8761 0.8761
0.8899 0.8899 0.8899
0.9027 0.9027 0.9027
0.9147 0.9147 0.9147
0.9257 0.9257 0.9257
0.9358 0.9358 0.9358
0.9451 0.9451 0.9451
0.9535 0.9535 0.9535
0.9611 0.9611 0.9611
0.9678 0.9678 0.9678
0.9739 0.9739 0.9739
0.9792 0.9792 0.9792
0.9839 0.9839 0.9839
0.9879 0.9879 0.9879
0.9913 0.9913 0.9913
0.9941 0.9941 0.9941
0.0003 0.0003 0.0003
0.0011 0.0011 0.0011
0.0024 0.0024 0.0024
0.0042 0.0042 0.0042
0.0066 0.0066 0.0066
0.0096 0.0096 0.0096
0.0131 0.0131 0.0131
0.0173 0.0173 0.0173
0.0221 0.0221 0.0221
0.0276 0.0276 0.0276
0.0339 0.0339 0.0339
0.0409 0.0409 0.0409
0.0487 0.0487 0.0487
0.0573 0.0573 0.0573
0.0668 0.0668 0.0668
0.0771 0.0771 0.0771
0.0884 0.0884 0.0884
0.0050 0.0050 0.0050
0.0076 0.0076 0.0076
0.0108 0.0108 0.0108
0.0146 0.0146 0.0146
0.0190 0.0190 0.0190
0.0240 0.0240 0.0240
0.0298 0.0298 0.0298
0.0363 0.0363 0.0363
0.0436 0.0436 0.0436
0.0517 0.0517 0.0517
0.0606 0.0606 0.0606
0.0704 0.0704 0.0704
0.0811 0.0811 0.0811
0.0927 0.0927 0.0927
0.1052 0.1052 0.1052
0.1187 0.1187 0.1187
