android/app/src/main/assets/luts/noir@1.cube
# Editor for Immich, noir@1 (tool/make_luts.py)
LUT_3D_SIZE 9
0.0000 0.0000 0.0000
0.0010 0.0010 0.0010
0.0042 0.0042 0.0042
0.0095 0.0095 0.0095
0.0172 0.0172 0.0172
0.0275 0.0275 0.0275
0.0407 0.0407 0.0407
0.0571 0.0571 0.0571
0.0769 0.0769 0.0769
0.0120 0.0120 0.0120
0.0206 0.0206 0.0206
0.0320 0.0320 0.0320
0.0463 0.0463 0.0463
0.0639 0.0639 0.0639
0.0850 0.0850 0.0850
0.1098 0.1098 0.1098
0.1383 0.1383 0.1383
0.1705 0.1705 0.1705
0.0523 0.0523 0.0523
0.0712 0.0712 0.0712
0.0936 0.0936 0.0936
0.1197 0.1197 0.1197
0.1496 0.1496 0.1496
0.1831 0.1831 0.1831
0.2201 0.2201 0.2201
0.2605 0.2605 0.2605
0.3037 0.3037 0.3037
0.1301 0.1301 0.1301
0.1613 0.1613 0.1613
0.1962 0.1962 0.1962
0.2345 0.2345 0.2345
0.2759 0.2759 0.2759
0.3201 0.3201 0.3201
0.3665 0.3665 0.3665
0.4147 0.4147 0.4147
0.4640 0.4640 0.4640
0.2492 0.2492 0.2492
0.2917 0.2917 0.2917
0.3368 0.3368 0.3368
0.3839 0.3839 0.3839
0.4326 0.4326 0.4326
0.4821 0.4821 0.4821
0.5319 0.5319 0.5319
0.5813 0.5813 0.5813
0.6296 0.6296 0.6296
0.4015 0.4015 0.4015
0.4506 0.4506 0.4506
0.5003 0.5003 0.5003
0.5500 0.5500 0.5500
0.5991 0.5991 0.5991
0.6468 0.6468 0.6468
0.6927 0.6927 0.6927
0.7361 0.7361 0.7361
0.7767 0.7767 0.7767
0.5680 0.5680 0.5680
0.6166 0.6166 0.6166
0.6638 0.6638 0.6638
0.7088 0.7088 0.7088
0.7513 0.7513 0.7513
0.7907 0.7907 0.7907
0.8268 0.8268 0.8268
0.8593 0.8593 0.8593
0.8881 0.8881 0.8881
0.7246 0.7246 0.7246
0.7660 0.7660 0.7660
0.8042 0.8042 0.8042
0.8390 0.8390 0.8390
0.8702 0.8702 0.8702
0.8976 0.8976 0.8976
0.9213 0.9213 0.9213
0.9414 0.9414 0.9414
0.9581 0.9581 0.9581
0.8508 0.8508 0.8508
0.8806 0.8806 0.8806
0.9067 0.9067 0.9067
0.9290 0.9290 0.9290
0.9479 0.9479 0.9479
0.9633 0.9633 0.9633
0.9757 0.9757 0.9757
0.9852 0.9852 0.9852
0.9922 0.9922 0.9922
0.0001 0.0001 0.0001
0.0019 0.0019 0.0019
0.0057 0.0057 0.0057
0.0118 0.0118 0.0118
0.0204 0.0204 0.0204
0.0317 0.0317 0.0317
0.0459 0.0459 0.0459
0.0635 0.0635 0.0635
0.0845 0.0845 0.0845
0.0147 0.0147 0.0147
0.0242 0.0242 0.0242
0.0365 0.0365 0.0365
0.0519 0.0519 0.0519
0.0707 0.0707 0.0707
0.0930 0.0930 0.0930
0.1190 0.1190 0.1190
0.1488 0.1488 0.1488
0.1822 0.1822 0.1822
0.0584 0.0584 0.0584
0.0784 0.0784 0.0784
0.1021 0.1021 0.1021
0.1294 0.1294 0.1294
0.1605 0.1605 0.1605
0.1953 0.1953 0.1953
0.2335 0.2335 0.2335
0.2748 0.2748 0.2748
0.3190 0.3190 0.3190
0.1403 0.1403 0.1403
0.1728 0.1728 0.1728
0.2088 0.2088 0.2088
0.2482 0.2482 0.2482
0.2906 0.2906 0.2906
0.3356 0.3356 0.3356
0.3827 0.3827 0.3827
0.4314 0.4314 0.4314
0.4809 0.4809 0.4809
0.2633 0.2633 0.2633
0.3067 0.3067 0.3067
0.3526 0.3526 0.3526
0.4003 0.4003 0.4003
0.4494 0.4494 0.4494
0.4991 0.4991 0.4991
0.5488 0.5488 0.5488
0.5979 0.5979 0.5979
0.6457 0.6457 0.6457
0.4180 0.4180 0.4180
0.4674 0.4674 0.4674
0.5172 0.5172 0.5172
0.5668 0.5668 0.5668
0.6154 0.6154 0.6154
0.6626 0.6626 0.6626
0.7077 0.7077 0.7077
0.7503 0.7503 0.7503
0.7898 0.7898 0.7898
0.5846 0.5846 0.5846
0.6328 0.6328 0.6328
0.6793 0.6793 0.6793
0.7235 0.7235 0.7235
0.7650 0.7650 0.7650
0.8033 0.8033 0.8033
0.8382 0.8382 0.8382
0.8695 0.8695 0.8695
0.8970 0.8970 0.8970
0.7390 0.7390 0.7390
0.7794 0.7794 0.7794
0.8165 0.8165 0.8165
0.8500 0.8500 0.8500
0.8799 0.8799 0.8799
0.9061 0.9061 0.9061
0.9285 0.9285 0.9285
0.9474 0.9474 0.9474
0.9630 0.9630 0.9630
0.8613 0.8613 0.8613
0.8899 0.8899 0.8899
0.9147 0.9147 0.9147
0.9358 0.9358 0.9358
0.9535 0.9535 0.9535
0.9678 0.9678 0.9678
0.9792 0.9792 0.9792
0.9879 0.9879 0.9879
0.9941 0.9941 0.9941
0.0005 0.0005 0.0005
0.0029 0.0029 0.0029
0.0076 0.0076 0.0076
0.0145 0.0145 0.0145
0.0239 0.0239 0.0239
0.0362 0.0362 0.0362
0.0515 0.0515 0.0515
0.0702 0.0702 0.0702
0.0924 0.0924 0.0924
0.0176 0.0176 0.0176
0.0280 0.0280 0.0280
0.0414 0.0414 0.0414
0.0579 0.0579 0.0579
0.0779 0.0779 0.0779
0.1014 0.1014 0.1014
0.1287 0.1287 0.1287
0.1597 0.1597 0.1597
0.1944 0.1944 0.1944
0.0648 0.0648 0.0648
0.0860 0.0860 0.0860
0.1109 0.1109 0.1109
0.1396 0.1396 0.1396
0.1719 0.1719 0.1719
0.2079 0.2079 0.2079
0.2472 0.2472 0.2472
0.2895 0.2895 0.2895
0.3345 0.3345 0.3345
0.1509 0.1509 0.1509
0.1846 0.1846 0.1846
0.2218 0.2218 0.2218
0.2623 0.2623 0.2623
0.3056 0.3056 0.3056
0.3514 0.3514 0.3514
0.3991 0.3991 0.3991
0.4481 0.4481 0.4481
0.4978 0.4978 0.4978
0.2777 0.2777 0.2777
0.3220 0.3220 0.3220
0.3686 0.3686 0.3686
0.4168 0.4168 0.4168
0.4662 0.4662 0.4662
0.5160 0.5160 0.5160
0.5656 0.5656 0.5656
0.6143 0.6143 0.6143
0.6615 0.6615 0.6615
0.4347 0.4347 0.4347
0.4843 0.4843 0.4843
0.5341 0.5341 0.5341
0.5834 0.5834 0.5834
0.6317 0.6317 0.6317
0.6782 0.6782 0.6782
0.7225 0.7225 0.7225
0.7640 0.7640 0.7640
0.8024 0.8024 0.8024
0.6012 0.6012 0.6012
0.6488 0.6488 0.6488
0.6946 0.6946 0.6946
0.7380 0.7380 0.7380
0.7784 0.7784 0.7784
0.8156 0.8156 0.8156
0.8492 0.8492 0.8492
0.8792 0.8792 0.8792
0.9055 0.9055 0.9055
0.7530 0.7530 0.7530
0.7923 0.7923 0.7923
0.8283 0.8283 0.8283
0.8606 0.8606 0.8606
0.8892 0.8892 0.8892
0.9141 0.9141 0.9141
0.9353 0.9353 0.9353
0.9531 0.9531 0.9531
0.9675 0.9675 0.9675
0.8715 0.8715 0.8715
0.8987 0.8987 0.8987
0.9223 0.9223 0.9223
0.9422 0.9422 0.9422
0.9587 0.9587 0.9587
0.9720 0.9720 0.9720
0.9825 0.9825 0.9825
0.9902 0.9902 0.9902
0.9957 0.9957 0.9957
0.0011 0.0011 0.0011
0.0043 0.0043 0.0043
0.0096 0.0096 0.0096
0.0174 0.0174 0.0174
0.0277 0.0277 0.0277
0.0410 0.0410 0.0410
0.0575 0.0575 0.0575
0.0773 0.0773 0.0773
0.1008 0.1008 0.1008
0.0208 0.0208 0.0208
0.0322 0.0322 0.0322
0.0466 0.0466 0.0466
0.0643 0.0643 0.0643
0.0855 0.0855 0.0855
0.1103 0.1103 0.1103
0.1388 0.1388 0.1388
0.1711 0.1711 0.1711
0.2070 0.2070 0.2070
0.0716 0.0716 0.0716
0.0941 0.0941 0.0941
0.1202 0.1202 0.1202
0.1502 0.1502 0.1502
0.1837 0.1837 0.1837
0.2209 0.2209 0.2209
0.2613 0.2613 0.2613
0.3045 0.3045 0.3045
0.3503 0.3503 0.3503
0.1620 0.1620 0.1620
0.1969 0.1969 0.1969
0.2352 0.2352 0.2352
0.2767 0.2767 0.2767
0.3209 0.3209 0.3209
0.3674 0.3674 0.3674
0.4157 0.4157 0.4157
0.4650 0.4650 0.4650
0.5148 0.5148 0.5148
0.2925 0.2925 0.2925
0.3376 0.3376 0.3376
0.3848 0.3848 0.3848
0.4335 0.4335 0.4335
0.4831 0.4831 0.4831
0.5329 0.5329 0.5329
0.5822 0.5822 0.5822
0.6305 0.6305 0.6305
0.6771 0.6771 0.6771
0.4515 0.4515 0.4515
0.5012 0.5012 0.5012
0.5509 0.5509 0.5509
0.6000 0.6000 0.6000
0.6477 0.6477 0.6477
0.6935 0.6935 0.6935
0.7369 0.7369 0.7369
0.7775 0.7775 0.7775
0.8147 0.8147 0.8147
0.6175 0.6175 0.6175
0.6646 0.6646 0.6646
0.7096 0.7096 0.7096
0.7520 0.7520 0.7520
0.7914 0.7914 0.7914
0.8274 0.8274 0.8274
0.8598 0.8598 0.8598
0.8886 0.8886 0.8886
0.9135 0.9135 0.9135
0.7667 0.7667 0.7667
0.8049 0.8049 0.8049
0.8397 0.8397 0.8397
0.8707 0.8707 0.8707
0.8981 0.8981 0.8981
0.9217 0.9217 0.9217
0.9417 0.9417 0.9417
0.9583 0.9583 0.9583
0.9717 0.9717 0.9717
0.8811 0.8811 0.8811
0.9071 0.9071 0.9071
0.9294 0.9294 0.9294
0.9482 0.9482 0.9482
0.9636 0.9636 0.9636
0.9759 0.9759 0.9759
0.9854 0.9854 0.9854
0.9923 0.9923 0.9923
0.9970 0.9970 0.9970
0.0019 0.0019 0.0019
0.0058 0.0058 0.0058
0.0120 0.0120 0.0120
0.0206 0.0206 0.0206
0.0319 0.0319 0.0319
0.0462 0.0462 0.0462
0.0638 0.0638 0.0638
0.0849 0.0849 0.0849
0.1096 0.1096 0.1096
0.0244 0.0244 0.0244
0.0368 0.0368 0.0368
0.0522 0.0522 0.0522
0.0711 0.0711 0.0711
0.0935 0.0935 0.0935
0.1196 0.1196 0.1196
0.1494 0.1494 0.1494
0.1829 0.1829 0.1829
0.2199 0.2199 0.2199
0.0788 0.0788 0.0788
0.1025 0.1025 0.1025
0.1300 0.1300 0.1300
0.1612 0.1612 0.1612
0.1960 0.1960 0.1960
0.2342 0.2342 0.2342
0.2756 0.2756 0.2756
0.3198 0.3198 0.3198
0.3663 0.3663 0.3663
0.1734 0.1734 0.1734
0.2095 0.2095 0.2095
0.2490 0.2490 0.2490
0.2914 0.2914 0.2914
0.3365 0.3365 0.3365
0.3836 0.3836 0.3836
0.4323 0.4323 0.4323
0.4819 0.4819 0.4819
0.5317 0.5317 0.5317
0.3076 0.3076 0.3076
0.3534 0.3534 0.3534
0.4012 0.4012 0.4012
0.4503 0.4503 0.4503
0.5000 0.5000 0.5000
0.5497 0.5497 0.5497
0.5988 0.5988 0.5988
0.6466 0.6466 0.6466
0.6924 0.6924 0.6924
0.4683 0.4683 0.4683
0.5181 0.5181 0.5181
0.5677 0.5677 0.5677
0.6164 0.6164 0.6164
0.6635 0.6635 0.6635
0.7086 0.7086 0.7086
0.7510 0.7510 0.7510
0.7905 0.7905 0.7905
0.8266 0.8266 0.8266
0.6337 0.6337 0.6337
0.6802 0.6802 0.6802
0.7244 0.7244 0.7244
0.7658 0.7658 0.7658
0.8040 0.8040 0.8040
0.8388 0.8388 0.8388
0.8700 0.8700 0.8700
0.8975 0.8975 0.8975
0.9212 0.9212 0.9212
0.7801 0.7801 0.7801
0.8171 0.8171 0.8171
0.8506 0.8506 0.8506
0.8804 0.8804 0.8804
0.9065 0.9065 0.9065
0.9289 0.9289 0.9289
0.9478 0.9478 0.9478
0.9632 0.9632 0.9632
0.9756 0.9756 0.9756
0.8904 0.8904 0.8904
0.9151 0.9151 0.9151
0.9362 0.9362 0.9362
0.9538 0.9538 0.9538
0.9681 0.9681 0.9681
0.9794 0.9794 0.9794
0.9880 0.9880 0.9880
0.9942 0.9942 0.9942
0.9981 0.9981 0.9981
0.0030 0.0030 0.0030
0.0077 0.0077 0.0077
0.0146 0.0146 0.0146
0.0241 0.0241 0.0241
0.0364 0.0364 0.0364
0.0518 0.0518 0.0518
0.0706 0.0706 0.0706
0.0929 0.0929 0.0929
0.1189 0.1189 0.1189
0.0283 0.0283 0.0283
0.0417 0.0417 0.0417
0.0583 0.0583 0.0583
0.0783 0.0783 0.0783
0.1019 0.1019 0.1019
0.1293 0.1293 0.1293
0.1603 0.1603 0.1603
0.1951 0.1951 0.1951
0.2333 0.2333 0.2333
0.0865 0.0865 0.0865
0.1114 0.1114 0.1114
0.1402 0.1402 0.1402
0.1726 0.1726 0.1726
0.2086 0.2086 0.2086
0.2480 0.2480 0.2480
0.2904 0.2904 0.2904
0.3354 0.3354 0.3354
0.3825 0.3825 0.3825
0.1853 0.1853 0.1853
0.2225 0.2225 0.2225
0.2631 0.2631 0.2631
0.3065 0.3065 0.3065
0.3523 0.3523 0.3523
0.4000 0.4000 0.4000
0.4491 0.4491 0.4491
0.4988 0.4988 0.4988
0.5485 0.5485 0.5485
0.3229 0.3229 0.3229
0.3695 0.3695 0.3695
0.4178 0.4178 0.4178
0.4671 0.4671 0.4671
0.5169 0.5169 0.5169
0.5665 0.5665 0.5665
0.6152 0.6152 0.6152
0.6624 0.6624 0.6624
0.7075 0.7075 0.7075
0.4852 0.4852 0.4852
0.5350 0.5350 0.5350
0.5843 0.5843 0.5843
0.6326 0.6326 0.6326
0.6791 0.6791 0.6791
0.7233 0.7233 0.7233
0.7648 0.7648 0.7648
0.8031 0.8031 0.8031
0.8380 0.8380 0.8380
0.6497 0.6497 0.6497
0.6955 0.6955 0.6955
0.7387 0.7387 0.7387
0.7791 0.7791 0.7791
0.8163 0.8163 0.8163
0.8498 0.8498 0.8498
0.8798 0.8798 0.8798
0.9059 0.9059 0.9059
0.9284 0.9284 0.9284
0.7930 0.7930 0.7930
0.8289 0.8289 0.8289
0.8612 0.8612 0.8612
0.8897 0.8897 0.8897
0.9145 0.9145 0.9145
0.9357 0.9357 0.9357
0.9534 0.9534 0.9534
0.9678 0.9678 0.9678
0.9792 0.9792 0.9792
0.8992 0.8992 0.8992
0.9227 0.9227 0.9227
0.9425 0.9425 0.9425
0.9590 0.9590 0.9590
0.9723 0.9723 0.9723
0.9826 0.9826 0.9826
0.9904 0.9904 0.9904
0.9957 0.9957 0.9957
0.9989 0.9989 0.9989
0.0043 0.0043 0.0043
0.0098 0.0098 0.0098
0.0175 0.0175 0.0175
0.0280 0.0280 0.0280
0.0413 0.0413 0.0413
0.0578 0.0578 0.0578
0.0777 0.0777 0.0777
0.1013 0.1013 0.1013
0.1285 0.1285 0.1285
0.0325 0.0325 0.0325
0.0469 0.0469 0.0469
0.0647 0.0647 0.0647
0.0859 0.0859 0.0859
0.1108 0.1108 0.1108
0.1394 0.1394 0.1394
0.1717 0.1717 0.1717
0.2077 0.2077 0.2077
0.2470 0.2470 0.2470
0.0945 0.0945 0.0945
0.1208 0.1208 0.1208
0.1508 0.1508 0.1508
0.1844 0.1844 0.1844
0.2216 0.2216 0.2216
0.2620 0.2620 0.2620
0.3054 0.3054 0.3054
0.3512 0.3512 0.3512
0.3988 0.3988 0.3988
0.1976 0.1976 0.1976
0.2360 0.2360 0.2360
0.2775 0.2775 0.2775
0.3218 0.3218 0.3218
0.3683 0.3683 0.3683
0.4166 0.4166 0.4166
0.4659 0.4659 0.4659
0.5157 0.5157 0.5157
0.5653 0.5653 0.5653
0.3385 0.3385 0.3385
0.3857 0.3857 0.3857
0.4344 0.4344 0.4344
0.4840 0.4840 0.4840
0.5338 0.5338 0.5338
0.5832 0.5832 0.5832
0.6314 0.6314 0.6314
0.6780 0.6780 0.6780
0.7223 0.7223 0.7223
0.5022 0.5022 0.5022
0.5519 0.5519 0.5519
0.6009 0.6009 0.6009
0.6486 0.6486 0.6486
0.6944 0.6944 0.6944
0.7377 0.7377 0.7377
0.7782 0.7782 0.7782
0.8154 0.8154 0.8154
0.8491 0.8491 0.8491
0.6655 0.6655 0.6655
0.7105 0.7105 0.7105
0.7528 0.7528 0.7528
0.7921 0.7921 0.7921
0.8281 0.8281 0.8281
0.8604 0.8604 0.8604
0.8891 0.8891 0.8891
0.9140 0.9140 0.9140
0.9352 0.9352 0.9352
0.8056 0.8056 0.8056
0.8403 0.8403 0.8403
0.8713 0.8713 0.8713
0.8986 0.8986 0.8986
0.9221 0.9221 0.9221
0.9421 0.9421 0.9421
0.9586 0.9586 0.9586
0.9720 0.9720 0.9720
0.9824 0.9824 0.9824
0.9076 0.9076 0.9076
0.9298 0.9298 0.9298
0.9485 0.9485 0.9485
0.9638 0.9638 0.9638
0.9761 0.9761 0.9761
0.9855 0.9855 0.9855
0.9924 0.9924 0.9924
0.9971 0.9971 0.9971
0.9995 0.9995 0.9995
0.0059 0.0059 0.0059
0.0121 0.0121 0.0121
0.0208 0.0208 0.0208
0.0322 0.0322 0.0322
0.0465 0.0465 0.0465
0.0642 0.0642 0.0642
0.0853 0.0853 0.0853
0.1101 0.1101 0.1101
0.1387 0.1387 0.1387
0.0370 0.0370 0.0370
0.0526 0.0526 0.0526
0.0715 0.0715 0.0715
0.0939 0.0939 0.0939
0.1201 0.1201 0.1201
0.1500 0.1500 0.1500
0.1835 0.1835 0.1835
0.2206 0.2206 0.2206
0.2610 0.2610 0.2610
0.1030 0.1030 0.1030
0.1305 0.1305 0.1305
0.1618 0.1618 0.1618
0.1967 0.1967 0.1967
0.2350 0.2350 0.2350
0.2765 0.2765 0.2765
0.3207 0.3207 0.3207
0.3672 0.3672 0.3672
0.4154 0.4154 0.4154
0.2102 0.2102 0.2102
0.2497 0.2497 0.2497
0.2923 0.2923 0.2923
0.3374 0.3374 0.3374
0.3846 0.3846 0.3846
0.4332 0.4332 0.4332
0.4828 0.4828 0.4828
0.5326 0.5326 0.5326
0.5820 0.5820 0.5820
0.3543 0.3543 0.3543
0.4021 0.4021 0.4021
0.4512 0.4512 0.4512
0.5009 0.5009 0.5009
0.5506 0.5506 0.5506
0.5997 0.5997 0.5997
0.6474 0.6474 0.6474
0.6933 0.6933 0.6933
0.7367 0.7367 0.7367
0.5191 0.5191 0.5191
0.5686 0.5686 0.5686
0.6173 0.6173 0.6173
0.6644 0.6644 0.6644
0.7094 0.7094 0.7094
0.7518 0.7518 0.7518
0.7912 0.7912 0.7912
0.8272 0.8272 0.8272
0.8597 0.8597 0.8597
0.6810 0.6810 0.6810
0.7252 0.7252 0.7252
0.7665 0.7665 0.7665
0.8047 0.8047 0.8047
0.8395 0.8395 0.8395
0.8706 0.8706 0.8706
0.8979 0.8979 0.8979
0.9216 0.9216 0.9216
0.9416 0.9416 0.9416
0.8178 0.8178 0.8178
0.8512 0.8512 0.8512
0.8810 0.8810 0.8810
0.9070 0.9070 0.9070
0.9293 0.9293 0.9293
0.9481 0.9481 0.9481
0.9635 0.9635 0.9635
0.9758 0.9758 0.9758
0.9853 0.9853 0.9853
0.9155 0.9155 0.9155
0.9365 0.9365 0.9365
0.9541 0.9541 0.9541
0.9683 0.9683 0.9683
0.9796 0.9796 0.9796
0.9882 0.9882 0.9882
0.9943 0.9943 0.9943
0.9981 0.9981 0.9981
0.9999 0.9999 0.9999
0.0078 0.0078 0.0078
0.0148 0.0148 0.0148
0.0243 0.0243 0.0243
0.0367 0.0367 0.0367
0.0521 0.0521 0.0521
0.0710 0.0710 0.0710
0.0933 0.0933 0.0933
0.1194 0.1194 0.1194
0.1492 0.1492 0.1492
0.0419 0.0419 0.0419
0.0586 0.0586 0.0586
0.0787 0.0787 0.0787
0.1024 0.1024 0.1024
0.1298 0.1298 0.1298
0.1610 0.1610 0.1610
0.1958 0.1958 0.1958
0.2340 0.2340 0.2340
0.2754 0.2754 0.2754
0.1119 0.1119 0.1119
0.1407 0.1407 0.1407
0.1732 0.1732 0.1732
0.2093 0.2093 0.2093
0.2487 0.2487 0.2487
0.2912 0.2912 0.2912
0.3362 0.3362 0.3362
0.3834 0.3834 0.3834
0.4320 0.4320 0.4320
0.2233 0.2233 0.2233
0.2639 0.2639 0.2639
0.3073 0.3073 0.3073
0.3532 0.3532 0.3532
0.4009 0.4009 0.4009
0.4500 0.4500 0.4500
0.4997 0.4997 0.4997
0.5494 0.5494 0.5494
0.5985 0.5985 0.5985
0.3704 0.3704 0.3704
0.4187 0.4187 0.4187
0.4681 0.4681 0.4681
0.5179 0.5179 0.5179
0.5674 0.5674 0.5674
0.6161 0.6161 0.6161
0.6632 0.6632 0.6632
0.7083 0.7083 0.7083
0.7508 0.7508 0.7508
0.5360 0.5360 0.5360
0.5853 0.5853 0.5853
0.6335 0.6335 0.6335
0.6799 0.6799 0.6799
0.7241 0.7241 0.7241
0.7655 0.7655 0.7655
0.8038 0.8038 0.8038
0.8387 0.8387 0.8387
0.8699 0.8699 0.8699
0.6963 0.6963 0.6963
0.7395 0.7395 0.7395
0.7799 0.7799 0.7799
0.8169 0.8169 0.8169
0.8504 0.8504 0.8504
0.8803 0.8803 0.8803
0.9064 0.9064 0.9064
0.9288 0.9288 0.9288
0.9477 0.9477 0.9477
0.8295 0.8295 0.8295
0.8617 0.8617 0.8617
0.8902 0.8902 0.8902
0.9150 0.9150 0.9150
0.9361 0.9361 0.9361
0.9537 0.9537 0.9537
0.9680 0.9680 0.9680
0.9794 0.9794 0.9794
0.9880 0.9880 0.9880
0.9231 0.9231 0.9231
0.9429 0.9429 0.9429
0.9593 0.9593 0.9593
0.9725 0.9725 0.9725
0.9828 0.9828 0.9828
0.9905 0.9905 0.9905
0.9958 0.9958 0.9958
0.9990 0.9990 0.9990
1.0000 1.0000 1.0000
