android/app/src/main/assets/luts/noir@1.cube
# Editor for Immich, noir@1 (tool/make_luts.py)
LUT_3D_SIZE 5
0.0000 0.0000 0.0000
0.0042 0.0042 0.0042
0.0172 0.0172 0.0172
0.0407 0.0407 0.0407
0.0769 0.0769 0.0769
0.0523 0.0523 0.0523
0.0936 0.0936 0.0936
0.1496 0.1496 0.1496
0.2201 0.2201 0.2201
0.3037 0.3037 0.3037
0.2492 0.2492 0.2492
0.3368 0.3368 0.3368
0.4326 0.4326 0.4326
0.5319 0.5319 0.5319
0.6296 0.6296 0.6296
0.5680 0.5680 0.5680
0.6638 0.6638 0.6638
0.7513 0.7513 0.7513
0.8268 0.8268 0.8268
0.8881 0.8881 0.8881
0.8508 0.8508 0.8508
0.9067 0.9067 0.9067
0.9479 0.9479 0.9479
0.9757 0.9757 0.9757
0.9922 0.9922 0.9922
0.0005 0.0005 0.0005
0.0076 0.0076 0.0076
0.0239 0.0239 0.0239
0.0515 0.0515 0.0515
0.0924 0.0924 0.0924
0.0648 0.0648 0.0648
0.1109 0.1109 0.1109
0.1719 0.1719 0.1719
0.2472 0.2472 0.2472
0.3345 0.3345 0.3345
0.2777 0.2777 0.2777
0.3686 0.3686 0.3686
0.4662 0.4662 0.4662
0.5656 0.5656 0.5656
0.6615 0.6615 0.6615
0.6012 0.6012 0.6012
0.6946 0.6946 0.6946
0.7784 0.7784 0.7784
0.8492 0.8492 0.8492
0.9055 0.9055 0.9055
0.8715 0.8715 0.8715
0.9223 0.9223 0.9223
0.9587 0.9587 0.9587
0.9825 0.9825 0.9825
0.9957 0.9957 0.9957
0.0019 0.0019 0.0019
0.0120 0.0120 0.0120
0.0319 0.0319 0.0319
0.0638 0.0638 0.0638
0.1096 0.1096 0.1096
0.0788 0.0788 0.0788
0.1300 0.1300 0.1300
0.1960 0.1960 0.1960
0.2756 0.2756 0.2756
0.3663 0.3663 0.3663
0.3076 0.3076 0.3076
0.4012 0.4012 0.4012
0.5000 0.5000 0.5000
0.5988 0.5988 0.5988
0.6924 0.6924 0.6924
0.6337 0.6337 0.6337
0.7244 0.7244 0.7244
0.8040 0.8040 0.8040
0.8700 0.8700 0.8700
0.9212 0.9212 0.9212
0.8904 0.8904 0.8904
0.9362 0.9362 0.9362
0.9681 0.9681 0.9681
0.9880 0.9880 0.9880
0.9981 0.9981 0.9981
0.0043 0.0043 0.0043
0.0175 0.0175 0.0175
0.0413 0.0413 0.0413
0.0777 0.0777 0.0777
0.1285 0.1285 0.1285
0.0945 0.0945 0.0945
0.1508 0.1508 0.1508
0.2216 0.2216 0.2216
0.3054 0.3054 0.3054
0.3988 0.3988 0.3988
0.3385 0.3385 0.3385
0.4344 0.4344 0.4344
0.5338 0.5338 0.5338
0.6314 0.6314 0.6314
0.7223 0.7223 0.7223
0.6655 0.6655 0.6655
0.7528 0.7528 0.7528
0.8281 0.8281 0.8281
0.8891 0.8891 0.8891
0.9352 0.9352 0.9352
0.9076 0.9076 0.9076
0.9485 0.9485 0.9485
0.9761 0.9761 0.9761
0.9924 0.9924 0.9924
0.9995 0.9995 0.9995
0.0078 0.0078 0.0078
0.0243 0.0243 0.0243
0.0521 0.0521 0.0521
0.0933 0.0933 0.0933
0.1492 0.1492 0.1492
0.1119 0.1119 0.1119
0.1732 0.1732 0.1732
0.2487 0.2487 0.2487
0.3362 0.3362 0.3362
0.4320 0.4320 0.4320
0.3704 0.3704 0.3704
0.4681 0.4681 0.4681
0.5674 0.5674 0.5674
0.6632 0.6632 0.6632
0.7508 0.7508 0.7508
0.6963 0.6963 0.6963
0.7799 0.7799 0.7799
0.8504 0.8504 0.8504
0.9064 0.9064 0.9064
0.9477 0.9477 0.9477
0.9231 0.9231 0.9231
0.9593 0.9593 0.9593
0.9828 0.9828 0.9828
0.9958 0.9958 0.9958
1.0000 1.0000 1.0000
