android/app/src/main/assets/luts/sepia@1.cube
# Editor for Immich, sepia@1 (tool/make_luts.py)
LUT_3D_SIZE 9
0.0428 0.0392 0.0328
0.0692 0.0634 0.0531
0.0957 0.0876 0.0733
0.1221 0.1119 0.0936
0.1486 0.1361 0.1139
0.1750 0.1603 0.1341
0.2015 0.1845 0.1544
0.2279 0.2087 0.1747
0.2544 0.2330 0.1949
0.1318 0.1207 0.1010
0.1582 0.1449 0.1212
0.1847 0.1691 0.1415
0.2111 0.1933 0.1618
0.2375 0.2176 0.1820
0.2640 0.2418 0.2023
0.2904 0.2660 0.2226
0.3169 0.2902 0.2428
0.3433 0.3144 0.2631
0.2207 0.2022 0.1692
0.2472 0.2264 0.1894
0.2736 0.2506 0.2097
0.3001 0.2748 0.2300
0.3265 0.2990 0.2502
0.3529 0.3233 0.2705
0.3794 0.3475 0.2907
0.4058 0.3717 0.3110
0.4323 0.3959 0.3313
0.3097 0.2836 0.2373
0.3361 0.3079 0.2576
0.3626 0.3321 0.2779
0.3890 0.3563 0.2981
0.4155 0.3805 0.3184
0.4419 0.4047 0.3387
0.4684 0.4290 0.3589
0.4948 0.4532 0.3792
0.5212 0.4774 0.3995
0.3986 0.3651 0.3055
0.4251 0.3893 0.3258
0.4515 0.4136 0.3460
0.4780 0.4378 0.3663
0.5044 0.4620 0.3866
0.5309 0.4862 0.4068
0.5573 0.5104 0.4271
0.5838 0.5347 0.4474
0.6102 0.5589 0.4676
0.4876 0.4466 0.3737
0.5141 0.4708 0.3939
0.5405 0.4950 0.4142
0.5669 0.5193 0.4345
0.5934 0.5435 0.4547
0.6198 0.5677 0.4750
0.6463 0.5919 0.4953
0.6727 0.6161 0.5155
0.6992 0.6404 0.5358
0.5766 0.5281 0.4419
0.6030 0.5523 0.4621
0.6295 0.5765 0.4824
0.6559 0.6007 0.5027
0.6824 0.6250 0.5229
0.7088 0.6492 0.5432
0.7352 0.6734 0.5635
0.7617 0.6976 0.5837
0.7881 0.7218 0.6040
0.6655 0.6096 0.5100
0.6920 0.6338 0.5303
0.7184 0.6580 0.5506
0.7449 0.6822 0.5708
0.7713 0.7064 0.5911
0.7978 0.7307 0.6114
0.8242 0.7549 0.6316
0.8506 0.7791 0.6519
0.8771 0.8033 0.6722
0.7545 0.6910 0.5782
0.7809 0.7153 0.5985
0.8074 0.7395 0.6187
0.8338 0.7637 0.6390
0.8603 0.7879 0.6593
0.8867 0.8121 0.6795
0.9132 0.8364 0.6998
0.9396 0.8606 0.7201
0.9661 0.8848 0.7403
0.0518 0.0474 0.0397
0.0782 0.0716 0.0599
0.1047 0.0959 0.0802
0.1311 0.1201 0.1005
0.1576 0.1443 0.1207
0.1840 0.1685 0.1410
0.2104 0.1927 0.1613
0.2369 0.2170 0.1815
0.2633 0.2412 0.2018
0.1407 0.1289 0.1079
0.1672 0.1531 0.1281
0.1936 0.1773 0.1484
0.2201 0.2016 0.1687
0.2465 0.2258 0.1889
0.2730 0.2500 0.2092
0.2994 0.2742 0.2295
0.3259 0.2984 0.2497
0.3523 0.3227 0.2700
0.2297 0.2104 0.1760
0.2561 0.2346 0.1963
0.2826 0.2588 0.2166
0.3090 0.2830 0.2368
0.3355 0.3073 0.2571
0.3619 0.3315 0.2774
0.3884 0.3557 0.2976
0.4148 0.3799 0.3179
0.4413 0.4041 0.3382
0.3187 0.2919 0.2442
0.3451 0.3161 0.2645
0.3716 0.3403 0.2847
0.3980 0.3645 0.3050
0.4244 0.3887 0.3253
0.4509 0.4130 0.3455
0.4773 0.4372 0.3658
0.5038 0.4614 0.3861
0.5302 0.4856 0.4063
0.4076 0.3733 0.3124
0.4341 0.3976 0.3327
0.4605 0.4218 0.3529
0.4870 0.4460 0.3732
0.5134 0.4702 0.3935
0.5399 0.4944 0.4137
0.5663 0.5187 0.4340
0.5927 0.5429 0.4543
0.6192 0.5671 0.4745
0.4966 0.4548 0.3806
0.5230 0.4790 0.4008
0.5495 0.5033 0.4211
0.5759 0.5275 0.4414
0.6024 0.5517 0.4616
0.6288 0.5759 0.4819
0.6553 0.6001 0.5022
0.6817 0.6244 0.5224
0.7081 0.6486 0.5427
0.5856 0.5363 0.4487
0.6120 0.5605 0.4690
0.6384 0.5847 0.4893
0.6649 0.6090 0.5095
0.6913 0.6332 0.5298
0.7178 0.6574 0.5501
0.7442 0.6816 0.5703
0.7707 0.7058 0.5906
0.7971 0.7301 0.6109
0.6745 0.6178 0.5169
0.7010 0.6420 0.5372
0.7274 0.6662 0.5574
0.7538 0.6904 0.5777
0.7803 0.7147 0.5980
0.8067 0.7389 0.6182
0.8332 0.7631 0.6385
0.8596 0.7873 0.6588
0.8861 0.8115 0.6790
0.7635 0.6993 0.5851
0.7899 0.7235 0.6054
0.8164 0.7477 0.6256
0.8428 0.7719 0.6459
0.8693 0.7961 0.6662
0.8957 0.8204 0.6864
0.9221 0.8446 0.7067
0.9486 0.8688 0.7270
0.9750 0.8930 0.7472
0.0608 0.0557 0.0466
0.0872 0.0799 0.0668
0.1137 0.1041 0.0871
0.1401 0.1283 0.1074
0.1665 0.1525 0.1276
0.1930 0.1768 0.1479
0.2194 0.2010 0.1682
0.2459 0.2252 0.1884
0.2723 0.2494 0.2087
0.1497 0.1371 0.1147
0.1762 0.1614 0.1350
0.2026 0.1856 0.1553
0.2291 0.2098 0.1755
0.2555 0.2340 0.1958
0.2819 0.2582 0.2161
0.3084 0.2825 0.2363
0.3348 0.3067 0.2566
0.3613 0.3309 0.2769
0.2387 0.2186 0.1829
0.2651 0.2428 0.2032
0.2916 0.2670 0.2234
0.3180 0.2913 0.2437
0.3445 0.3155 0.2640
0.3709 0.3397 0.2842
0.3974 0.3639 0.3045
0.4238 0.3882 0.3248
0.4502 0.4124 0.3450
0.3276 0.3001 0.2511
0.3541 0.3243 0.2714
0.3805 0.3485 0.2916
0.4070 0.3727 0.3119
0.4334 0.3970 0.3322
0.4599 0.4212 0.3524
0.4863 0.4454 0.3727
0.5128 0.4696 0.3930
0.5392 0.4939 0.4132
0.4166 0.3816 0.3193
0.4431 0.4058 0.3395
0.4695 0.4300 0.3598
0.4959 0.4542 0.3801
0.5224 0.4784 0.4003
0.5488 0.5027 0.4206
0.5753 0.5269 0.4409
0.6017 0.5511 0.4611
0.6282 0.5753 0.4814
0.5056 0.4630 0.3874
0.5320 0.4873 0.4077
0.5585 0.5115 0.4280
0.5849 0.5357 0.4482
0.6114 0.5599 0.4685
0.6378 0.5841 0.4888
0.6642 0.6084 0.5090
0.6907 0.6326 0.5293
0.7171 0.6568 0.5496
0.5945 0.5445 0.4556
0.6210 0.5687 0.4759
0.6474 0.5930 0.4962
0.6739 0.6172 0.5164
0.7003 0.6414 0.5367
0.7268 0.6656 0.5570
0.7532 0.6898 0.5772
0.7796 0.7141 0.5975
0.8061 0.7383 0.6178
0.6835 0.6260 0.5238
0.7099 0.6502 0.5441
0.7364 0.6744 0.5643
0.7628 0.6987 0.5846
0.7893 0.7229 0.6049
0.8157 0.7471 0.6251
0.8422 0.7713 0.6454
0.8686 0.7955 0.6657
0.8951 0.8198 0.6859
0.7725 0.7075 0.5920
0.7989 0.7317 0.6122
0.8253 0.7559 0.6325
0.8518 0.7801 0.6528
0.8782 0.8044 0.6730
0.9047 0.8286 0.6933
0.9311 0.8528 0.7136
0.9576 0.8770 0.7338
0.9840 0.9012 0.7541
0.0697 0.0639 0.0534
0.0962 0.0881 0.0737
0.1226 0.1123 0.0940
0.1491 0.1365 0.1142
0.1755 0.1608 0.1345
0.2020 0.1850 0.1548
0.2284 0.2092 0.1750
0.2549 0.2334 0.1953
0.2813 0.2576 0.2156
0.1587 0.1454 0.1216
0.1851 0.1696 0.1419
0.2116 0.1938 0.1622
0.2380 0.2180 0.1824
0.2645 0.2422 0.2027
0.2909 0.2665 0.2230
0.3174 0.2907 0.2432
0.3438 0.3149 0.2635
0.3703 0.3391 0.2838
0.2477 0.2268 0.1898
0.2741 0.2511 0.2101
0.3006 0.2753 0.2303
0.3270 0.2995 0.2506
0.3534 0.3237 0.2709
0.3799 0.3479 0.2911
0.4063 0.3722 0.3114
0.4328 0.3964 0.3317
0.4592 0.4206 0.3519
0.3366 0.3083 0.2580
0.3631 0.3325 0.2782
0.3895 0.3568 0.2985
0.4160 0.3810 0.3188
0.4424 0.4052 0.3390
0.4689 0.4294 0.3593
0.4953 0.4536 0.3796
0.5217 0.4779 0.3998
0.5482 0.5021 0.4201
0.4256 0.3898 0.3262
0.4520 0.4140 0.3464
0.4785 0.4382 0.3667
0.5049 0.4625 0.3870
0.5314 0.4867 0.4072
0.5578 0.5109 0.4275
0.5843 0.5351 0.4477
0.6107 0.5593 0.4680
0.6371 0.5836 0.4883
0.5146 0.4713 0.3943
0.5410 0.4955 0.4146
0.5674 0.5197 0.4349
0.5939 0.5439 0.4551
0.6203 0.5682 0.4754
0.6468 0.5924 0.4957
0.6732 0.6166 0.5159
0.6997 0.6408 0.5362
0.7261 0.6650 0.5565
0.6035 0.5528 0.4625
0.6300 0.5770 0.4828
0.6564 0.6012 0.5030
0.6828 0.6254 0.5233
0.7093 0.6496 0.5436
0.7357 0.6739 0.5638
0.7622 0.6981 0.5841
0.7886 0.7223 0.6044
0.8151 0.7465 0.6246
0.6925 0.6342 0.5307
0.7189 0.6585 0.5509
0.7454 0.6827 0.5712
0.7718 0.7069 0.5915
0.7983 0.7311 0.6117
0.8247 0.7553 0.6320
0.8511 0.7796 0.6523
0.8776 0.8038 0.6725
0.9040 0.8280 0.6928
0.7814 0.7157 0.5989
0.8079 0.7399 0.6191
0.8343 0.7642 0.6394
0.8608 0.7884 0.6597
0.8872 0.8126 0.6799
0.9137 0.8368 0.7002
0.9401 0.8610 0.7205
0.9666 0.8853 0.7407
0.9930 0.9095 0.7610
0.0787 0.0721 0.0603
0.1052 0.0963 0.0806
0.1316 0.1205 0.1009
0.1581 0.1448 0.1211
0.1845 0.1690 0.1414
0.2109 0.1932 0.1617
0.2374 0.2174 0.1819
0.2638 0.2416 0.2022
0.2903 0.2659 0.2225
0.1677 0.1536 0.1285
0.1941 0.1778 0.1488
0.2206 0.2020 0.1690
0.2470 0.2262 0.1893
0.2735 0.2505 0.2096
0.2999 0.2747 0.2298
0.3264 0.2989 0.2501
0.3528 0.3231 0.2704
0.3792 0.3473 0.2906
0.2566 0.2351 0.1967
0.2831 0.2593 0.2169
0.3095 0.2835 0.2372
0.3360 0.3077 0.2575
0.3624 0.3319 0.2777
0.3889 0.3562 0.2980
0.4153 0.3804 0.3183
0.4418 0.4046 0.3385
0.4682 0.4288 0.3588
0.3456 0.3165 0.2649
0.3721 0.3408 0.2851
0.3985 0.3650 0.3054
0.4249 0.3892 0.3257
0.4514 0.4134 0.3459
0.4778 0.4376 0.3662
0.5043 0.4619 0.3865
0.5307 0.4861 0.4067
0.5572 0.5103 0.4270
0.4346 0.3980 0.3330
0.4610 0.4222 0.3533
0.4875 0.4465 0.3736
0.5139 0.4707 0.3938
0.5403 0.4949 0.4141
0.5668 0.5191 0.4344
0.5932 0.5433 0.4546
0.6197 0.5676 0.4749
0.6461 0.5918 0.4952
0.5235 0.4795 0.4012
0.5500 0.5037 0.4215
0.5764 0.5279 0.4417
0.6029 0.5522 0.4620
0.6293 0.5764 0.4823
0.6558 0.6006 0.5025
0.6822 0.6248 0.5228
0.7086 0.6490 0.5431
0.7351 0.6733 0.5633
0.6125 0.5610 0.4694
0.6389 0.5852 0.4897
0.6654 0.6094 0.5099
0.6918 0.6336 0.5302
0.7183 0.6579 0.5505
0.7447 0.6821 0.5707
0.7712 0.7063 0.5910
0.7976 0.7305 0.6113
0.8241 0.7547 0.6315
0.7015 0.6425 0.5376
0.7279 0.6667 0.5578
0.7543 0.6909 0.5781
0.7808 0.7151 0.5984
0.8072 0.7393 0.6186
0.8337 0.7636 0.6389
0.8601 0.7878 0.6592
0.8866 0.8120 0.6794
0.9130 0.8362 0.6997
0.7904 0.7239 0.6057
0.8169 0.7482 0.6260
0.8433 0.7724 0.6463
0.8698 0.7966 0.6665
0.8962 0.8208 0.6868
0.9226 0.8450 0.7071
0.9491 0.8693 0.7273
0.9755 0.8935 0.7476
1.0000 0.9177 0.7679
0.0877 0.0803 0.0672
0.1141 0.1045 0.0875
0.1406 0.1288 0.1077
0.1670 0.1530 0.1280
0.1935 0.1772 0.1483
0.2199 0.2014 0.1685
0.2464 0.2256 0.1888
0.2728 0.2499 0.2091
0.2993 0.2741 0.2293
0.1767 0.1618 0.1354
0.2031 0.1860 0.1557
0.2296 0.2102 0.1759
0.2560 0.2345 0.1962
0.2824 0.2587 0.2165
0.3089 0.2829 0.2367
0.3353 0.3071 0.2570
0.3618 0.3313 0.2773
0.3882 0.3556 0.2975
0.2656 0.2433 0.2036
0.2921 0.2675 0.2238
0.3185 0.2917 0.2441
0.3450 0.3159 0.2644
0.3714 0.3402 0.2846
0.3979 0.3644 0.3049
0.4243 0.3886 0.3252
0.4507 0.4128 0.3454
0.4772 0.4370 0.3657
0.3546 0.3248 0.2717
0.3810 0.3490 0.2920
0.4075 0.3732 0.3123
0.4339 0.3974 0.3325
0.4604 0.4216 0.3528
0.4868 0.4459 0.3731
0.5133 0.4701 0.3933
0.5397 0.4943 0.4136
0.5661 0.5185 0.4339
0.4436 0.4062 0.3399
0.4700 0.4305 0.3602
0.4964 0.4547 0.3805
0.5229 0.4789 0.4007
0.5493 0.5031 0.4210
0.5758 0.5273 0.4412
0.6022 0.5516 0.4615
0.6287 0.5758 0.4818
0.6551 0.6000 0.5020
0.5325 0.4877 0.4081
0.5590 0.5119 0.4284
0.5854 0.5362 0.4486
0.6118 0.5604 0.4689
0.6383 0.5846 0.4892
0.6647 0.6088 0.5094
0.6912 0.6330 0.5297
0.7176 0.6573 0.5500
0.7441 0.6815 0.5702
0.6215 0.5692 0.4763
0.6479 0.5934 0.4965
0.6744 0.6176 0.5168
0.7008 0.6419 0.5371
0.7273 0.6661 0.5573
0.7537 0.6903 0.5776
0.7801 0.7145 0.5979
0.8066 0.7387 0.6181
0.8330 0.7630 0.6384
0.7104 0.6507 0.5444
0.7369 0.6749 0.5647
0.7633 0.6991 0.5850
0.7898 0.7233 0.6052
0.8162 0.7476 0.6255
0.8427 0.7718 0.6458
0.8691 0.7960 0.6660
0.8956 0.8202 0.6863
0.9220 0.8444 0.7066
0.7994 0.7322 0.6126
0.8258 0.7564 0.6329
0.8523 0.7806 0.6532
0.8787 0.8048 0.6734
0.9052 0.8290 0.6937
0.9316 0.8533 0.7140
0.9581 0.8775 0.7342
0.9845 0.9017 0.7545
1.0000 0.9259 0.7748
0.0967 0.0886 0.0741
0.1231 0.1128 0.0944
0.1496 0.1370 0.1146
0.1760 0.1612 0.1349
0.2025 0.1854 0.1552
0.2289 0.2097 0.1754
0.2554 0.2339 0.1957
0.2818 0.2581 0.2160
0.3082 0.2823 0.2362
0.1856 0.1700 0.1423
0.2121 0.1943 0.1625
0.2385 0.2185 0.1828
0.2650 0.2427 0.2031
0.2914 0.2669 0.2233
0.3179 0.2911 0.2436
0.3443 0.3154 0.2639
0.3708 0.3396 0.2841
0.3972 0.3638 0.3044
0.2746 0.2515 0.2104
0.3011 0.2757 0.2307
0.3275 0.3000 0.2510
0.3539 0.3242 0.2712
0.3804 0.3484 0.2915
0.4068 0.3726 0.3118
0.4333 0.3968 0.3320
0.4597 0.4211 0.3523
0.4862 0.4453 0.3726
0.3636 0.3330 0.2786
0.3900 0.3572 0.2989
0.4165 0.3814 0.3192
0.4429 0.4057 0.3394
0.4693 0.4299 0.3597
0.4958 0.4541 0.3800
0.5222 0.4783 0.4002
0.5487 0.5025 0.4205
0.5751 0.5268 0.4408
0.4525 0.4145 0.3468
0.4790 0.4387 0.3671
0.5054 0.4629 0.3873
0.5319 0.4871 0.4076
0.5583 0.5114 0.4279
0.5848 0.5356 0.4481
0.6112 0.5598 0.4684
0.6376 0.5840 0.4887
0.6641 0.6082 0.5089
0.5415 0.4959 0.4150
0.5679 0.5202 0.4352
0.5944 0.5444 0.4555
0.6208 0.5686 0.4758
0.6473 0.5928 0.4960
0.6737 0.6171 0.5163
0.7002 0.6413 0.5366
0.7266 0.6655 0.5568
0.7531 0.6897 0.5771
0.6305 0.5774 0.4832
0.6569 0.6016 0.5034
0.6833 0.6259 0.5237
0.7098 0.6501 0.5440
0.7362 0.6743 0.5642
0.7627 0.6985 0.5845
0.7891 0.7228 0.6048
0.8156 0.7470 0.6250
0.8420 0.7712 0.6453
0.7194 0.6589 0.5513
0.7459 0.6831 0.5716
0.7723 0.7073 0.5919
0.7988 0.7316 0.6121
0.8252 0.7558 0.6324
0.8516 0.7800 0.6527
0.8781 0.8042 0.6729
0.9045 0.8284 0.6932
0.9310 0.8527 0.7135
0.8084 0.7404 0.6195
0.8348 0.7646 0.6398
0.8613 0.7888 0.6600
0.8877 0.8130 0.6803
0.9142 0.8373 0.7006
0.9406 0.8615 0.7208
0.9670 0.8857 0.7411
0.9935 0.9099 0.7614
1.0000 0.9341 0.7816
0.1057 0.0968 0.0810
0.1321 0.1210 0.1012
0.1586 0.1452 0.1215
0.1850 0.1694 0.1418
0.2114 0.1937 0.1620
0.2379 0.2179 0.1823
0.2643 0.2421 0.2026
0.2908 0.2663 0.2228
0.3172 0.2905 0.2431
0.1946 0.1783 0.1492
0.2211 0.2025 0.1694
0.2475 0.2267 0.1897
0.2740 0.2509 0.2100
0.3004 0.2751 0.2302
0.3269 0.2994 0.2505
0.3533 0.3236 0.2708
0.3797 0.3478 0.2910
0.4062 0.3720 0.3113
0.2836 0.2597 0.2173
0.3100 0.2840 0.2376
0.3365 0.3082 0.2579
0.3629 0.3324 0.2781
0.3894 0.3566 0.2984
0.4158 0.3808 0.3187
0.4423 0.4051 0.3389
0.4687 0.4293 0.3592
0.4951 0.4535 0.3795
0.3726 0.3412 0.2855
0.3990 0.3654 0.3058
0.4254 0.3897 0.3260
0.4519 0.4139 0.3463
0.4783 0.4381 0.3666
0.5048 0.4623 0.3868
0.5312 0.4865 0.4071
0.5577 0.5108 0.4274
0.5841 0.5350 0.4476
0.4615 0.4227 0.3537
0.4880 0.4469 0.3739
0.5144 0.4711 0.3942
0.5408 0.4954 0.4145
0.5673 0.5196 0.4347
0.5937 0.5438 0.4550
0.6202 0.5680 0.4753
0.6466 0.5922 0.4955
0.6731 0.6165 0.5158
0.5505 0.5042 0.4219
0.5769 0.5284 0.4421
0.6034 0.5526 0.4624
0.6298 0.5768 0.4827
0.6563 0.6011 0.5029
0.6827 0.6253 0.5232
0.7091 0.6495 0.5435
0.7356 0.6737 0.5637
0.7620 0.6979 0.5840
0.6394 0.5857 0.4900
0.6659 0.6099 0.5103
0.6923 0.6341 0.5306
0.7188 0.6583 0.5508
0.7452 0.6825 0.5711
0.7717 0.7068 0.5914
0.7981 0.7310 0.6116
0.8246 0.7552 0.6319
0.8510 0.7794 0.6522
0.7284 0.6671 0.5582
0.7548 0.6914 0.5785
0.7813 0.7156 0.5987
0.8077 0.7398 0.6190
0.8342 0.7640 0.6393
0.8606 0.7882 0.6595
0.8871 0.8125 0.6798
0.9135 0.8367 0.7001
0.9400 0.8609 0.7203
0.8174 0.7486 0.6264
0.8438 0.7728 0.6467
0.8703 0.7971 0.6669
0.8967 0.8213 0.6872
0.9231 0.8455 0.7075
0.9496 0.8697 0.7277
0.9760 0.8939 0.7480
1.0000 0.9182 0.7683
1.0000 0.9424 0.7885
0.1146 0.1050 0.0879
0.1411 0.1292 0.1081
0.1675 0.1534 0.1284
0.1940 0.1777 0.1487
0.2204 0.2019 0.1689
0.2469 0.2261 0.1892
0.2733 0.2503 0.2095
0.2998 0.2745 0.2297
0.3262 0.2988 0.2500
0.2036 0.1865 0.1560
0.2301 0.2107 0.1763
0.2565 0.2349 0.1966
0.2829 0.2591 0.2168
0.3094 0.2834 0.2371
0.3358 0.3076 0.2574
0.3623 0.3318 0.2776
0.3887 0.3560 0.2979
0.4152 0.3802 0.3182
0.2926 0.2680 0.2242
0.3190 0.2922 0.2445
0.3455 0.3164 0.2647
0.3719 0.3406 0.2850
0.3983 0.3648 0.3053
0.4248 0.3891 0.3255
0.4512 0.4133 0.3458
0.4777 0.4375 0.3661
0.5041 0.4617 0.3863
0.3815 0.3494 0.2924
0.4080 0.3737 0.3127
0.4344 0.3979 0.3329
0.4609 0.4221 0.3532
0.4873 0.4463 0.3735
0.5138 0.4705 0.3937
0.5402 0.4948 0.4140
0.5666 0.5190 0.4343
0.5931 0.5432 0.4545
0.4705 0.4309 0.3606
0.4969 0.4551 0.3808
0.5234 0.4794 0.4011
0.5498 0.5036 0.4214
0.5763 0.5278 0.4416
0.6027 0.5520 0.4619
0.6292 0.5762 0.4822
0.6556 0.6005 0.5024
0.6821 0.6247 0.5227
0.5595 0.5124 0.4287
0.5859 0.5366 0.4490
0.6123 0.5608 0.4693
0.6388 0.5851 0.4895
0.6652 0.6093 0.5098
0.6917 0.6335 0.5301
0.7181 0.6577 0.5503
0.7446 0.6819 0.5706
0.7710 0.7062 0.5909
0.6484 0.5939 0.4969
0.6749 0.6181 0.5172
0.7013 0.6423 0.5375
0.7278 0.6665 0.5577
0.7542 0.6908 0.5780
0.7806 0.7150 0.5982
0.8071 0.7392 0.6185
0.8335 0.7634 0.6388
0.8600 0.7876 0.6590
0.7374 0.6754 0.5651
0.7638 0.6996 0.5854
0.7903 0.7238 0.6056
0.8167 0.7480 0.6259
0.8432 0.7722 0.6462
0.8696 0.7965 0.6664
0.8960 0.8207 0.6867
0.9225 0.8449 0.7070
0.9489 0.8691 0.7272
0.8263 0.7568 0.6333
0.8528 0.7811 0.6535
0.8792 0.8053 0.6738
0.9057 0.8295 0.6941
0.9321 0.8537 0.7143
0.9586 0.8779 0.7346
0.9850 0.9022 0.7549
1.0000 0.9264 0.7751
1.0000 0.9506 0.7954
