android/app/src/main/assets/luts/sepia@1.cube
# Editor for Immich, sepia@1 (tool/make_luts.py)
LUT_3D_SIZE 5
0.0428 0.0392 0.0328
0.0957 0.0876 0.0733
0.1486 0.1361 0.1139
0.2015 0.1845 0.1544
0.2544 0.2330 0.1949
0.2207 0.2022 0.1692
0.2736 0.2506 0.2097
0.3265 0.2990 0.2502
0.3794 0.3475 0.2907
0.4323 0.3959 0.3313
0.3986 0.3651 0.3055
0.4515 0.4136 0.3460
0.5044 0.4620 0.3866
0.5573 0.5104 0.4271
0.6102 0.5589 0.4676
0.5766 0.5281 0.4419
0.6295 0.5765 0.4824
0.6824 0.6250 0.5229
0.7352 0.6734 0.5635
0.7881 0.7218 0.6040
0.7545 0.6910 0.5782
0.8074 0.7395 0.6187
0.8603 0.7879 0.6593
0.9132 0.8364 0.6998
0.9661 0.8848 0.7403
0.0608 0.0557 0.0466
0.1137 0.1041 0.0871
0.1665 0.1525 0.1276
0.2194 0.2010 0.1682
0.2723 0.2494 0.2087
0.2387 0.2186 0.1829
0.2916 0.2670 0.2234
0.3445 0.3155 0.2640
0.3974 0.3639 0.3045
0.4502 0.4124 0.3450
0.4166 0.3816 0.3193
0.4695 0.4300 0.3598
0.5224 0.4784 0.4003
0.5753 0.5269 0.4409
0.6282 0.5753 0.4814
0.5945 0.5445 0.4556
0.6474 0.5930 0.4962
0.7003 0.6414 0.5367
0.7532 0.6898 0.5772
0.8061 0.7383 0.6178
0.7725 0.7075 0.5920
0.8253 0.7559 0.6325
0.8782 0.8044 0.6730
0.9311 0.8528 0.7136
0.9840 0.9012 0.7541
0.0787 0.0721 0.0603
0.1316 0.1205 0.1009
0.1845 0.1690 0.1414
0.2374 0.2174 0.1819
0.2903 0.2659 0.2225
0.2566 0.2351 0.1967
0.3095 0.2835 0.2372
0.3624 0.3319 0.2777
0.4153 0.3804 0.3183
0.4682 0.4288 0.3588
0.4346 0.3980 0.3330
0.4875 0.4465 0.3736
0.5403 0.4949 0.4141
0.5932 0.5433 0.4546
0.6461 0.5918 0.4952
0.6125 0.5610 0.4694
0.6654 0.6094 0.5099
0.7183 0.6579 0.5505
0.7712 0.7063 0.5910
0.8241 0.7547 0.6315
0.7904 0.7239 0.6057
0.8433 0.7724 0.6463
0.8962 0.8208 0.6868
0.9491 0.8693 0.7273
1.0000 0.9177 0.7679
0.0967 0.0886 0.0741
0.1496 0.1370 0.1146
0.2025 0.1854 0.1552
0.2554 0.2339 0.1957
0.3082 0.2823 0.2362
0.2746 0.2515 0.2104
0.3275 0.3000 0.2510
0.3804 0.3484 0.2915
0.4333 0.3968 0.3320
0.4862 0.4453 0.3726
0.4525 0.4145 0.3468
0.5054 0.4629 0.3873
0.5583 0.5114 0.4279
0.6112 0.5598 0.4684
0.6641 0.6082 0.5089
0.6305 0.5774 0.4832
0.6833 0.6259 0.5237
0.7362 0.6743 0.5642
0.7891 0.7228 0.6048
0.8420 0.7712 0.6453
0.8084 0.7404 0.6195
0.8613 0.7888 0.6600
0.9142 0.8373 0.7006
0.9670 0.8857 0.7411
1.0000 0.9341 0.7816
0.1146 0.1050 0.0879
0.1675 0.1534 0.1284
0.2204 0.2019 0.1689
0.2733 0.2503 0.2095
0.3262 0.2988 0.2500
0.2926 0.2680 0.2242
0.3455 0.3164 0.2647
0.3983 0.3648 0.3053
0.4512 0.4133 0.3458
0.5041 0.4617 0.3863
0.4705 0.4309 0.3606
0.5234 0.4794 0.4011
0.5763 0.5278 0.4416
0.6292 0.5762 0.4822
0.6821 0.6247 0.5227
0.6484 0.5939 0.4969
0.7013 0.6423 0.5375
0.7542 0.6908 0.5780
0.8071 0.7392 0.6185
0.8600 0.7876 0.6590
0.8263 0.7568 0.6333
0.8792 0.8053 0.6738
0.9321 0.8537 0.7143
0.9850 0.9022 0.7549
1.0000 0.9506 0.7954
