android/app/src/main/assets/luts/sepia@1.cube
# Editor for Immich, sepia@1 (tool/make_luts.py)
LUT_3D_SIZE 17
0.0428 0.0392 0.0328
0.0560 0.0513 0.0429
0.0692 0.0634 0.0531
0.0825 0.0755 0.0632
0.0957 0.0876 0.0733
0.1089 0.0998 0.0835
0.1221 0.1119 0.0936
0.1354 0.1240 0.1037
0.1486 0.1361 0.1139
0.1618 0.1482 0.1240
0.1750 0.1603 0.1341
0.1882 0.1724 0.1443
0.2015 0.1845 0.1544
0.2147 0.1966 0.1645
0.2279 0.2087 0.1747
0.2411 0.2209 0.1848
0.2544 0.2330 0.1949
0.0873 0.0799 0.0669
0.1005 0.0920 0.0770
0.1137 0.1042 0.0872
0.1269 0.1163 0.0973
0.1402 0.1284 0.1074
0.1534 0.1405 0.1176
0.1666 0.1526 0.1277
0.1798 0.1647 0.1378
0.1931 0.1768 0.1480
0.2063 0.1889 0.1581
0.2195 0.2010 0.1682
0.2327 0.2132 0.1784
0.2459 0.2253 0.1885
0.2592 0.2374 0.1986
0.2724 0.2495 0.2088
0.2856 0.2616 0.2189
0.2988 0.2737 0.2290
0.1318 0.1207 0.1010
0.1450 0.1328 0.1111
0.1582 0.1449 0.1212
0.1714 0.1570 0.1314
0.1847 0.1691 0.1415
0.1979 0.1812 0.1516
0.2111 0.1933 0.1618
0.2243 0.2055 0.1719
0.2375 0.2176 0.1820
0.2508 0.2297 0.1922
0.2640 0.2418 0.2023
0.2772 0.2539 0.2124
0.2904 0.2660 0.2226
0.3037 0.2781 0.2327
0.3169 0.2902 0.2428
0.3301 0.3023 0.2530
0.3433 0.3144 0.2631
0.1762 0.1614 0.1351
0.1895 0.1735 0.1452
0.2027 0.1856 0.1553
0.2159 0.1977 0.1655
0.2291 0.2099 0.1756
0.2424 0.2220 0.1857
0.2556 0.2341 0.1959
0.2688 0.2462 0.2060
0.2820 0.2583 0.2161
0.2952 0.2704 0.2263
0.3085 0.2825 0.2364
0.3217 0.2946 0.2465
0.3349 0.3067 0.2567
0.3481 0.3189 0.2668
0.3614 0.3310 0.2769
0.3746 0.3431 0.2871
0.3878 0.3552 0.2972
0.2207 0.2022 0.1692
0.2339 0.2143 0.1793
0.2472 0.2264 0.1894
0.2604 0.2385 0.1996
0.2736 0.2506 0.2097
0.2868 0.2627 0.2198
0.3001 0.2748 0.2300
0.3133 0.2869 0.2401
0.3265 0.2990 0.2502
0.3397 0.3112 0.2604
0.3529 0.3233 0.2705
0.3662 0.3354 0.2806
0.3794 0.3475 0.2907
0.3926 0.3596 0.3009
0.4058 0.3717 0.3110
0.4191 0.3838 0.3211
0.4323 0.3959 0.3313
0.2652 0.2429 0.2032
0.2784 0.2550 0.2134
0.2916 0.2671 0.2235
0.3049 0.2792 0.2336
0.3181 0.2913 0.2438
0.3313 0.3034 0.2539
0.3445 0.3156 0.2640
0.3578 0.3277 0.2742
0.3710 0.3398 0.2843
0.3842 0.3519 0.2944
0.3974 0.3640 0.3046
0.4107 0.3761 0.3147
0.4239 0.3882 0.3248
0.4371 0.4003 0.3350
0.4503 0.4124 0.3451
0.4635 0.4246 0.3552
0.4768 0.4367 0.3654
0.3097 0.2836 0.2373
0.3229 0.2957 0.2475
0.3361 0.3079 0.2576
0.3494 0.3200 0.2677
0.3626 0.3321 0.2779
0.3758 0.3442 0.2880
0.3890 0.3563 0.2981
0.4022 0.3684 0.3083
0.4155 0.3805 0.3184
0.4287 0.3926 0.3285
0.4419 0.4047 0.3387
0.4551 0.4168 0.3488
0.4684 0.4290 0.3589
0.4816 0.4411 0.3691
0.4948 0.4532 0.3792
0.5080 0.4653 0.3893
0.5212 0.4774 0.3995
0.3542 0.3244 0.2714
0.3674 0.3365 0.2816
0.3806 0.3486 0.2917
0.3938 0.3607 0.3018
0.4071 0.3728 0.3119
0.4203 0.3849 0.3221
0.4335 0.3970 0.3322
0.4467 0.4091 0.3423
0.4599 0.4213 0.3525
0.4732 0.4334 0.3626
0.4864 0.4455 0.3727
0.4996 0.4576 0.3829
0.5128 0.4697 0.3930
0.5261 0.4818 0.4031
0.5393 0.4939 0.4133
0.5525 0.5060 0.4234
0.5657 0.5181 0.4335
0.3986 0.3651 0.3055
0.4119 0.3772 0.3156
0.4251 0.3893 0.3258
0.4383 0.4014 0.3359
0.4515 0.4136 0.3460
0.4648 0.4257 0.3562
0.4780 0.4378 0.3663
0.4912 0.4499 0.3764
0.5044 0.4620 0.3866
0.5176 0.4741 0.3967
0.5309 0.4862 0.4068
0.5441 0.4983 0.4170
0.5573 0.5104 0.4271
0.5705 0.5225 0.4372
0.5838 0.5347 0.4474
0.5970 0.5468 0.4575
0.6102 0.5589 0.4676
0.4431 0.4059 0.3396
0.4564 0.4180 0.3497
0.4696 0.4301 0.3599
0.4828 0.4422 0.3700
0.4960 0.4543 0.3801
0.5092 0.4664 0.3903
0.5225 0.4785 0.4004
0.5357 0.4906 0.4105
0.5489 0.5027 0.4207
0.5621 0.5148 0.4308
0.5754 0.5270 0.4409
0.5886 0.5391 0.4511
0.6018 0.5512 0.4612
0.6150 0.5633 0.4713
0.6282 0.5754 0.4815
0.6415 0.5875 0.4916
0.6547 0.5996 0.5017
0.4876 0.4466 0.3737
0.5008 0.4587 0.3838
0.5141 0.4708 0.3939
0.5273 0.4829 0.4041
0.5405 0.4950 0.4142
0.5537 0.5071 0.4243
0.5669 0.5193 0.4345
0.5802 0.5314 0.4446
0.5934 0.5435 0.4547
0.6066 0.5556 0.4649
0.6198 0.5677 0.4750
0.6331 0.5798 0.4851
0.6463 0.5919 0.4953
0.6595 0.6040 0.5054
0.6727 0.6161 0.5155
0.6859 0.6282 0.5257
0.6992 0.6404 0.5358
0.5321 0.4873 0.4078
0.5453 0.4994 0.4179
0.5585 0.5116 0.4280
0.5718 0.5237 0.4382
0.5850 0.5358 0.4483
0.5982 0.5479 0.4584
0.6114 0.5600 0.4686
0.6246 0.5721 0.4787
0.6379 0.5842 0.4888
0.6511 0.5963 0.4990
0.6643 0.6084 0.5091
0.6775 0.6205 0.5192
0.6908 0.6327 0.5294
0.7040 0.6448 0.5395
0.7172 0.6569 0.5496
0.7304 0.6690 0.5598
0.7436 0.6811 0.5699
0.5766 0.5281 0.4419
0.5898 0.5402 0.4520
0.6030 0.5523 0.4621
0.6162 0.5644 0.4723
0.6295 0.5765 0.4824
0.6427 0.5886 0.4925
0.6559 0.6007 0.5027
0.6691 0.6128 0.5128
0.6824 0.6250 0.5229
0.6956 0.6371 0.5331
0.7088 0.6492 0.5432
0.7220 0.6613 0.5533
0.7352 0.6734 0.5635
0.7485 0.6855 0.5736
0.7617 0.6976 0.5837
0.7749 0.7097 0.5939
0.7881 0.7218 0.6040
0.6211 0.5688 0.4759
0.6343 0.5809 0.4861
0.6475 0.5930 0.4962
0.6607 0.6051 0.5063
0.6739 0.6173 0.5165
0.6872 0.6294 0.5266
0.7004 0.6415 0.5367
0.7136 0.6536 0.5469
0.7268 0.6657 0.5570
0.7401 0.6778 0.5671
0.7533 0.6899 0.5773
0.7665 0.7020 0.5874
0.7797 0.7141 0.5975
0.7929 0.7262 0.6077
0.8062 0.7384 0.6178
0.8194 0.7505 0.6279
0.8326 0.7626 0.6381
0.6655 0.6096 0.5100
0.6788 0.6217 0.5202
0.6920 0.6338 0.5303
0.7052 0.6459 0.5404
0.7184 0.6580 0.5506
0.7316 0.6701 0.5607
0.7449 0.6822 0.5708
0.7581 0.6943 0.5810
0.7713 0.7064 0.5911
0.7845 0.7185 0.6012
0.7978 0.7307 0.6114
0.8110 0.7428 0.6215
0.8242 0.7549 0.6316
0.8374 0.7670 0.6418
0.8506 0.7791 0.6519
0.8639 0.7912 0.6620
0.8771 0.8033 0.6722
0.7100 0.6503 0.5441
0.7232 0.6624 0.5543
0.7365 0.6745 0.5644
0.7497 0.6866 0.5745
0.7629 0.6987 0.5847
0.7761 0.7108 0.5948
0.7893 0.7230 0.6049
0.8026 0.7351 0.6151
0.8158 0.7472 0.6252
0.8290 0.7593 0.6353
0.8422 0.7714 0.6455
0.8555 0.7835 0.6556
0.8687 0.7956 0.6657
0.8819 0.8077 0.6759
0.8951 0.8198 0.6860
0.9084 0.8319 0.6961
0.9216 0.8441 0.7063
0.7545 0.6910 0.5782
0.7677 0.7031 0.5883
0.7809 0.7153 0.5985
0.7942 0.7274 0.6086
0.8074 0.7395 0.6187
0.8206 0.7516 0.6289
0.8338 0.7637 0.6390
0.8471 0.7758 0.6491
0.8603 0.7879 0.6593
0.8735 0.8000 0.6694
0.8867 0.8121 0.6795
0.8999 0.8242 0.6897
0.9132 0.8364 0.6998
0.9264 0.8485 0.7099
0.9396 0.8606 0.7201
0.9528 0.8727 0.7302
0.9661 0.8848 0.7403
0.0473 0.0433 0.0362
0.0605 0.0554 0.0464
0.0737 0.0675 0.0565
0.0870 0.0796 0.0666
0.1002 0.0918 0.0768
0.1134 0.1039 0.0869
0.1266 0.1160 0.0970
0.1398 0.1281 0.1072
0.1531 0.1402 0.1173
0.1663 0.1523 0.1274
0.1795 0.1644 0.1376
0.1927 0.1765 0.1477
0.2060 0.1886 0.1578
0.2192 0.2007 0.1680
0.2324 0.2129 0.1781
0.2456 0.2250 0.1882
0.2588 0.2371 0.1984
0.0918 0.0841 0.0703
0.1050 0.0962 0.0805
0.1182 0.1083 0.0906
0.1314 0.1204 0.1007
0.1447 0.1325 0.1109
0.1579 0.1446 0.1210
0.1711 0.1567 0.1311
0.1843 0.1688 0.1413
0.1976 0.1809 0.1514
0.2108 0.1930 0.1615
0.2240 0.2052 0.1717
0.2372 0.2173 0.1818
0.2504 0.2294 0.1919
0.2637 0.2415 0.2021
0.2769 0.2536 0.2122
0.2901 0.2657 0.2223
0.3033 0.2778 0.2325
0.1363 0.1248 0.1044
0.1495 0.1369 0.1146
0.1627 0.1490 0.1247
0.1759 0.1611 0.1348
0.1891 0.1732 0.1449
0.2024 0.1853 0.1551
0.2156 0.1975 0.1652
0.2288 0.2096 0.1753
0.2420 0.2217 0.1855
0.2553 0.2338 0.1956
0.2685 0.2459 0.2057
0.2817 0.2580 0.2159
0.2949 0.2701 0.2260
0.3081 0.2822 0.2361
0.3214 0.2943 0.2463
0.3346 0.3064 0.2564
0.3478 0.3186 0.2665
0.1807 0.1655 0.1385
0.1940 0.1776 0.1486
0.2072 0.1898 0.1588
0.2204 0.2019 0.1689
0.2336 0.2140 0.1790
0.2468 0.2261 0.1892
0.2601 0.2382 0.1993
0.2733 0.2503 0.2094
0.2865 0.2624 0.2196
0.2997 0.2745 0.2297
0.3130 0.2866 0.2398
0.3262 0.2987 0.2500
0.3394 0.3109 0.2601
0.3526 0.3230 0.2702
0.3658 0.3351 0.2804
0.3791 0.3472 0.2905
0.3923 0.3593 0.3006
0.2252 0.2063 0.1726
0.2384 0.2184 0.1827
0.2517 0.2305 0.1929
0.2649 0.2426 0.2030
0.2781 0.2547 0.2131
0.2913 0.2668 0.2233
0.3045 0.2789 0.2334
0.3178 0.2910 0.2435
0.3310 0.3032 0.2537
0.3442 0.3153 0.2638
0.3574 0.3274 0.2739
0.3707 0.3395 0.2841
0.3839 0.3516 0.2942
0.3971 0.3637 0.3043
0.4103 0.3758 0.3145
0.4236 0.3879 0.3246
0.4368 0.4000 0.3347
0.2697 0.2470 0.2067
0.2829 0.2591 0.2168
0.2961 0.2712 0.2269
0.3094 0.2833 0.2371
0.3226 0.2955 0.2472
0.3358 0.3076 0.2573
0.3490 0.3197 0.2675
0.3623 0.3318 0.2776
0.3755 0.3439 0.2877
0.3887 0.3560 0.2979
0.4019 0.3681 0.3080
0.4151 0.3802 0.3181
0.4284 0.3923 0.3283
0.4416 0.4044 0.3384
0.4548 0.4166 0.3485
0.4680 0.4287 0.3587
0.4813 0.4408 0.3688
0.3142 0.2878 0.2408
0.3274 0.2999 0.2509
0.3406 0.3120 0.2610
0.3538 0.3241 0.2712
0.3671 0.3362 0.2813
0.3803 0.3483 0.2914
0.3935 0.3604 0.3016
0.4067 0.3725 0.3117
0.4200 0.3846 0.3218
0.4332 0.3967 0.3320
0.4464 0.4089 0.3421
0.4596 0.4210 0.3522
0.4728 0.4331 0.3624
0.4861 0.4452 0.3725
0.4993 0.4573 0.3826
0.5125 0.4694 0.3928
0.5257 0.4815 0.4029
0.3587 0.3285 0.2749
0.3719 0.3406 0.2850
0.3851 0.3527 0.2951
0.3983 0.3648 0.3053
0.4115 0.3769 0.3154
0.4248 0.3890 0.3255
0.4380 0.4012 0.3357
0.4512 0.4133 0.3458
0.4644 0.4254 0.3559
0.4777 0.4375 0.3661
0.4909 0.4496 0.3762
0.5041 0.4617 0.3863
0.5173 0.4738 0.3965
0.5305 0.4859 0.4066
0.5438 0.4980 0.4167
0.5570 0.5101 0.4269
0.5702 0.5223 0.4370
0.4031 0.3692 0.3089
0.4164 0.3813 0.3191
0.4296 0.3934 0.3292
0.4428 0.4056 0.3393
0.4560 0.4177 0.3495
0.4693 0.4298 0.3596
0.4825 0.4419 0.3697
0.4957 0.4540 0.3799
0.5089 0.4661 0.3900
0.5221 0.4782 0.4001
0.5354 0.4903 0.4103
0.5486 0.5024 0.4204
0.5618 0.5146 0.4305
0.5750 0.5267 0.4407
0.5883 0.5388 0.4508
0.6015 0.5509 0.4609
0.6147 0.5630 0.4711
0.4476 0.4100 0.3430
0.4608 0.4221 0.3532
0.4741 0.4342 0.3633
0.4873 0.4463 0.3734
0.5005 0.4584 0.3836
0.5137 0.4705 0.3937
0.5270 0.4826 0.4038
0.5402 0.4947 0.4140
0.5534 0.5069 0.4241
0.5666 0.5190 0.4342
0.5798 0.5311 0.4444
0.5931 0.5432 0.4545
0.6063 0.5553 0.4646
0.6195 0.5674 0.4748
0.6327 0.5795 0.4849
0.6460 0.5916 0.4950
0.6592 0.6037 0.5052
0.4921 0.4507 0.3771
0.5053 0.4628 0.3873
0.5185 0.4749 0.3974
0.5318 0.4870 0.4075
0.5450 0.4991 0.4177
0.5582 0.5113 0.4278
0.5714 0.5234 0.4379
0.5847 0.5355 0.4481
0.5979 0.5476 0.4582
0.6111 0.5597 0.4683
0.6243 0.5718 0.4785
0.6375 0.5839 0.4886
0.6508 0.5960 0.4987
0.6640 0.6081 0.5089
0.6772 0.6203 0.5190
0.6904 0.6324 0.5291
0.7037 0.6445 0.5393
0.5366 0.4914 0.4112
0.5498 0.5036 0.4213
0.5630 0.5157 0.4315
0.5762 0.5278 0.4416
0.5895 0.5399 0.4517
0.6027 0.5520 0.4619
0.6159 0.5641 0.4720
0.6291 0.5762 0.4821
0.6424 0.5883 0.4923
0.6556 0.6004 0.5024
0.6688 0.6126 0.5125
0.6820 0.6247 0.5227
0.6952 0.6368 0.5328
0.7085 0.6489 0.5429
0.7217 0.6610 0.5531
0.7349 0.6731 0.5632
0.7481 0.6852 0.5733
0.5811 0.5322 0.4453
0.5943 0.5443 0.4554
0.6075 0.5564 0.4656
0.6207 0.5685 0.4757
0.6340 0.5806 0.4858
0.6472 0.5927 0.4960
0.6604 0.6048 0.5061
0.6736 0.6170 0.5162
0.6868 0.6291 0.5264
0.7001 0.6412 0.5365
0.7133 0.6533 0.5466
0.7265 0.6654 0.5568
0.7397 0.6775 0.5669
0.7530 0.6896 0.5770
0.7662 0.7017 0.5872
0.7794 0.7138 0.5973
0.7926 0.7260 0.6074
0.6255 0.5729 0.4794
0.6388 0.5850 0.4895
0.6520 0.5971 0.4997
0.6652 0.6093 0.5098
0.6784 0.6214 0.5199
0.6917 0.6335 0.5301
0.7049 0.6456 0.5402
0.7181 0.6577 0.5503
0.7313 0.6698 0.5605
0.7445 0.6819 0.5706
0.7578 0.6940 0.5807
0.7710 0.7061 0.5909
0.7842 0.7182 0.6010
0.7974 0.7304 0.6111
0.8107 0.7425 0.6213
0.8239 0.7546 0.6314
0.8371 0.7667 0.6415
0.6700 0.6137 0.5135
0.6832 0.6258 0.5236
0.6965 0.6379 0.5337
0.7097 0.6500 0.5439
0.7229 0.6621 0.5540
0.7361 0.6742 0.5641
0.7494 0.6863 0.5743
0.7626 0.6984 0.5844
0.7758 0.7105 0.5945
0.7890 0.7227 0.6047
0.8022 0.7348 0.6148
0.8155 0.7469 0.6249
0.8287 0.7590 0.6351
0.8419 0.7711 0.6452
0.8551 0.7832 0.6553
0.8684 0.7953 0.6655
0.8816 0.8074 0.6756
0.7145 0.6544 0.5476
0.7277 0.6665 0.5577
0.7409 0.6786 0.5678
0.7542 0.6907 0.5780
0.7674 0.7028 0.5881
0.7806 0.7150 0.5982
0.7938 0.7271 0.6084
0.8071 0.7392 0.6185
0.8203 0.7513 0.6286
0.8335 0.7634 0.6388
0.8467 0.7755 0.6489
0.8600 0.7876 0.6590
0.8732 0.7997 0.6692
0.8864 0.8118 0.6793
0.8996 0.8239 0.6894
0.9128 0.8361 0.6996
0.9261 0.8482 0.7097
0.7590 0.6951 0.5817
0.7722 0.7073 0.5918
0.7854 0.7194 0.6019
0.7987 0.7315 0.6121
0.8119 0.7436 0.6222
0.8251 0.7557 0.6323
0.8383 0.7678 0.6425
0.8515 0.7799 0.6526
0.8648 0.7920 0.6627
0.8780 0.8041 0.6729
0.8912 0.8162 0.6830
0.9044 0.8284 0.6931
0.9177 0.8405 0.7032
0.9309 0.8526 0.7134
0.9441 0.8647 0.7235
0.9573 0.8768 0.7336
0.9705 0.8889 0.7438
0.0518 0.0474 0.0397
0.0650 0.0595 0.0498
0.0782 0.0716 0.0599
0.0914 0.0838 0.0701
0.1047 0.0959 0.0802
0.1179 0.1080 0.0903
0.1311 0.1201 0.1005
0.1443 0.1322 0.1106
0.1576 0.1443 0.1207
0.1708 0.1564 0.1309
0.1840 0.1685 0.1410
0.1972 0.1806 0.1511
0.2104 0.1927 0.1613
0.2237 0.2049 0.1714
0.2369 0.2170 0.1815
0.2501 0.2291 0.1917
0.2633 0.2412 0.2018
0.0963 0.0882 0.0738
0.1095 0.1003 0.0839
0.1227 0.1124 0.0940
0.1359 0.1245 0.1042
0.1492 0.1366 0.1143
0.1624 0.1487 0.1244
0.1756 0.1608 0.1346
0.1888 0.1729 0.1447
0.2020 0.1850 0.1548
0.2153 0.1972 0.1650
0.2285 0.2093 0.1751
0.2417 0.2214 0.1852
0.2549 0.2335 0.1954
0.2682 0.2456 0.2055
0.2814 0.2577 0.2156
0.2946 0.2698 0.2258
0.3078 0.2819 0.2359
0.1407 0.1289 0.1079
0.1540 0.1410 0.1180
0.1672 0.1531 0.1281
0.1804 0.1652 0.1383
0.1936 0.1773 0.1484
0.2069 0.1895 0.1585
0.2201 0.2016 0.1687
0.2333 0.2137 0.1788
0.2465 0.2258 0.1889
0.2597 0.2379 0.1991
0.2730 0.2500 0.2092
0.2862 0.2621 0.2193
0.2994 0.2742 0.2295
0.3126 0.2863 0.2396
0.3259 0.2984 0.2497
0.3391 0.3106 0.2599
0.3523 0.3227 0.2700
0.1852 0.1696 0.1419
0.1984 0.1818 0.1521
0.2117 0.1939 0.1622
0.2249 0.2060 0.1723
0.2381 0.2181 0.1825
0.2513 0.2302 0.1926
0.2646 0.2423 0.2027
0.2778 0.2544 0.2129
0.2910 0.2665 0.2230
0.3042 0.2786 0.2331
0.3174 0.2907 0.2433
0.3307 0.3029 0.2534
0.3439 0.3150 0.2635
0.3571 0.3271 0.2737
0.3703 0.3392 0.2838
0.3836 0.3513 0.2939
0.3968 0.3634 0.3041
0.2297 0.2104 0.1760
0.2429 0.2225 0.1862
0.2561 0.2346 0.1963
0.2694 0.2467 0.2064
0.2826 0.2588 0.2166
0.2958 0.2709 0.2267
0.3090 0.2830 0.2368
0.3223 0.2952 0.2470
0.3355 0.3073 0.2571
0.3487 0.3194 0.2672
0.3619 0.3315 0.2774
0.3752 0.3436 0.2875
0.3884 0.3557 0.2976
0.4016 0.3678 0.3078
0.4148 0.3799 0.3179
0.4280 0.3920 0.3280
0.4413 0.4041 0.3382
0.2742 0.2511 0.2101
0.2874 0.2632 0.2203
0.3006 0.2753 0.2304
0.3139 0.2875 0.2405
0.3271 0.2996 0.2507
0.3403 0.3117 0.2608
0.3535 0.3238 0.2709
0.3667 0.3359 0.2811
0.3800 0.3480 0.2912
0.3932 0.3601 0.3013
0.4064 0.3722 0.3115
0.4196 0.3843 0.3216
0.4329 0.3964 0.3317
0.4461 0.4086 0.3419
0.4593 0.4207 0.3520
0.4725 0.4328 0.3621
0.4857 0.4449 0.3723
0.3187 0.2919 0.2442
0.3319 0.3040 0.2543
0.3451 0.3161 0.2645
0.3583 0.3282 0.2746
0.3716 0.3403 0.2847
0.3848 0.3524 0.2949
0.3980 0.3645 0.3050
0.4112 0.3766 0.3151
0.4244 0.3887 0.3253
0.4377 0.4009 0.3354
0.4509 0.4130 0.3455
0.4641 0.4251 0.3557
0.4773 0.4372 0.3658
0.4906 0.4493 0.3759
0.5038 0.4614 0.3861
0.5170 0.4735 0.3962
0.5302 0.4856 0.4063
0.3631 0.3326 0.2783
0.3764 0.3447 0.2884
0.3896 0.3568 0.2986
0.4028 0.3689 0.3087
0.4160 0.3810 0.3188
0.4293 0.3932 0.3290
0.4425 0.4053 0.3391
0.4557 0.4174 0.3492
0.4689 0.4295 0.3594
0.4821 0.4416 0.3695
0.4954 0.4537 0.3796
0.5086 0.4658 0.3898
0.5218 0.4779 0.3999
0.5350 0.4900 0.4100
0.5483 0.5021 0.4202
0.5615 0.5143 0.4303
0.5747 0.5264 0.4404
0.4076 0.3733 0.3124
0.4209 0.3855 0.3225
0.4341 0.3976 0.3327
0.4473 0.4097 0.3428
0.4605 0.4218 0.3529
0.4737 0.4339 0.3631
0.4870 0.4460 0.3732
0.5002 0.4581 0.3833
0.5134 0.4702 0.3935
0.5266 0.4823 0.4036
0.5399 0.4944 0.4137
0.5531 0.5066 0.4239
0.5663 0.5187 0.4340
0.5795 0.5308 0.4441
0.5927 0.5429 0.4543
0.6060 0.5550 0.4644
0.6192 0.5671 0.4745
0.4521 0.4141 0.3465
0.4653 0.4262 0.3566
0.4786 0.4383 0.3667
0.4918 0.4504 0.3769
0.5050 0.4625 0.3870
0.5182 0.4746 0.3971
0.5314 0.4867 0.4073
0.5447 0.4989 0.4174
0.5579 0.5110 0.4275
0.5711 0.5231 0.4377
0.5843 0.5352 0.4478
0.5976 0.5473 0.4579
0.6108 0.5594 0.4681
0.6240 0.5715 0.4782
0.6372 0.5836 0.4883
0.6504 0.5957 0.4985
0.6637 0.6078 0.5086
0.4966 0.4548 0.3806
0.5098 0.4669 0.3907
0.5230 0.4790 0.4008
0.5363 0.4912 0.4110
0.5495 0.5033 0.4211
0.5627 0.5154 0.4312
0.5759 0.5275 0.4414
0.5891 0.5396 0.4515
0.6024 0.5517 0.4616
0.6156 0.5638 0.4718
0.6288 0.5759 0.4819
0.6420 0.5880 0.4920
0.6553 0.6001 0.5022
0.6685 0.6123 0.5123
0.6817 0.6244 0.5224
0.6949 0.6365 0.5326
0.7081 0.6486 0.5427
0.5411 0.4956 0.4147
0.5543 0.5077 0.4248
0.5675 0.5198 0.4349
0.5807 0.5319 0.4451
0.5940 0.5440 0.4552
0.6072 0.5561 0.4653
0.6204 0.5682 0.4755
0.6336 0.5803 0.4856
0.6469 0.5924 0.4957
0.6601 0.6046 0.5059
0.6733 0.6167 0.5160
0.6865 0.6288 0.5261
0.6997 0.6409 0.5362
0.7130 0.6530 0.5464
0.7262 0.6651 0.5565
0.7394 0.6772 0.5666
0.7526 0.6893 0.5768
0.5856 0.5363 0.4487
0.5988 0.5484 0.4589
0.6120 0.5605 0.4690
0.6252 0.5726 0.4791
0.6384 0.5847 0.4893
0.6517 0.5969 0.4994
0.6649 0.6090 0.5095
0.6781 0.6211 0.5197
0.6913 0.6332 0.5298
0.7046 0.6453 0.5399
0.7178 0.6574 0.5501
0.7310 0.6695 0.5602
0.7442 0.6816 0.5703
0.7574 0.6937 0.5805
0.7707 0.7058 0.5906
0.7839 0.7180 0.6007
0.7971 0.7301 0.6109
0.6300 0.5770 0.4828
0.6433 0.5892 0.4930
0.6565 0.6013 0.5031
0.6697 0.6134 0.5132
0.6829 0.6255 0.5234
0.6961 0.6376 0.5335
0.7094 0.6497 0.5436
0.7226 0.6618 0.5538
0.7358 0.6739 0.5639
0.7490 0.6860 0.5740
0.7623 0.6981 0.5842
0.7755 0.7103 0.5943
0.7887 0.7224 0.6044
0.8019 0.7345 0.6146
0.8151 0.7466 0.6247
0.8284 0.7587 0.6348
0.8416 0.7708 0.6450
0.6745 0.6178 0.5169
0.6877 0.6299 0.5271
0.7010 0.6420 0.5372
0.7142 0.6541 0.5473
0.7274 0.6662 0.5574
0.7406 0.6783 0.5676
0.7538 0.6904 0.5777
0.7671 0.7026 0.5878
0.7803 0.7147 0.5980
0.7935 0.7268 0.6081
0.8067 0.7389 0.6182
0.8200 0.7510 0.6284
0.8332 0.7631 0.6385
0.8464 0.7752 0.6486
0.8596 0.7873 0.6588
0.8729 0.7994 0.6689
0.8861 0.8115 0.6790
0.7190 0.6585 0.5510
0.7322 0.6706 0.5611
0.7454 0.6827 0.5713
0.7587 0.6948 0.5814
0.7719 0.7070 0.5915
0.7851 0.7191 0.6017
0.7983 0.7312 0.6118
0.8116 0.7433 0.6219
0.8248 0.7554 0.6321
0.8380 0.7675 0.6422
0.8512 0.7796 0.6523
0.8644 0.7917 0.6625
0.8777 0.8038 0.6726
0.8909 0.8160 0.6827
0.9041 0.8281 0.6929
0.9173 0.8402 0.7030
0.9306 0.8523 0.7131
0.7635 0.6993 0.5851
0.7767 0.7114 0.5952
0.7899 0.7235 0.6054
0.8031 0.7356 0.6155
0.8164 0.7477 0.6256
0.8296 0.7598 0.6358
0.8428 0.7719 0.6459
0.8560 0.7840 0.6560
0.8693 0.7961 0.6662
0.8825 0.8083 0.6763
0.8957 0.8204 0.6864
0.9089 0.8325 0.6966
0.9221 0.8446 0.7067
0.9354 0.8567 0.7168
0.9486 0.8688 0.7270
0.9618 0.8809 0.7371
0.9750 0.8930 0.7472
0.0563 0.0515 0.0431
0.0695 0.0636 0.0533
0.0827 0.0758 0.0634
0.0959 0.0879 0.0735
0.1092 0.1000 0.0837
0.1224 0.1121 0.0938
0.1356 0.1242 0.1039
0.1488 0.1363 0.1141
0.1621 0.1484 0.1242
0.1753 0.1605 0.1343
0.1885 0.1726 0.1445
0.2017 0.1848 0.1546
0.2149 0.1969 0.1647
0.2282 0.2090 0.1749
0.2414 0.2211 0.1850
0.2546 0.2332 0.1951
0.2678 0.2453 0.2053
0.1008 0.0923 0.0772
0.1140 0.1044 0.0873
0.1272 0.1165 0.0975
0.1404 0.1286 0.1076
0.1536 0.1407 0.1177
0.1669 0.1528 0.1279
0.1801 0.1649 0.1380
0.1933 0.1770 0.1481
0.2065 0.1892 0.1583
0.2198 0.2013 0.1684
0.2330 0.2134 0.1785
0.2462 0.2255 0.1887
0.2594 0.2376 0.1988
0.2726 0.2497 0.2089
0.2859 0.2618 0.2191
0.2991 0.2739 0.2292
