android/app/src/main/assets/luts/vivid@1.cube
# Editor for Immich, vivid@1 (tool/make_luts.py)
LUT_3D_SIZE 5
0.0000 0.0000 0.0000
0.2992 0.0000 0.0000
0.6537 0.0000 0.0000
0.9662 0.0000 0.0000
1.0000 0.0000 0.0000
0.0000 0.2525 0.0000
0.2331 0.2331 0.0000
0.5844 0.2140 0.0000
0.9128 0.1951 0.0000
1.0000 0.1765 0.0000
0.0000 0.5560 0.0000
0.1698 0.5351 0.0000
0.5142 0.5142 0.0000
0.8548 0.4933 0.0000
1.0000 0.4724 0.0000
0.0000 0.8482 0.0000
0.1101 0.8301 0.0000
0.4439 0.8116 0.0000
0.7928 0.7928 0.0000
1.0000 0.7738 0.0000
0.0000 1.0000 0.0000
0.0548 1.0000 0.0000
0.3741 1.0000 0.0000
0.7278 1.0000 0.0000
1.0000 1.0000 0.0000
0.0000 0.0000 0.3125
0.2924 0.0000 0.2924
0.6468 0.0000 0.2726
0.9610 0.0000 0.2530
1.0000 0.0000 0.2336
0.0000 0.2459 0.2459
0.2266 0.2266 0.2266
0.5773 0.2075 0.2075
0.9071 0.1887 0.1887
1.0000 0.1703 0.1703
0.0000 0.5489 0.1820
0.1636 0.5280 0.1636
0.5071 0.5071 0.1456
0.8487 0.4862 0.1279
1.0000 0.4653 0.1106
0.0000 0.8421 0.1215
0.1043 0.8238 0.1043
0.4368 0.8053 0.0875
0.7864 0.7864 0.0711
1.0000 0.7673 0.0552
0.0000 1.0000 0.0653
0.0495 1.0000 0.0495
0.3671 1.0000 0.0341
0.7211 1.0000 0.0193
1.0000 1.0000 0.0049
0.0000 0.0000 0.6805
0.2857 0.0000 0.6602
0.6398 0.0000 0.6398
0.9558 0.0000 0.6193
1.0000 0.0000 0.5986
0.0000 0.2393 0.6118
0.2201 0.2201 0.5911
0.5703 0.2011 0.5703
0.9014 0.1824 0.5494
1.0000 0.1641 0.5285
0.0000 0.5418 0.5418
0.1575 0.5209 0.5209
0.5000 0.5000 0.5000
0.8425 0.4791 0.4791
1.0000 0.4582 0.4582
0.0000 0.8359 0.4715
0.0986 0.8176 0.4506
0.4297 0.7989 0.4297
0.7799 0.7799 0.4089
1.0000 0.7607 0.3882
0.0000 1.0000 0.4014
0.0442 1.0000 0.3807
0.3602 1.0000 0.3602
0.7143 1.0000 0.3398
1.0000 1.0000 0.3195
0.0000 0.0000 0.9951
0.2789 0.0000 0.9807
0.6329 0.0000 0.9659
0.9505 0.0000 0.9505
1.0000 0.0000 0.9347
0.0000 0.2327 0.9448
0.2136 0.2136 0.9289
0.5632 0.1947 0.9125
0.8957 0.1762 0.8957
1.0000 0.1579 0.8785
0.0000 0.5347 0.8894
0.1513 0.5138 0.8721
0.4929 0.4929 0.8544
0.8364 0.4720 0.8364
1.0000 0.4511 0.8180
0.0000 0.8297 0.8297
0.0929 0.8113 0.8113
0.4227 0.7925 0.7925
0.7734 0.7734 0.7734
1.0000 0.7541 0.7541
0.0000 1.0000 0.7664
0.0390 1.0000 0.7470
0.3532 1.0000 0.7274
0.7076 1.0000 0.7076
1.0000 1.0000 0.6875
0.0000 0.0000 1.0000
0.2722 0.0000 1.0000
0.6259 0.0000 1.0000
0.9452 0.0000 1.0000
1.0000 0.0000 1.0000
0.0000 0.2262 1.0000
0.2072 0.2072 1.0000
0.5561 0.1884 1.0000
0.8899 0.1699 1.0000
1.0000 0.1518 1.0000
0.0000 0.5276 1.0000
0.1452 0.5067 1.0000
0.4858 0.4858 1.0000
0.8302 0.4649 1.0000
1.0000 0.4440 1.0000
0.0000 0.8235 1.0000
0.0872 0.8049 1.0000
0.4156 0.7860 1.0000
0.7669 0.7669 1.0000
1.0000 0.7475 1.0000
0.0000 1.0000 1.0000
0.0338 1.0000 1.0000
0.3463 1.0000 1.0000
0.7008 1.0000 1.0000
1.0000 1.0000 1.0000
