android/app/src/main/assets/luts/vivid@1.cube
# Editor for Immich, vivid@1 (tool/make_luts.py)
LUT_3D_SIZE 17
0.0000 0.0000 0.0000
0.0643 0.0000 0.0000
0.1366 0.0000 0.0000
0.2154 0.0000 0.0000
0.2992 0.0000 0.0000
0.3865 0.0000 0.0000
0.4756 0.0000 0.0000
0.5652 0.0000 0.0000
0.6537 0.0000 0.0000
0.7396 0.0000 0.0000
0.8213 0.0000 0.0000
0.8973 0.0000 0.0000
0.9662 0.0000 0.0000
1.0000 0.0000 0.0000
1.0000 0.0000 0.0000
1.0000 0.0000 0.0000
1.0000 0.0000 0.0000
0.0000 0.0549 0.0000
0.0510 0.0510 0.0000
0.1219 0.0471 0.0000
0.1995 0.0433 0.0000
0.2825 0.0394 0.0000
0.3692 0.0356 0.0000
0.4581 0.0318 0.0000
0.5477 0.0281 0.0000
0.6365 0.0244 0.0000
0.7230 0.0207 0.0000
0.8056 0.0170 0.0000
0.8829 0.0134 0.0000
0.9533 0.0098 0.0000
1.0000 0.0063 0.0000
1.0000 0.0027 0.0000
1.0000 0.0000 0.0000
1.0000 0.0000 0.0000
0.0000 0.1160 0.0000
0.0380 0.1117 0.0000
0.1074 0.1074 0.0000
0.1838 0.1031 0.0000
0.2658 0.0989 0.0000
0.3519 0.0947 0.0000
0.4405 0.0905 0.0000
0.5301 0.0864 0.0000
0.6192 0.0822 0.0000
0.7063 0.0781 0.0000
0.7898 0.0740 0.0000
0.8682 0.0700 0.0000
0.9401 0.0660 0.0000
1.0000 0.0620 0.0000
1.0000 0.0580 0.0000
1.0000 0.0541 0.0000
1.0000 0.0501 0.0000
0.0000 0.1821 0.0000
0.0254 0.1775 0.0000
0.0932 0.1729 0.0000
0.1683 0.1683 0.0000
0.2494 0.1638 0.0000
0.3348 0.1592 0.0000
0.4230 0.1547 0.0000
0.5125 0.1502 0.0000
0.6018 0.1457 0.0000
0.6894 0.1413 0.0000
0.7738 0.1369 0.0000
0.8533 0.1324 0.0000
0.9266 0.1280 0.0000
0.9920 0.1237 0.0000
1.0000 0.1193 0.0000
1.0000 0.1150 0.0000
1.0000 0.1107 0.0000
0.0000 0.2525 0.0000
0.0131 0.2476 0.0000
0.0792 0.2428 0.0000
0.1531 0.2379 0.0000
0.2331 0.2331 0.0000
0.3178 0.2283 0.0000
0.4055 0.2235 0.0000
0.4949 0.2187 0.0000
0.5844 0.2140 0.0000
0.6724 0.2092 0.0000
0.7575 0.2045 0.0000
0.8381 0.1998 0.0000
0.9128 0.1951 0.0000
0.9799 0.1904 0.0000
1.0000 0.1858 0.0000
1.0000 0.1811 0.0000
1.0000 0.1765 0.0000
0.0000 0.3260 0.0000
0.0011 0.3210 0.0000
0.0656 0.3159 0.0000
0.1381 0.3109 0.0000
0.2170 0.3059 0.0000
0.3008 0.3008 0.0000
0.3881 0.2958 0.0000
0.4773 0.2909 0.0000
0.5669 0.2859 0.0000
0.6554 0.2809 0.0000
0.7411 0.2760 0.0000
0.8228 0.2710 0.0000
0.8987 0.2661 0.0000
0.9674 0.2612 0.0000
1.0000 0.2563 0.0000
1.0000 0.2514 0.0000
1.0000 0.2465 0.0000
0.0000 0.4018 0.0000
0.0000 0.3966 0.0000
0.0523 0.3914 0.0000
0.1233 0.3863 0.0000
0.2011 0.3811 0.0000
0.2841 0.3759 0.0000
0.3708 0.3708 0.0000
0.4597 0.3657 0.0000
0.5494 0.3605 0.0000
0.6382 0.3554 0.0000
0.7246 0.3503 0.0000
0.8071 0.3452 0.0000
0.8843 0.3401 0.0000
0.9545 0.3350 0.0000
1.0000 0.3300 0.0000
1.0000 0.3249 0.0000
1.0000 0.3198 0.0000
0.0000 0.4788 0.0000
0.0000 0.4735 0.0000
0.0393 0.4683 0.0000
0.1088 0.4631 0.0000
0.1853 0.4578 0.0000
0.2674 0.4526 0.0000
0.3536 0.4474 0.0000
0.4422 0.4422 0.0000
0.5318 0.4370 0.0000
0.6209 0.4318 0.0000
0.7079 0.4266 0.0000
0.7913 0.4214 0.0000
0.8697 0.4162 0.0000
0.9414 0.4110 0.0000
1.0000 0.4058 0.0000
1.0000 0.4006 0.0000
1.0000 0.3954 0.0000
0.0000 0.5560 0.0000
0.0000 0.5508 0.0000
0.0266 0.5456 0.0000
0.0945 0.5404 0.0000
0.1698 0.5351 0.0000
0.2510 0.5299 0.0000
0.3364 0.5247 0.0000
0.4247 0.5194 0.0000
0.5142 0.5142 0.0000
0.6035 0.5090 0.0000
0.6910 0.5038 0.0000
0.7753 0.4985 0.0000
0.8548 0.4933 0.0000
0.9279 0.4881 0.0000
0.9932 0.4828 0.0000
1.0000 0.4776 0.0000
1.0000 0.4724 0.0000
0.0000 0.6326 0.0000
0.0000 0.6274 0.0000
0.0142 0.6223 0.0000
0.0806 0.6171 0.0000
0.1545 0.6120 0.0000
0.2346 0.6068 0.0000
0.3194 0.6016 0.0000
0.4072 0.5964 0.0000
0.4966 0.5913 0.0000
0.5861 0.5861 0.0000
0.6741 0.5809 0.0000
0.7591 0.5757 0.0000
0.8396 0.5705 0.0000
0.9141 0.5653 0.0000
0.9811 0.5601 0.0000
1.0000 0.5549 0.0000
1.0000 0.5496 0.0000
0.0000 0.7074 0.0000
0.0000 0.7024 0.0000
0.0023 0.6974 0.0000
0.0669 0.6924 0.0000
0.1395 0.6874 0.0000
0.2185 0.6823 0.0000
0.3025 0.6773 0.0000
0.3898 0.6722 0.0000
0.4790 0.6672 0.0000
0.5686 0.6621 0.0000
0.6570 0.6570 0.0000
0.7427 0.6519 0.0000
0.8242 0.6468 0.0000
0.9000 0.6417 0.0000
0.9686 0.6366 0.0000
1.0000 0.6314 0.0000
1.0000 0.6263 0.0000
0.0000 0.7796 0.0000
0.0000 0.7749 0.0000
0.0000 0.7701 0.0000
0.0535 0.7652 0.0000
0.1247 0.7604 0.0000
0.2026 0.7556 0.0000
0.2857 0.7507 0.0000
0.3725 0.7458 0.0000
0.4614 0.7409 0.0000
0.5511 0.7360 0.0000
0.6398 0.7311 0.0000
0.7262 0.7262 0.0000
0.8086 0.7212 0.0000
0.8857 0.7163 0.0000
0.9558 0.7113 0.0000
1.0000 0.7063 0.0000
1.0000 0.7013 0.0000
0.0000 0.8482 0.0000
0.0000 0.8437 0.0000
0.0000 0.8392 0.0000
0.0405 0.8346 0.0000
0.1101 0.8301 0.0000
0.1868 0.8255 0.0000
0.2690 0.8209 0.0000
0.3552 0.8163 0.0000
0.4439 0.8116 0.0000
0.5335 0.8069 0.0000
0.6225 0.8023 0.0000
0.7095 0.7976 0.0000
0.7928 0.7928 0.0000
0.8711 0.7881 0.0000
0.9426 0.7834 0.0000
1.0000 0.7786 0.0000
1.0000 0.7738 0.0000
0.0000 0.9122 0.0000
0.0000 0.9080 0.0000
0.0000 0.9039 0.0000
0.0278 0.8996 0.0000
0.0959 0.8954 0.0000
0.1713 0.8911 0.0000
0.2525 0.8869 0.0000
0.3381 0.8825 0.0000
0.4264 0.8782 0.0000
0.5159 0.8738 0.0000
0.6052 0.8695 0.0000
0.6927 0.8651 0.0000
0.7768 0.8606 0.0000
0.8562 0.8562 0.0000
0.9292 0.8517 0.0000
0.9943 0.8472 0.0000
1.0000 0.8427 0.0000
0.0000 0.9706 0.0000
0.0000 0.9669 0.0000
0.0000 0.9631 0.0000
0.0154 0.9593 0.0000
0.0819 0.9554 0.0000
0.1560 0.9515 0.0000
0.2362 0.9476 0.0000
0.3210 0.9437 0.0000
0.4089 0.9398 0.0000
0.4983 0.9358 0.0000
0.5878 0.9318 0.0000
0.6757 0.9277 0.0000
0.7607 0.9237 0.0000
0.8411 0.9196 0.0000
0.9154 0.9154 0.0000
0.9822 0.9113 0.0000
1.0000 0.9071 0.0000
0.0000 1.0000 0.0000
0.0000 1.0000 0.0000
0.0000 1.0000 0.0000
0.0034 1.0000 0.0000
0.0682 1.0000 0.0000
0.1409 1.0000 0.0000
0.2201 1.0000 0.0000
0.3041 0.9988 0.0000
0.3915 0.9953 0.0000
0.4807 0.9917 0.0000
0.5703 0.9882 0.0000
0.6586 0.9845 0.0000
0.7443 0.9809 0.0000
0.8257 0.9772 0.0000
0.9014 0.9735 0.0000
0.9698 0.9698 0.0000
1.0000 0.9660 0.0000
0.0000 1.0000 0.0000
0.0000 1.0000 0.0000
0.0000 1.0000 0.0000
0.0000 1.0000 0.0000
0.0548 1.0000 0.0000
0.1261 1.0000 0.0000
0.2041 1.0000 0.0000
0.2873 1.0000 0.0000
0.3741 1.0000 0.0000
0.4631 1.0000 0.0000
0.5527 1.0000 0.0000
0.6415 1.0000 0.0000
0.7278 1.0000 0.0000
0.8102 1.0000 0.0000
0.8871 1.0000 0.0000
0.9570 1.0000 0.0000
1.0000 1.0000 0.0000
0.0000 0.0000 0.0670
0.0630 0.0000 0.0630
0.1351 0.0000 0.0590
0.2138 0.0000 0.0550
0.2975 0.0000 0.0511
0.3847 0.0000 0.0472
0.4739 0.0000 0.0433
0.5635 0.0000 0.0395
0.6520 0.0000 0.0357
0.7379 0.0000 0.0319
0.8197 0.0000 0.0282
0.8959 0.0000 0.0245
0.9649 0.0000 0.0208
1.0000 0.0000 0.0171
1.0000 0.0000 0.0135
1.0000 0.0000 0.0099
1.0000 0.0000 0.0063
0.0000 0.0536 0.0536
0.0497 0.0497 0.0497
0.1204 0.0458 0.0458
0.1979 0.0419 0.0419
0.2808 0.0381 0.0381
0.3674 0.0343 0.0343
0.4563 0.0306 0.0306
0.5459 0.0268 0.0268
0.6348 0.0231 0.0231
0.7213 0.0194 0.0194
0.8040 0.0158 0.0158
0.8814 0.0122 0.0122
0.9520 0.0086 0.0086
1.0000 0.0051 0.0051
1.0000 0.0015 0.0015
1.0000 0.0000 0.0000
1.0000 0.0000 0.0000
0.0000 0.1145 0.0406
0.0367 0.1102 0.0367
0.1059 0.1059 0.0330
0.1823 0.1017 0.0292
0.2642 0.0975 0.0255
0.3502 0.0933 0.0218
0.4387 0.0891 0.0181
0.5283 0.0850 0.0145
0.6175 0.0808 0.0109
0.7046 0.0767 0.0073
0.7882 0.0727 0.0038
0.8667 0.0686 0.0003
0.9387 0.0646 0.0000
1.0000 0.0606 0.0000
1.0000 0.0567 0.0000
1.0000 0.0527 0.0000
1.0000 0.0488 0.0000
0.0000 0.1806 0.0278
0.0241 0.1760 0.0241
0.0917 0.1714 0.0204
0.1668 0.1668 0.0168
0.2477 0.1622 0.0132
0.3331 0.1577 0.0096
0.4212 0.1532 0.0060
0.5108 0.1487 0.0025
0.6001 0.1442 0.0000
0.6877 0.1398 0.0000
0.7721 0.1353 0.0000
0.8518 0.1309 0.0000
0.9252 0.1266 0.0000
0.9908 0.1222 0.0000
1.0000 0.1179 0.0000
1.0000 0.1136 0.0000
1.0000 0.1093 0.0000
0.0000 0.2508 0.0155
0.0119 0.2460 0.0119
0.0778 0.2411 0.0083
0.1516 0.2363 0.0047
0.2315 0.2315 0.0012
0.3160 0.2267 0.0000
0.4038 0.2219 0.0000
0.4932 0.2171 0.0000
0.5826 0.2123 0.0000
0.6707 0.2076 0.0000
0.7559 0.2029 0.0000
0.8366 0.1982 0.0000
0.9114 0.1935 0.0000
0.9786 0.1888 0.0000
1.0000 0.1842 0.0000
1.0000 0.1796 0.0000
1.0000 0.1749 0.0000
0.0000 0.3243 0.0034
0.0000 0.3192 0.0000
0.0642 0.3142 0.0000
0.1366 0.3092 0.0000
0.2154 0.3042 0.0000
0.2991 0.2991 0.0000
0.3864 0.2941 0.0000
0.4756 0.2892 0.0000
0.5651 0.2842 0.0000
0.6536 0.2792 0.0000
0.7395 0.2743 0.0000
0.8212 0.2693 0.0000
0.8972 0.2644 0.0000
0.9661 0.2595 0.0000
1.0000 0.2546 0.0000
1.0000 0.2498 0.0000
1.0000 0.2449 0.0000
0.0000 0.4000 0.0000
0.0000 0.3948 0.0000
0.0509 0.3897 0.0000
0.1218 0.3845 0.0000
0.1995 0.3793 0.0000
0.2824 0.3742 0.0000
0.3691 0.3691 0.0000
0.4580 0.3639 0.0000
0.5476 0.3588 0.0000
0.6364 0.3537 0.0000
0.7229 0.3486 0.0000
0.8056 0.3435 0.0000
0.8828 0.3384 0.0000
0.9532 0.3333 0.0000
1.0000 0.3282 0.0000
1.0000 0.3232 0.0000
1.0000 0.3181 0.0000
0.0000 0.4770 0.0000
0.0000 0.4717 0.0000
0.0380 0.4665 0.0000
0.1073 0.4613 0.0000
0.1838 0.4561 0.0000
0.2658 0.4509 0.0000
0.3518 0.4456 0.0000
0.4404 0.4404 0.0000
0.5300 0.4352 0.0000
0.6191 0.4300 0.0000
0.7062 0.4248 0.0000
0.7897 0.4196 0.0000
0.8682 0.4144 0.0000
0.9400 0.4092 0.0000
1.0000 0.4040 0.0000
1.0000 0.3989 0.0000
1.0000 0.3937 0.0000
0.0000 0.5542 0.0000
0.0000 0.5490 0.0000
0.0253 0.5438 0.0000
0.0931 0.5386 0.0000
0.1683 0.5334 0.0000
0.2493 0.5281 0.0000
0.3347 0.5229 0.0000
0.4229 0.5177 0.0000
0.5124 0.5124 0.0000
0.6018 0.5072 0.0000
0.6893 0.5020 0.0000
0.7737 0.4967 0.0000
0.8532 0.4915 0.0000
0.9265 0.4863 0.0000
0.9920 0.4810 0.0000
1.0000 0.4758 0.0000
1.0000 0.4706 0.0000
0.0000 0.6308 0.0000
0.0000 0.6257 0.0000
0.0130 0.6205 0.0000
0.0792 0.6154 0.0000
0.1530 0.6102 0.0000
0.2330 0.6050 0.0000
0.3177 0.5999 0.0000
0.4054 0.5947 0.0000
0.4948 0.5895 0.0000
0.5843 0.5843 0.0000
0.6724 0.5791 0.0000
0.7575 0.5739 0.0000
0.8381 0.5687 0.0000
0.9127 0.5635 0.0000
0.9798 0.5583 0.0000
1.0000 0.5531 0.0000
1.0000 0.5479 0.0000
0.0000 0.7057 0.0000
0.0000 0.7007 0.0000
0.0011 0.6957 0.0000
0.0655 0.6907 0.0000
0.1380 0.6857 0.0000
0.2169 0.6806 0.0000
0.3008 0.6756 0.0000
0.3880 0.6705 0.0000
0.4772 0.6654 0.0000
0.5668 0.6604 0.0000
0.6553 0.6553 0.0000
0.7411 0.6502 0.0000
0.8227 0.6451 0.0000
0.8986 0.6399 0.0000
0.9673 0.6348 0.0000
1.0000 0.6297 0.0000
1.0000 0.6245 0.0000
0.0000 0.7780 0.0000
0.0000 0.7732 0.0000
0.0000 0.7684 0.0000
0.0522 0.7636 0.0000
0.1232 0.7588 0.0000
0.2010 0.7539 0.0000
0.2840 0.7491 0.0000
0.3707 0.7442 0.0000
0.4597 0.7393 0.0000
0.5493 0.7344 0.0000
0.6381 0.7294 0.0000
0.7245 0.7245 0.0000
0.8071 0.7196 0.0000
0.8842 0.7146 0.0000
0.9545 0.7096 0.0000
1.0000 0.7046 0.0000
1.0000 0.6996 0.0000
0.0000 0.8467 0.0000
0.0000 0.8422 0.0000
0.0000 0.8377 0.0000
0.0392 0.8331 0.0000
0.1087 0.8285 0.0000
0.1852 0.8239 0.0000
0.2674 0.8193 0.0000
0.3535 0.8147 0.0000
0.4421 0.8100 0.0000
0.5317 0.8054 0.0000
0.6208 0.8007 0.0000
0.7078 0.7960 0.0000
0.7912 0.7912 0.0000
0.8696 0.7865 0.0000
0.9413 0.7817 0.0000
1.0000 0.7770 0.0000
1.0000 0.7722 0.0000
0.0000 0.9108 0.0000
0.0000 0.9066 0.0000
0.0000 0.9024 0.0000
0.0265 0.8982 0.0000
0.0944 0.8940 0.0000
0.1697 0.8897 0.0000
0.2509 0.8854 0.0000
0.3363 0.8811 0.0000
0.4246 0.8767 0.0000
0.5141 0.8724 0.0000
0.6034 0.8680 0.0000
0.6910 0.8636 0.0000
0.7752 0.8591 0.0000
0.8547 0.8547 0.0000
0.9278 0.8502 0.0000
0.9931 0.8457 0.0000
1.0000 0.8412 0.0000
0.0000 0.9693 0.0000
0.0000 0.9656 0.0000
0.0000 0.9618 0.0000
0.0142 0.9580 0.0000
0.0805 0.9541 0.0000
0.1545 0.9502 0.0000
0.2346 0.9463 0.0000
0.3193 0.9424 0.0000
0.4071 0.9384 0.0000
0.4965 0.9344 0.0000
0.5860 0.9304 0.0000
0.6740 0.9263 0.0000
0.7590 0.9223 0.0000
0.8395 0.9182 0.0000
0.9140 0.9140 0.0000
0.9810 0.9099 0.0000
1.0000 0.9057 0.0000
0.0000 1.0000 0.0000
0.0000 1.0000 0.0000
0.0000 1.0000 0.0000
0.0022 1.0000 0.0000
0.0668 1.0000 0.0000
0.1394 1.0000 0.0000
0.2184 1.0000 0.0000
0.3024 0.9976 0.0000
0.3897 0.9941 0.0000
0.4789 0.9905 0.0000
0.5685 0.9869 0.0000
0.6569 0.9833 0.0000
0.7426 0.9797 0.0000
0.8242 0.9760 0.0000
0.9000 0.9723 0.0000
0.9685 0.9685 0.0000
1.0000 0.9647 0.0000
0.0000 1.0000 0.0000
0.0000 1.0000 0.0000
0.0000 1.0000 0.0000
0.0000 1.0000 0.0000
0.0535 1.0000 0.0000
0.1246 1.0000 0.0000
0.2025 1.0000 0.0000
0.2856 1.0000 0.0000
0.3724 1.0000 0.0000
0.4613 1.0000 0.0000
0.5510 1.0000 0.0000
0.6397 1.0000 0.0000
0.7261 1.0000 0.0000
0.8086 1.0000 0.0000
0.8856 1.0000 0.0000
0.9557 1.0000 0.0000
1.0000 1.0000 0.0000
0.0000 0.0000 0.1425
0.0616 0.0000 0.1380
0.1336 0.0000 0.1336
0.2122 0.0000 0.1292
0.2958 0.0000 0.1249
0.3830 0.0000 0.1205
0.4721 0.0000 0.1162
0.5617 0.0000 0.1119
0.6502 0.0000 0.1076
0.7362 0.0000 0.1033
0.8181 0.0000 0.0991
0.8944 0.0000 0.0949
0.9636 0.0000 0.0907
1.0000 0.0000 0.0866
1.0000 0.0000 0.0824
1.0000 0.0000 0.0783
1.0000 0.0000 0.0742
0.0000 0.0523 0.1276
0.0484 0.0484 0.1233
0.1189 0.0445 0.1189
0.1963 0.0406 0.1146
0.2791 0.0368 0.1103
0.3657 0.0330 0.1060
0.4545 0.0293 0.1018
0.5441 0.0256 0.0976
0.6330 0.0219 0.0934
0.7196 0.0182 0.0892
0.8025 0.0146 0.0851
0.8800 0.0110 0.0809
0.9506 0.0074 0.0768
1.0000 0.0039 0.0728
1.0000 0.0003 0.0687
1.0000 0.0000 0.0647
1.0000 0.0000 0.0607
0.0000 0.1130 0.1130
0.0354 0.1088 0.1088
0.1045 0.1045 0.1045
0.1807 0.1003 0.1003
0.2625 0.0960 0.0960
0.3484 0.0919 0.0919
0.4370 0.0877 0.0877
0.5266 0.0835 0.0835
0.6157 0.0794 0.0794
0.7029 0.0753 0.0753
0.7866 0.0713 0.0713
0.8652 0.0673 0.0673
0.9374 0.0632 0.0632
1.0000 0.0593 0.0593
1.0000 0.0553 0.0553
1.0000 0.0514 0.0514
1.0000 0.0475 0.0475
0.0000 0.1790 0.0987
0.0229 0.1744 0.0945
0.0903 0.1698 0.0903
0.1652 0.1652 0.0862
0.2461 0.1607 0.0820
0.3313 0.1562 0.0779
0.4195 0.1517 0.0739
0.5090 0.1472 0.0698
0.5983 0.1427 0.0658
0.6860 0.1383 0.0618
0.7705 0.1339 0.0578
0.8503 0.1295 0.0539
0.9238 0.1251 0.0500
0.9896 0.1207 0.0461
1.0000 0.1164 0.0422
1.0000 0.1121 0.0384
1.0000 0.1078 0.0346
0.0000 0.2492 0.0847
0.0106 0.2443 0.0806
0.0765 0.2395 0.0765
0.1500 0.2346 0.0724
0.2298 0.2298 0.0683
0.3143 0.2250 0.0643
0.4020 0.2202 0.0603
0.4914 0.2155 0.0564
0.5809 0.2107 0.0525
0.6690 0.2060 0.0486
0.7542 0.2013 0.0447
0.8351 0.1966 0.0408
0.9099 0.1919 0.0370
0.9774 0.1872 0.0332
1.0000 0.1826 0.0295
1.0000 0.1780 0.0257
1.0000 0.1734 0.0221
0.0000 0.3226 0.0709
0.0000 0.3175 0.0669
0.0629 0.3125 0.0629
0.1351 0.3075 0.0589
0.2137 0.3025 0.0550
0.2974 0.2974 0.0510
0.3846 0.2925 0.0471
0.4738 0.2875 0.0433
0.5634 0.2825 0.0394
0.6519 0.2775 0.0356
0.7378 0.2726 0.0319
0.8196 0.2677 0.0281
0.8958 0.2628 0.0244
0.9648 0.2579 0.0207
1.0000 0.2530 0.0171
1.0000 0.2481 0.0134
1.0000 0.2432 0.0098
0.0000 0.3982 0.0575
0.0000 0.3931 0.0535
0.0496 0.3879 0.0496
0.1203 0.3828 0.0457
0.1979 0.3776 0.0419
0.2807 0.3725 0.0381
0.3673 0.3673 0.0343
0.4562 0.3622 0.0305
0.5458 0.3571 0.0268
0.6347 0.3520 0.0231
0.7212 0.3468 0.0194
0.8040 0.3418 0.0157
0.8814 0.3367 0.0121
0.9519 0.3316 0.0085
1.0000 0.3265 0.0050
1.0000 0.3215 0.0015
1.0000 0.3164 0.0000
0.0000 0.4752 0.0443
0.0000 0.4700 0.0405
0.0367 0.4647 0.0367
0.1059 0.4595 0.0329
0.1822 0.4543 0.0291
0.2641 0.4491 0.0254
0.3501 0.4439 0.0217
0.4387 0.4387 0.0180
0.5283 0.4334 0.0144
0.6174 0.4282 0.0108
0.7045 0.4230 0.0072
0.7881 0.4178 0.0037
0.8667 0.4126 0.0002
0.9387 0.4075 0.0000
1.0000 0.4023 0.0000
1.0000 0.3971 0.0000
1.0000 0.3919 0.0000
0.0000 0.5525 0.0315
0.0000 0.5472 0.0278
0.0241 0.5420 0.0241
0.0917 0.5368 0.0204
0.1667 0.5316 0.0167
0.2477 0.5264 0.0131
0.3330 0.5211 0.0095
0.4211 0.5159 0.0060
0.5107 0.5107 0.0024
0.6000 0.5054 0.0000
0.6876 0.5002 0.0000
0.7720 0.4950 0.0000
0.8517 0.4897 0.0000
0.9251 0.4845 0.0000
0.9908 0.4793 0.0000
1.0000 0.4740 0.0000
1.0000 0.4688 0.0000
0.0000 0.6291 0.0190
0.0000 0.6239 0.0154
0.0118 0.6188 0.0118
0.0778 0.6136 0.0082
0.1515 0.6085 0.0047
0.2314 0.6033 0.0012
0.3160 0.5981 0.0000
0.4037 0.5929 0.0000
0.4931 0.5877 0.0000
0.5826 0.5826 0.0000
0.6706 0.5774 0.0000
0.7558 0.5722 0.0000
0.8365 0.5669 0.0000
0.9113 0.5617 0.0000
0.9786 0.5565 0.0000
1.0000 0.5513 0.0000
1.0000 0.5461 0.0000
0.0000 0.7040 0.0069
0.0000 0.6990 0.0034
0.0000 0.6940 0.0000
0.0642 0.6890 0.0000
0.1365 0.6840 0.0000
0.2153 0.6789 0.0000
0.2991 0.6739 0.0000
0.3863 0.6688 0.0000
0.4755 0.6637 0.0000
0.5651 0.6586 0.0000
0.6535 0.6535 0.0000
0.7394 0.6484 0.0000
0.8211 0.6433 0.0000
0.8972 0.6382 0.0000
0.9660 0.6331 0.0000
1.0000 0.6279 0.0000
1.0000 0.6228 0.0000
0.0000 0.7764 0.0000
0.0000 0.7716 0.0000
0.0000 0.7668 0.0000
0.0509 0.7620 0.0000
0.1217 0.7571 0.0000
0.1994 0.7523 0.0000
0.2823 0.7474 0.0000
0.3690 0.7425 0.0000
0.4579 0.7376 0.0000
0.5475 0.7327 0.0000
0.6363 0.7278 0.0000
0.7228 0.7228 0.0000
0.8055 0.7179 0.0000
0.8828 0.7129 0.0000
0.9531 0.7079 0.0000
1.0000 0.7029 0.0000
1.0000 0.6979 0.0000
0.0000 0.8452 0.0000
0.0000 0.8406 0.0000
0.0000 0.8361 0.0000
0.0379 0.8315 0.0000
0.1072 0.8270 0.0000
0.1837 0.8224 0.0000
0.2657 0.8177 0.0000
0.3517 0.8131 0.0000
0.4403 0.8084 0.0000
0.5299 0.8038 0.0000
0.6190 0.7991 0.0000
0.7061 0.7944 0.0000
0.7896 0.7896 0.0000
0.8681 0.7849 0.0000
0.9399 0.7801 0.0000
1.0000 0.7753 0.0000
1.0000 0.7705 0.0000
0.0000 0.9094 0.0000
0.0000 0.9052 0.0000
0.0000 0.9010 0.0000
0.0253 0.8968 0.0000
0.0930 0.8925 0.0000
0.1682 0.8882 0.0000
0.2492 0.8839 0.0000
0.3346 0.8796 0.0000
0.4228 0.8752 0.0000
0.5123 0.8709 0.0000
0.6017 0.8665 0.0000
0.6893 0.8621 0.0000
0.7736 0.8576 0.0000
0.8532 0.8532 0.0000
0.9264 0.8487 0.0000
0.9919 0.8442 0.0000
1.0000 0.8396 0.0000
0.0000 0.9681 0.0000
0.0000 0.9643 0.0000
0.0000 0.9605 0.0000
0.0130 0.9567 0.0000
0.0791 0.9528 0.0000
0.1529 0.9489 0.0000
0.2329 0.9450 0.0000
0.3176 0.9410 0.0000
0.4054 0.9371 0.0000
0.4947 0.9330 0.0000
0.5842 0.9290 0.0000
0.6723 0.9250 0.0000
0.7574 0.9209 0.0000
0.8380 0.9168 0.0000
0.9126 0.9126 0.0000
0.9797 0.9085 0.0000
1.0000 0.9043 0.0000
0.0000 1.0000 0.0000
0.0000 1.0000 0.0000
0.0000 1.0000 0.0000
0.0010 1.0000 0.0000
0.0655 1.0000 0.0000
0.1379 1.0000 0.0000
0.2168 0.9999 0.0000
0.3007 0.9964 0.0000
0.3880 0.9929 0.0000
0.4772 0.9893 0.0000
0.5667 0.9857 0.0000
0.6552 0.9821 0.0000
0.7410 0.9784 0.0000
0.8226 0.9747 0.0000
0.8985 0.9710 0.0000
0.9672 0.9672 0.0000
1.0000 0.9635 0.0000
0.0000 1.0000 0.0000
0.0000 1.0000 0.0000
0.0000 1.0000 0.0000
0.0000 1.0000 0.0000
0.0521 1.0000 0.0000
0.1231 1.0000 0.0000
0.2009 1.0000 0.0000
0.2839 1.0000 0.0000
0.3706 1.0000 0.0000
0.4596 1.0000 0.0000
0.5492 1.0000 0.0000
0.6380 1.0000 0.0000
0.7244 1.0000 0.0000
0.8070 1.0000 0.0000
0.8841 1.0000 0.0000
0.9544 1.0000 0.0000
1.0000 1.0000 0.0000
0.0000 0.0000 0.2249
0.0602 0.0000 0.2201
0.1321 0.0000 0.2154
0.2106 0.0000 0.2106
0.2941 0.0000 0.2059
0.3812 0.0000 0.2012
0.4703 0.0000 0.1965
0.5599 0.0000 0.1918
0.6485 0.0000 0.1871
0.7346 0.0000 0.1825
0.8166 0.0000 0.1779
0.8930 0.0000 0.1733
0.9623 0.0000 0.1687
1.0000 0.0000 0.1641
1.0000 0.0000 0.1596
1.0000 0.0000 0.1551
1.0000 0.0000 0.1506
0.0000 0.0509 0.2089
0.0470 0.0470 0.2042
0.1175 0.0432 0.1994
0.1948 0.0393 0.1948
0.2774 0.0355 0.1901
0.3639 0.0318 0.1854
0.4527 0.0280 0.1808
0.5424 0.0243 0.1762
0.6313 0.0206 0.1716
0.7179 0.0170 0.1670
0.8009 0.0133 0.1625
0.8785 0.0097 0.1579
0.9493 0.0062 0.1534
1.0000 0.0027 0.1489
1.0000 0.0000 0.1444
1.0000 0.0000 0.1400
