android/app/src/main/assets/luts/vivid@1.cube
# Editor for Immich, vivid@1 (tool/make_luts.py)
LUT_3D_SIZE 9
0.0000 0.0000 0.0000
0.1366 0.0000 0.0000
0.2992 0.0000 0.0000
0.4756 0.0000 0.0000
0.6537 0.0000 0.0000
0.8213 0.0000 0.0000
0.9662 0.0000 0.0000
1.0000 0.0000 0.0000
1.0000 0.0000 0.0000
0.0000 0.1160 0.0000
0.1074 0.1074 0.0000
0.2658 0.0989 0.0000
0.4405 0.0905 0.0000
0.6192 0.0822 0.0000
0.7898 0.0740 0.0000
0.9401 0.0660 0.0000
1.0000 0.0580 0.0000
1.0000 0.0501 0.0000
0.0000 0.2525 0.0000
0.0792 0.2428 0.0000
0.2331 0.2331 0.0000
0.4055 0.2235 0.0000
0.5844 0.2140 0.0000
0.7575 0.2045 0.0000
0.9128 0.1951 0.0000
1.0000 0.1858 0.0000
1.0000 0.1765 0.0000
0.0000 0.4018 0.0000
0.0523 0.3914 0.0000
0.2011 0.3811 0.0000
0.3708 0.3708 0.0000
0.5494 0.3605 0.0000
0.7246 0.3503 0.0000
0.8843 0.3401 0.0000
1.0000 0.3300 0.0000
1.0000 0.3198 0.0000
0.0000 0.5560 0.0000
0.0266 0.5456 0.0000
0.1698 0.5351 0.0000
0.3364 0.5247 0.0000
0.5142 0.5142 0.0000
0.6910 0.5038 0.0000
0.8548 0.4933 0.0000
0.9932 0.4828 0.0000
1.0000 0.4724 0.0000
0.0000 0.7074 0.0000
0.0023 0.6974 0.0000
0.1395 0.6874 0.0000
0.3025 0.6773 0.0000
0.4790 0.6672 0.0000
0.6570 0.6570 0.0000
0.8242 0.6468 0.0000
0.9686 0.6366 0.0000
1.0000 0.6263 0.0000
0.0000 0.8482 0.0000
0.0000 0.8392 0.0000
0.1101 0.8301 0.0000
0.2690 0.8209 0.0000
0.4439 0.8116 0.0000
0.6225 0.8023 0.0000
0.7928 0.7928 0.0000
0.9426 0.7834 0.0000
1.0000 0.7738 0.0000
0.0000 0.9706 0.0000
0.0000 0.9631 0.0000
0.0819 0.9554 0.0000
0.2362 0.9476 0.0000
0.4089 0.9398 0.0000
0.5878 0.9318 0.0000
0.7607 0.9237 0.0000
0.9154 0.9154 0.0000
1.0000 0.9071 0.0000
0.0000 1.0000 0.0000
0.0000 1.0000 0.0000
0.0548 1.0000 0.0000
0.2041 1.0000 0.0000
0.3741 1.0000 0.0000
0.5527 1.0000 0.0000
0.7278 1.0000 0.0000
0.8871 1.0000 0.0000
1.0000 1.0000 0.0000
0.0000 0.0000 0.1425
0.1336 0.0000 0.1336
0.2958 0.0000 0.1249
0.4721 0.0000 0.1162
0.6502 0.0000 0.1076
0.8181 0.0000 0.0991
0.9636 0.0000 0.0907
1.0000 0.0000 0.0824
1.0000 0.0000 0.0742
0.0000 0.1130 0.1130
0.1045 0.1045 0.1045
0.2625 0.0960 0.0960
0.4370 0.0877 0.0877
0.6157 0.0794 0.0794
0.7866 0.0713 0.0713
0.9374 0.0632 0.0632
1.0000 0.0553 0.0553
1.0000 0.0475 0.0475
0.0000 0.2492 0.0847
0.0765 0.2395 0.0765
0.2298 0.2298 0.0683
0.4020 0.2202 0.0603
0.5809 0.2107 0.0525
0.7542 0.2013 0.0447
0.9099 0.1919 0.0370
1.0000 0.1826 0.0295
1.0000 0.1734 0.0221
0.0000 0.3982 0.0575
0.0496 0.3879 0.0496
0.1979 0.3776 0.0419
0.3673 0.3673 0.0343
0.5458 0.3571 0.0268
0.7212 0.3468 0.0194
0.8814 0.3367 0.0121
1.0000 0.3265 0.0050
1.0000 0.3164 0.0000
0.0000 0.5525 0.0315
0.0241 0.5420 0.0241
0.1667 0.5316 0.0167
0.3330 0.5211 0.0095
0.5107 0.5107 0.0024
0.6876 0.5002 0.0000
0.8517 0.4897 0.0000
0.9908 0.4793 0.0000
1.0000 0.4688 0.0000
0.0000 0.7040 0.0069
0.0000 0.6940 0.0000
0.1365 0.6840 0.0000
0.2991 0.6739 0.0000
0.4755 0.6637 0.0000
0.6535 0.6535 0.0000
0.8211 0.6433 0.0000
0.9660 0.6331 0.0000
1.0000 0.6228 0.0000
0.0000 0.8452 0.0000
0.0000 0.8361 0.0000
0.1072 0.8270 0.0000
0.2657 0.8177 0.0000
0.4403 0.8084 0.0000
0.6190 0.7991 0.0000
0.7896 0.7896 0.0000
0.9399 0.7801 0.0000
1.0000 0.7705 0.0000
0.0000 0.9681 0.0000
0.0000 0.9605 0.0000
0.0791 0.9528 0.0000
0.2329 0.9450 0.0000
0.4054 0.9371 0.0000
0.5842 0.9290 0.0000
0.7574 0.9209 0.0000
0.9126 0.9126 0.0000
1.0000 0.9043 0.0000
0.0000 1.0000 0.0000
0.0000 1.0000 0.0000
0.0521 1.0000 0.0000
0.2009 1.0000 0.0000
0.3706 1.0000 0.0000
0.5492 1.0000 0.0000
0.7244 1.0000 0.0000
0.8841 1.0000 0.0000
1.0000 1.0000 0.0000
0.0000 0.0000 0.3125
0.1306 0.0000 0.3024
0.2924 0.0000 0.2924
0.4685 0.0000 0.2825
0.6468 0.0000 0.2726
0.8150 0.0000 0.2628
0.9610 0.0000 0.2530
1.0000 0.0000 0.2432
1.0000 0.0000 0.2336
0.0000 0.1101 0.2789
0.1016 0.1016 0.2690
0.2592 0.0932 0.2592
0.4334 0.0849 0.2494
0.6122 0.0767 0.2397
0.7833 0.0685 0.2301
0.9347 0.0605 0.2205
1.0000 0.0527 0.2110
1.0000 0.0449 0.2015
0.0000 0.2459 0.2459
0.0737 0.2362 0.2362
0.2266 0.2266 0.2266
0.3985 0.2170 0.2170
0.5773 0.2075 0.2075
0.7509 0.1981 0.1981
0.9071 0.1887 0.1887
1.0000 0.1795 0.1795
1.0000 0.1703 0.1703
0.0000 0.3947 0.2135
0.0470 0.3844 0.2041
0.1947 0.3741 0.1947
0.3638 0.3638 0.1854
0.5423 0.3536 0.1761
0.7179 0.3434 0.1669
0.8784 0.3332 0.1578
1.0000 0.3231 0.1488
1.0000 0.3130 0.1399
0.0000 0.5489 0.1820
0.0216 0.5385 0.1728
0.1636 0.5280 0.1636
0.3295 0.5176 0.1546
0.5071 0.5071 0.1456
0.6842 0.4966 0.1367
0.8487 0.4862 0.1279
0.9883 0.4757 0.1192
1.0000 0.4653 0.1106
0.0000 0.7006 0.1513
0.0000 0.6906 0.1423
0.1335 0.6805 0.1335
0.2957 0.6704 0.1247
0.4719 0.6603 0.1160
0.6501 0.6501 0.1074
0.8180 0.6398 0.0990
0.9635 0.6296 0.0906
1.0000 0.6193 0.0823
0.0000 0.8421 0.1215
0.0000 0.8330 0.1129
0.1043 0.8238 0.1043
0.2623 0.8146 0.0959
0.4368 0.8053 0.0875
0.6155 0.7959 0.0793
0.7864 0.7864 0.0711
0.9372 0.7769 0.0631
1.0000 0.7673 0.0552
0.0000 0.9655 0.0928
0.0000 0.9579 0.0845
0.0763 0.9501 0.0763
0.2297 0.9423 0.0682
0.4018 0.9343 0.0602
0.5807 0.9263 0.0523
0.7541 0.9181 0.0446
0.9098 0.9098 0.0369
1.0000 0.9014 0.0293
0.0000 1.0000 0.0653
0.0000 1.0000 0.0573
0.0495 1.0000 0.0495
0.1977 1.0000 0.0417
0.3671 1.0000 0.0341
0.5456 1.0000 0.0266
0.7211 1.0000 0.0193
0.8812 1.0000 0.0120
1.0000 1.0000 0.0049
0.0000 0.0000 0.4964
0.1277 0.0000 0.4859
0.2891 0.0000 0.4754
0.4650 0.0000 0.4650
0.6433 0.0000 0.4545
0.8118 0.0000 0.4441
0.9584 0.0000 0.4337
1.0000 0.0000 0.4233
1.0000 0.0000 0.4129
0.0000 0.1072 0.4612
0.0987 0.0987 0.4507
0.2559 0.0904 0.4403
0.4299 0.0821 0.4299
0.6087 0.0739 0.4195
0.7801 0.0658 0.4091
0.9319 0.0579 0.3988
1.0000 0.0500 0.3884
1.0000 0.0423 0.3781
0.0000 0.2426 0.4261
0.0709 0.2329 0.4157
0.2233 0.2233 0.4053
0.3950 0.2138 0.3950
0.5738 0.2043 0.3847
0.7476 0.1949 0.3744
0.9043 0.1856 0.3641
1.0000 0.1763 0.3538
1.0000 0.1672 0.3436
0.0000 0.3912 0.3912
0.0443 0.3809 0.3809
0.1915 0.3706 0.3706
0.3604 0.3604 0.3604
0.5387 0.3501 0.3501
0.7145 0.3399 0.3399
0.8755 0.3298 0.3298
1.0000 0.3197 0.3197
1.0000 0.3096 0.3096
0.0000 0.5454 0.3566
0.0191 0.5349 0.3464
0.1605 0.5245 0.3362
0.3261 0.5140 0.3261
0.5036 0.5036 0.3160
0.6808 0.4931 0.3059
0.8456 0.4826 0.2959
0.9859 0.4722 0.2859
1.0000 0.4617 0.2760
0.0000 0.6972 0.3224
0.0000 0.6872 0.3123
0.1305 0.6771 0.3023
0.2923 0.6670 0.2923
0.4684 0.6568 0.2823
0.6466 0.6466 0.2724
0.8148 0.6364 0.2626
0.9609 0.6261 0.2528
1.0000 0.6158 0.2431
0.0000 0.8390 0.2886
0.0000 0.8299 0.2787
0.1015 0.8207 0.2688
0.2590 0.8114 0.2590
0.4333 0.8021 0.2492
0.6120 0.7927 0.2395
0.7832 0.7832 0.2299
0.9345 0.7736 0.2203
1.0000 0.7640 0.2108
0.0000 0.9629 0.2555
0.0000 0.9553 0.2457
0.0736 0.9475 0.2360
0.2264 0.9396 0.2264
0.3983 0.9316 0.2168
0.5772 0.9235 0.2073
0.7508 0.9153 0.1979
0.9070 0.9070 0.1886
1.0000 0.8985 0.1793
0.0000 1.0000 0.2229
0.0000 1.0000 0.2134
0.0468 1.0000 0.2039
0.1945 1.0000 0.1945
0.3637 1.0000 0.1852
0.5421 1.0000 0.1759
0.7177 1.0000 0.1668
0.8783 1.0000 0.1577
1.0000 1.0000 0.1487
0.0000 0.0000 0.6805
0.1247 0.0000 0.6704
0.2857 0.0000 0.6602
0.4614 0.0000 0.6501
0.6398 0.0000 0.6398
0.8087 0.0000 0.6296
0.9558 0.0000 0.6193
1.0000 0.0000 0.6090
1.0000 0.0000 0.5986
0.0000 0.1043 0.6463
0.0959 0.0959 0.6361
0.2525 0.0875 0.6258
0.4264 0.0793 0.6155
0.6052 0.0711 0.6052
0.7769 0.0631 0.5948
0.9292 0.0552 0.5845
1.0000 0.0474 0.5741
1.0000 0.0397 0.5637
0.0000 0.2393 0.6118
0.0682 0.2296 0.6014
0.2201 0.2201 0.5911
0.3915 0.2105 0.5807
0.5703 0.2011 0.5703
0.7443 0.1917 0.5599
0.9014 0.1824 0.5494
1.0000 0.1732 0.5390
1.0000 0.1641 0.5285
0.0000 0.3877 0.5769
0.0417 0.3774 0.5665
0.1883 0.3671 0.5561
0.3569 0.3569 0.5456
0.5352 0.3467 0.5352
0.7111 0.3365 0.5247
0.8725 0.3263 0.5143
1.0000 0.3162 0.5038
1.0000 0.3062 0.4933
0.0000 0.5418 0.5418
0.0166 0.5314 0.5314
0.1575 0.5209 0.5209
0.3226 0.5105 0.5105
0.5000 0.5000 0.5000
0.6774 0.4895 0.4895
0.8425 0.4791 0.4791
0.9834 0.4686 0.4686
1.0000 0.4582 0.4582
0.0000 0.6938 0.5067
0.0000 0.6838 0.4962
0.1275 0.6737 0.4857
0.2889 0.6635 0.4753
0.4648 0.6533 0.4648
0.6431 0.6431 0.4544
0.8117 0.6329 0.4439
0.9583 0.6226 0.4335
1.0000 0.6123 0.4231
0.0000 0.8359 0.4715
0.0000 0.8268 0.4610
0.0986 0.8176 0.4506
0.2557 0.8083 0.4401
0.4297 0.7989 0.4297
0.6085 0.7895 0.4193
0.7799 0.7799 0.4089
0.9318 0.7704 0.3986
1.0000 0.7607 0.3882
0.0000 0.9603 0.4363
0.0000 0.9526 0.4259
0.0708 0.9448 0.4155
0.2231 0.9369 0.4052
0.3948 0.9289 0.3948
0.5736 0.9207 0.3845
0.7475 0.9125 0.3742
0.9041 0.9041 0.3639
1.0000 0.8957 0.3537
0.0000 1.0000 0.4014
0.0000 1.0000 0.3910
0.0442 1.0000 0.3807
0.1913 1.0000 0.3704
0.3602 1.0000 0.3602
0.5386 1.0000 0.3499
0.7143 1.0000 0.3398
0.8753 1.0000 0.3296
1.0000 1.0000 0.3195
0.0000 0.0000 0.8513
0.1217 0.0000 0.8423
0.2823 0.0000 0.8332
0.4579 0.0000 0.8241
0.6363 0.0000 0.8148
0.8055 0.0000 0.8055
0.9532 0.0000 0.7961
1.0000 0.0000 0.7866
1.0000 0.0000 0.7771
0.0000 0.1015 0.8207
0.0930 0.0930 0.8114
0.2492 0.0847 0.8021
0.4228 0.0765 0.7927
0.6017 0.0684 0.7832
0.7736 0.0604 0.7736
0.9264 0.0525 0.7640
1.0000 0.0447 0.7543
1.0000 0.0371 0.7445
0.0000 0.2360 0.7892
0.0655 0.2264 0.7797
0.2168 0.2168 0.7701
0.3880 0.2073 0.7605
0.5667 0.1979 0.7508
0.7410 0.1886 0.7410
0.8985 0.1793 0.7312
1.0000 0.1701 0.7213
1.0000 0.1610 0.7114
0.0000 0.3842 0.7569
0.0391 0.3739 0.7472
0.1852 0.3636 0.7374
0.3534 0.3534 0.7276
0.5316 0.3432 0.7177
0.7077 0.3330 0.7077
0.8695 0.3229 0.6977
1.0000 0.3128 0.6877
1.0000 0.3028 0.6776
0.0000 0.5383 0.7240
0.0141 0.5278 0.7141
0.1544 0.5174 0.7041
0.3192 0.5069 0.6941
0.4964 0.4964 0.6840
0.6739 0.4860 0.6739
0.8395 0.4755 0.6638
0.9809 0.4651 0.6536
1.0000 0.4546 0.6434
0.0000 0.6904 0.6904
0.0000 0.6803 0.6803
0.1245 0.6702 0.6702
0.2855 0.6601 0.6601
0.4613 0.6499 0.6499
0.6396 0.6396 0.6396
0.8085 0.6294 0.6294
0.9557 0.6191 0.6191
1.0000 0.6088 0.6088
0.0000 0.8328 0.6564
0.0000 0.8237 0.6462
0.0957 0.8144 0.6359
0.2524 0.8051 0.6256
0.4262 0.7957 0.6153
0.6050 0.7862 0.6050
0.7767 0.7767 0.5947
0.9291 0.7671 0.5843
1.0000 0.7574 0.5739
0.0000 0.9577 0.6219
0.0000 0.9500 0.6116
0.0681 0.9421 0.6012
0.2199 0.9342 0.5909
0.3913 0.9261 0.5805
0.5701 0.9179 0.5701
0.7441 0.9096 0.5597
0.9013 0.9013 0.5493
1.0000 0.8928 0.5388
0.0000 1.0000 0.5871
0.0000 1.0000 0.5767
0.0416 1.0000 0.5663
0.1882 1.0000 0.5559
0.3567 1.0000 0.5455
0.5350 1.0000 0.5350
0.7109 1.0000 0.5246
0.8723 1.0000 0.5141
1.0000 1.0000 0.5036
0.0000 0.0000 0.9951
0.1188 0.0000 0.9880
0.2789 0.0000 0.9807
0.4544 0.0000 0.9734
0.6329 0.0000 0.9659
0.8023 0.0000 0.9583
0.9505 0.0000 0.9505
1.0000 0.0000 0.9427
1.0000 0.0000 0.9347
0.0000 0.0986 0.9707
0.0902 0.0902 0.9631
0.2459 0.0819 0.9554
0.4193 0.0737 0.9477
0.5982 0.0657 0.9398
0.7703 0.0577 0.9318
0.9237 0.0499 0.9237
1.0000 0.0421 0.9155
1.0000 0.0345 0.9072
0.0000 0.2327 0.9448
0.0628 0.2231 0.9369
0.2136 0.2136 0.9289
0.3845 0.2041 0.9207
0.5632 0.1947 0.9125
0.7377 0.1854 0.9041
0.8957 0.1762 0.8957
1.0000 0.1670 0.8871
1.0000 0.1579 0.8785
0.0000 0.3807 0.9177
0.0365 0.3704 0.9094
0.1820 0.3602 0.9010
0.3499 0.3499 0.8926
0.5281 0.3397 0.8840
0.7043 0.3296 0.8753
0.8665 0.3195 0.8665
1.0000 0.3094 0.8577
1.0000 0.2994 0.8487
0.0000 0.5347 0.8894
0.0117 0.5243 0.8808
0.1513 0.5138 0.8721
0.3158 0.5034 0.8633
0.4929 0.4929 0.8544
0.6705 0.4824 0.8454
0.8364 0.4720 0.8364
0.9784 0.4615 0.8272
1.0000 0.4511 0.8180
0.0000 0.6870 0.8601
0.0000 0.6769 0.8512
0.1216 0.6668 0.8422
0.2821 0.6566 0.8331
0.4577 0.6464 0.8239
0.6362 0.6362 0.8146
0.8053 0.6259 0.8053
0.9530 0.6156 0.7959
1.0000 0.6053 0.7865
0.0000 0.8297 0.8297
0.0000 0.8205 0.8205
0.0929 0.8113 0.8113
0.2491 0.8019 0.8019
0.4227 0.7925 0.7925
0.6015 0.7830 0.7830
0.7734 0.7734 0.7734
0.9263 0.7638 0.7638
1.0000 0.7541 0.7541
0.0000 0.9551 0.7985
0.0000 0.9473 0.7890
0.0653 0.9395 0.7795
0.2167 0.9315 0.7699
0.3878 0.9233 0.7603
0.5666 0.9151 0.7506
0.7408 0.9068 0.7408
0.8984 0.8984 0.7310
1.0000 0.8899 0.7211
0.0000 1.0000 0.7664
0.0000 1.0000 0.7568
0.0390 1.0000 0.7470
0.1850 1.0000 0.7372
0.3532 1.0000 0.7274
0.5315 1.0000 0.7175
0.7076 1.0000 0.7076
0.8694 1.0000 0.6976
1.0000 1.0000 0.6875
0.0000 0.0000 1.0000
0.1159 0.0000 1.0000
0.2756 0.0000 1.0000
0.4508 0.0000 1.0000
0.6294 0.0000 1.0000
0.7991 0.0000 1.0000
0.9479 0.0000 1.0000
1.0000 0.0000 1.0000
1.0000 0.0000 1.0000
0.0000 0.0957 1.0000
0.0874 0.0874 1.0000
0.2426 0.0791 1.0000
0.4158 0.0710 1.0000
0.5946 0.0629 1.0000
0.7671 0.0550 1.0000
0.9209 0.0472 1.0000
1.0000 0.0395 1.0000
1.0000 0.0319 1.0000
0.0000 0.2295 1.0000
0.0601 0.2199 1.0000
0.2104 0.2104 1.0000
0.3810 0.2009 1.0000
0.5597 0.1916 1.0000
0.7343 0.1823 1.0000
0.8928 0.1730 1.0000
1.0000 0.1639 1.0000
1.0000 0.1548 1.0000
0.0000 0.3772 1.0000
0.0340 0.3669 1.0000
0.1789 0.3567 1.0000
0.3465 0.3465 1.0000
0.5245 0.3363 1.0000
0.7009 0.3261 1.0000
0.8635 0.3160 1.0000
1.0000 0.3060 1.0000
1.0000 0.2960 0.9931
0.0000 0.5312 1.0000
0.0092 0.5207 1.0000
0.1483 0.5103 1.0000
0.3124 0.4998 1.0000
0.4893 0.4893 0.9976
0.6670 0.4789 0.9905
0.8333 0.4684 0.9833
0.9759 0.4580 0.9759
1.0000 0.4475 0.9685
0.0000 0.6836 1.0000
0.0000 0.6735 0.9950
0.1186 0.6633 0.9879
0.2788 0.6532 0.9806
0.4542 0.6429 0.9732
0.6327 0.6327 0.9657
0.8021 0.6224 0.9581
0.9504 0.6121 0.9504
1.0000 0.6018 0.9425
0.0000 0.8266 0.9779
0.0000 0.8174 0.9705
0.0901 0.8081 0.9630
0.2458 0.7987 0.9553
0.4191 0.7893 0.9475
0.5980 0.7798 0.9397
0.7702 0.7702 0.9317
0.9235 0.7605 0.9235
1.0000 0.7508 0.9153
0.0000 0.9525 0.9525
0.0000 0.9447 0.9447
0.0626 0.9368 0.9368
0.2134 0.9287 0.9287
0.3843 0.9206 0.9206
0.5630 0.9123 0.9123
0.7375 0.9040 0.9040
0.8955 0.8955 0.8955
1.0000 0.8870 0.8870
0.0000 1.0000 0.9258
0.0000 1.0000 0.9176
0.0364 1.0000 0.9093
0.1819 1.0000 0.9009
0.3498 1.0000 0.8924
0.5279 1.0000 0.8838
0.7042 1.0000 0.8751
0.8664 1.0000 0.8664
1.0000 1.0000 0.8575
0.0000 0.0000 1.0000
0.1129 0.0000 1.0000
0.2722 0.0000 1.0000
0.4473 0.0000 1.0000
0.6259 0.0000 1.0000
0.7959 0.0000 1.0000
0.9452 0.0000 1.0000
1.0000 0.0000 1.0000
1.0000 0.0000 1.0000
0.0000 0.0929 1.0000
0.0846 0.0846 1.0000
0.2393 0.0763 1.0000
0.4122 0.0682 1.0000
0.5911 0.0602 1.0000
0.7638 0.0524 1.0000
0.9181 0.0446 1.0000
1.0000 0.0369 1.0000
1.0000 0.0294 1.0000
0.0000 0.2262 1.0000
0.0574 0.2166 1.0000
0.2072 0.2072 1.0000
0.3775 0.1977 1.0000
0.5561 0.1884 1.0000
0.7310 0.1791 1.0000
0.8899 0.1699 1.0000
1.0000 0.1608 1.0000
1.0000 0.1518 1.0000
0.0000 0.3737 1.0000
0.0314 0.3634 1.0000
0.1758 0.3532 1.0000
0.3430 0.3430 1.0000
0.5210 0.3328 1.0000
0.6975 0.3227 1.0000
0.8605 0.3126 1.0000
0.9977 0.3026 1.0000
1.0000 0.2926 1.0000
0.0000 0.5276 1.0000
0.0068 0.5172 1.0000
0.1452 0.5067 1.0000
0.3090 0.4962 1.0000
0.4858 0.4858 1.0000
0.6636 0.4753 1.0000
0.8302 0.4649 1.0000
0.9734 0.4544 1.0000
1.0000 0.4440 1.0000
0.0000 0.6802 1.0000
0.0000 0.6700 1.0000
0.1157 0.6599 1.0000
0.2754 0.6497 1.0000
0.4506 0.6395 1.0000
0.6292 0.6292 1.0000
0.7989 0.6189 1.0000
0.9477 0.6086 1.0000
1.0000 0.5982 1.0000
0.0000 0.8235 1.0000
0.0000 0.8142 1.0000
0.0872 0.8049 1.0000
0.2425 0.7955 1.0000
0.4156 0.7860 1.0000
0.5945 0.7765 1.0000
0.7669 0.7669 1.0000
0.9208 0.7572 1.0000
1.0000 0.7475 1.0000
0.0000 0.9499 1.0000
0.0000 0.9420 1.0000
0.0599 0.9340 1.0000
0.2102 0.9260 1.0000
0.3808 0.9178 1.0000
0.5595 0.9095 1.0000
0.7342 0.9011 1.0000
0.8926 0.8926 1.0000
1.0000 0.8840 1.0000
0.0000 1.0000 1.0000
0.0000 1.0000 1.0000
0.0338 1.0000 1.0000
0.1787 1.0000 1.0000
0.3463 1.0000 1.0000
0.5244 1.0000 1.0000
0.7008 1.0000 1.0000
0.8634 1.0000 1.0000
1.0000 1.0000 1.0000
