android/app/src/main/assets/luts/warm@1.cube
# Editor for Immich, warm@1 (tool/make_luts.py)
LUT_3D_SIZE 17
0.0000 0.0000 0.0000
0.0673 0.0000 0.0000
0.1323 0.0000 0.0000
0.1973 0.0000 0.0000
0.2624 0.0000 0.0000
0.3274 0.0000 0.0000
0.3924 0.0000 0.0000
0.4575 0.0000 0.0000
0.5225 0.0000 0.0000
0.5875 0.0000 0.0000
0.6525 0.0000 0.0000
0.7176 0.0000 0.0000
0.7826 0.0000 0.0000
0.8476 0.0000 0.0000
0.9127 0.0000 0.0000
0.9777 0.0000 0.0000
1.0000 0.0000 0.0000
0.0000 0.0625 0.0000
0.0673 0.0625 0.0000
0.1323 0.0625 0.0000
0.1973 0.0625 0.0000
0.2624 0.0625 0.0000
0.3274 0.0625 0.0000
0.3924 0.0625 0.0000
0.4575 0.0625 0.0000
0.5225 0.0625 0.0000
0.5875 0.0625 0.0000
0.6525 0.0625 0.0000
0.7176 0.0625 0.0000
0.7826 0.0625 0.0000
0.8476 0.0625 0.0000
0.9127 0.0625 0.0000
0.9777 0.0625 0.0000
1.0000 0.0625 0.0000
0.0000 0.1250 0.0000
0.0673 0.1250 0.0000
0.1323 0.1250 0.0000
0.1973 0.1250 0.0000
0.2624 0.1250 0.0000
0.3274 0.1250 0.0000
0.3924 0.1250 0.0000
0.4575 0.1250 0.0000
0.5225 0.1250 0.0000
0.5875 0.1250 0.0000
0.6525 0.1250 0.0000
0.7176 0.1250 0.0000
0.7826 0.1250 0.0000
0.8476 0.1250 0.0000
0.9127 0.1250 0.0000
0.9777 0.1250 0.0000
1.0000 0.1250 0.0000
0.0000 0.1875 0.0000
0.0673 0.1875 0.0000
0.1323 0.1875 0.0000
0.1973 0.1875 0.0000
0.2624 0.1875 0.0000
0.3274 0.1875 0.0000
0.3924 0.1875 0.0000
0.4575 0.1875 0.0000
0.5225 0.1875 0.0000
0.5875 0.1875 0.0000
0.6525 0.1875 0.0000
0.7176 0.1875 0.0000
0.7826 0.1875 0.0000
0.8476 0.1875 0.0000
0.9127 0.1875 0.0000
0.9777 0.1875 0.0000
1.0000 0.1875 0.0000
0.0000 0.2500 0.0000
0.0673 0.2500 0.0000
0.1323 0.2500 0.0000
0.1973 0.2500 0.0000
0.2624 0.2500 0.0000
0.3274 0.2500 0.0000
0.3924 0.2500 0.0000
0.4575 0.2500 0.0000
0.5225 0.2500 0.0000
0.5875 0.2500 0.0000
0.6525 0.2500 0.0000
0.7176 0.2500 0.0000
0.7826 0.2500 0.0000
0.8476 0.2500 0.0000
0.9127 0.2500 0.0000
0.9777 0.2500 0.0000
1.0000 0.2500 0.0000
0.0000 0.3125 0.0000
0.0673 0.3125 0.0000
0.1323 0.3125 0.0000
0.1973 0.3125 0.0000
0.2624 0.3125 0.0000
0.3274 0.3125 0.0000
0.3924 0.3125 0.0000
0.4575 0.3125 0.0000
0.5225 0.3125 0.0000
0.5875 0.3125 0.0000
0.6525 0.3125 0.0000
0.7176 0.3125 0.0000
0.7826 0.3125 0.0000
0.8476 0.3125 0.0000
0.9127 0.3125 0.0000
0.9777 0.3125 0.0000
1.0000 0.3125 0.0000
0.0000 0.3750 0.0000
0.0673 0.3750 0.0000
0.1323 0.3750 0.0000
0.1973 0.3750 0.0000
0.2624 0.3750 0.0000
0.3274 0.3750 0.0000
0.3924 0.3750 0.0000
0.4575 0.3750 0.0000
0.5225 0.3750 0.0000
0.5875 0.3750 0.0000
0.6525 0.3750 0.0000
0.7176 0.3750 0.0000
0.7826 0.3750 0.0000
0.8476 0.3750 0.0000
0.9127 0.3750 0.0000
0.9777 0.3750 0.0000
1.0000 0.3750 0.0000
0.0000 0.4375 0.0000
0.0673 0.4375 0.0000
0.1323 0.4375 0.0000
0.1973 0.4375 0.0000
0.2624 0.4375 0.0000
0.3274 0.4375 0.0000
0.3924 0.4375 0.0000
0.4575 0.4375 0.0000
0.5225 0.4375 0.0000
0.5875 0.4375 0.0000
0.6525 0.4375 0.0000
0.7176 0.4375 0.0000
0.7826 0.4375 0.0000
0.8476 0.4375 0.0000
0.9127 0.4375 0.0000
0.9777 0.4375 0.0000
1.0000 0.4375 0.0000
0.0000 0.5000 0.0000
0.0673 0.5000 0.0000
0.1323 0.5000 0.0000
0.1973 0.5000 0.0000
0.2624 0.5000 0.0000
0.3274 0.5000 0.0000
0.3924 0.5000 0.0000
0.4575 0.5000 0.0000
0.5225 0.5000 0.0000
0.5875 0.5000 0.0000
0.6525 0.5000 0.0000
0.7176 0.5000 0.0000
0.7826 0.5000 0.0000
0.8476 0.5000 0.0000
0.9127 0.5000 0.0000
0.9777 0.5000 0.0000
1.0000 0.5000 0.0000
0.0000 0.5625 0.0000
0.0673 0.5625 0.0000
0.1323 0.5625 0.0000
0.1973 0.5625 0.0000
0.2624 0.5625 0.0000
0.3274 0.5625 0.0000
0.3924 0.5625 0.0000
0.4575 0.5625 0.0000
0.5225 0.5625 0.0000
0.5875 0.5625 0.0000
0.6525 0.5625 0.0000
0.7176 0.5625 0.0000
0.7826 0.5625 0.0000
0.8476 0.5625 0.0000
0.9127 0.5625 0.0000
0.9777 0.5625 0.0000
1.0000 0.5625 0.0000
0.0000 0.6250 0.0000
0.0673 0.6250 0.0000
0.1323 0.6250 0.0000
0.1973 0.6250 0.0000
0.2624 0.6250 0.0000
0.3274 0.6250 0.0000
0.3924 0.6250 0.0000
0.4575 0.6250 0.0000
0.5225 0.6250 0.0000
0.5875 0.6250 0.0000
0.6525 0.6250 0.0000
0.7176 0.6250 0.0000
0.7826 0.6250 0.0000
0.8476 0.6250 0.0000
0.9127 0.6250 0.0000
0.9777 0.6250 0.0000
1.0000 0.6250 0.0000
0.0000 0.6875 0.0000
0.0673 0.6875 0.0000
0.1323 0.6875 0.0000
0.1973 0.6875 0.0000
0.2624 0.6875 0.0000
0.3274 0.6875 0.0000
0.3924 0.6875 0.0000
0.4575 0.6875 0.0000
0.5225 0.6875 0.0000
0.5875 0.6875 0.0000
0.6525 0.6875 0.0000
0.7176 0.6875 0.0000
0.7826 0.6875 0.0000
0.8476 0.6875 0.0000
0.9127 0.6875 0.0000
0.9777 0.6875 0.0000
1.0000 0.6875 0.0000
0.0000 0.7500 0.0000
0.0673 0.7500 0.0000
0.1323 0.7500 0.0000
0.1973 0.7500 0.0000
0.2624 0.7500 0.0000
0.3274 0.7500 0.0000
0.3924 0.7500 0.0000
0.4575 0.7500 0.0000
0.5225 0.7500 0.0000
0.5875 0.7500 0.0000
0.6525 0.7500 0.0000
0.7176 0.7500 0.0000
0.7826 0.7500 0.0000
0.8476 0.7500 0.0000
0.9127 0.7500 0.0000
0.9777 0.7500 0.0000
1.0000 0.7500 0.0000
0.0000 0.8125 0.0000
0.0673 0.8125 0.0000
0.1323 0.8125 0.0000
0.1973 0.8125 0.0000
0.2624 0.8125 0.0000
0.3274 0.8125 0.0000
0.3924 0.8125 0.0000
0.4575 0.8125 0.0000
0.5225 0.8125 0.0000
0.5875 0.8125 0.0000
0.6525 0.8125 0.0000
0.7176 0.8125 0.0000
0.7826 0.8125 0.0000
0.8476 0.8125 0.0000
0.9127 0.8125 0.0000
0.9777 0.8125 0.0000
1.0000 0.8125 0.0000
0.0000 0.8750 0.0000
0.0673 0.8750 0.0000
0.1323 0.8750 0.0000
0.1973 0.8750 0.0000
0.2624 0.8750 0.0000
0.3274 0.8750 0.0000
0.3924 0.8750 0.0000
0.4575 0.8750 0.0000
0.5225 0.8750 0.0000
0.5875 0.8750 0.0000
0.6525 0.8750 0.0000
0.7176 0.8750 0.0000
0.7826 0.8750 0.0000
0.8476 0.8750 0.0000
0.9127 0.8750 0.0000
0.9777 0.8750 0.0000
1.0000 0.8750 0.0000
0.0000 0.9375 0.0000
0.0673 0.9375 0.0000
0.1323 0.9375 0.0000
0.1973 0.9375 0.0000
0.2624 0.9375 0.0000
0.3274 0.9375 0.0000
0.3924 0.9375 0.0000
0.4575 0.9375 0.0000
0.5225 0.9375 0.0000
0.5875 0.9375 0.0000
0.6525 0.9375 0.0000
0.7176 0.9375 0.0000
0.7826 0.9375 0.0000
0.8476 0.9375 0.0000
0.9127 0.9375 0.0000
0.9777 0.9375 0.0000
1.0000 0.9375 0.0000
0.0000 1.0000 0.0000
0.0673 1.0000 0.0000
0.1323 1.0000 0.0000
0.1973 1.0000 0.0000
0.2624 1.0000 0.0000
0.3274 1.0000 0.0000
0.3924 1.0000 0.0000
0.4575 1.0000 0.0000
0.5225 1.0000 0.0000
0.5875 1.0000 0.0000
0.6525 1.0000 0.0000
0.7176 1.0000 0.0000
0.7826 1.0000 0.0000
0.8476 1.0000 0.0000
0.9127 1.0000 0.0000
0.9777 1.0000 0.0000
1.0000 1.0000 0.0000
0.0000 0.0000 0.0564
0.0673 0.0000 0.0564
0.1323 0.0000 0.0564
0.1973 0.0000 0.0564
0.2624 0.0000 0.0564
0.3274 0.0000 0.0564
0.3924 0.0000 0.0564
0.4575 0.0000 0.0564
0.5225 0.0000 0.0564
0.5875 0.0000 0.0564
0.6525 0.0000 0.0564
0.7176 0.0000 0.0564
0.7826 0.0000 0.0564
0.8476 0.0000 0.0564
0.9127 0.0000 0.0564
0.9777 0.0000 0.0564
1.0000 0.0000 0.0564
0.0000 0.0625 0.0564
0.0673 0.0625 0.0564
0.1323 0.0625 0.0564
0.1973 0.0625 0.0564
0.2624 0.0625 0.0564
0.3274 0.0625 0.0564
0.3924 0.0625 0.0564
0.4575 0.0625 0.0564
0.5225 0.0625 0.0564
0.5875 0.0625 0.0564
0.6525 0.0625 0.0564
0.7176 0.0625 0.0564
0.7826 0.0625 0.0564
0.8476 0.0625 0.0564
0.9127 0.0625 0.0564
0.9777 0.0625 0.0564
1.0000 0.0625 0.0564
0.0000 0.1250 0.0564
0.0673 0.1250 0.0564
0.1323 0.1250 0.0564
0.1973 0.1250 0.0564
0.2624 0.1250 0.0564
0.3274 0.1250 0.0564
0.3924 0.1250 0.0564
0.4575 0.1250 0.0564
0.5225 0.1250 0.0564
0.5875 0.1250 0.0564
0.6525 0.1250 0.0564
0.7176 0.1250 0.0564
0.7826 0.1250 0.0564
0.8476 0.1250 0.0564
0.9127 0.1250 0.0564
0.9777 0.1250 0.0564
1.0000 0.1250 0.0564
0.0000 0.1875 0.0564
0.0673 0.1875 0.0564
0.1323 0.1875 0.0564
0.1973 0.1875 0.0564
0.2624 0.1875 0.0564
0.3274 0.1875 0.0564
0.3924 0.1875 0.0564
0.4575 0.1875 0.0564
0.5225 0.1875 0.0564
0.5875 0.1875 0.0564
0.6525 0.1875 0.0564
0.7176 0.1875 0.0564
0.7826 0.1875 0.0564
0.8476 0.1875 0.0564
0.9127 0.1875 0.0564
0.9777 0.1875 0.0564
1.0000 0.1875 0.0564
0.0000 0.2500 0.0564
0.0673 0.2500 0.0564
0.1323 0.2500 0.0564
0.1973 0.2500 0.0564
0.2624 0.2500 0.0564
0.3274 0.2500 0.0564
0.3924 0.2500 0.0564
0.4575 0.2500 0.0564
0.5225 0.2500 0.0564
0.5875 0.2500 0.0564
0.6525 0.2500 0.0564
0.7176 0.2500 0.0564
0.7826 0.2500 0.0564
0.8476 0.2500 0.0564
0.9127 0.2500 0.0564
0.9777 0.2500 0.0564
1.0000 0.2500 0.0564
0.0000 0.3125 0.0564
0.0673 0.3125 0.0564
0.1323 0.3125 0.0564
0.1973 0.3125 0.0564
0.2624 0.3125 0.0564
0.3274 0.3125 0.0564
0.3924 0.3125 0.0564
0.4575 0.3125 0.0564
0.5225 0.3125 0.0564
0.5875 0.3125 0.0564
0.6525 0.3125 0.0564
0.7176 0.3125 0.0564
0.7826 0.3125 0.0564
0.8476 0.3125 0.0564
0.9127 0.3125 0.0564
0.9777 0.3125 0.0564
1.0000 0.3125 0.0564
0.0000 0.3750 0.0564
0.0673 0.3750 0.0564
0.1323 0.3750 0.0564
0.1973 0.3750 0.0564
0.2624 0.3750 0.0564
0.3274 0.3750 0.0564
0.3924 0.3750 0.0564
0.4575 0.3750 0.0564
0.5225 0.3750 0.0564
0.5875 0.3750 0.0564
0.6525 0.3750 0.0564
0.7176 0.3750 0.0564
0.7826 0.3750 0.0564
0.8476 0.3750 0.0564
0.9127 0.3750 0.0564
0.9777 0.3750 0.0564
1.0000 0.3750 0.0564
0.0000 0.4375 0.0564
0.0673 0.4375 0.0564
0.1323 0.4375 0.0564
0.1973 0.4375 0.0564
0.2624 0.4375 0.0564
0.3274 0.4375 0.0564
0.3924 0.4375 0.0564
0.4575 0.4375 0.0564
0.5225 0.4375 0.0564
0.5875 0.4375 0.0564
0.6525 0.4375 0.0564
0.7176 0.4375 0.0564
0.7826 0.4375 0.0564
0.8476 0.4375 0.0564
0.9127 0.4375 0.0564
0.9777 0.4375 0.0564
1.0000 0.4375 0.0564
0.0000 0.5000 0.0564
0.0673 0.5000 0.0564
0.1323 0.5000 0.0564
0.1973 0.5000 0.0564
0.2624 0.5000 0.0564
0.3274 0.5000 0.0564
0.3924 0.5000 0.0564
0.4575 0.5000 0.0564
0.5225 0.5000 0.0564
0.5875 0.5000 0.0564
0.6525 0.5000 0.0564
0.7176 0.5000 0.0564
0.7826 0.5000 0.0564
0.8476 0.5000 0.0564
0.9127 0.5000 0.0564
0.9777 0.5000 0.0564
1.0000 0.5000 0.0564
0.0000 0.5625 0.0564
0.0673 0.5625 0.0564
0.1323 0.5625 0.0564
0.1973 0.5625 0.0564
0.2624 0.5625 0.0564
0.3274 0.5625 0.0564
0.3924 0.5625 0.0564
0.4575 0.5625 0.0564
0.5225 0.5625 0.0564
0.5875 0.5625 0.0564
0.6525 0.5625 0.0564
0.7176 0.5625 0.0564
0.7826 0.5625 0.0564
0.8476 0.5625 0.0564
0.9127 0.5625 0.0564
0.9777 0.5625 0.0564
1.0000 0.5625 0.0564
0.0000 0.6250 0.0564
0.0673 0.6250 0.0564
0.1323 0.6250 0.0564
0.1973 0.6250 0.0564
0.2624 0.6250 0.0564
0.3274 0.6250 0.0564
0.3924 0.6250 0.0564
0.4575 0.6250 0.0564
0.5225 0.6250 0.0564
0.5875 0.6250 0.0564
0.6525 0.6250 0.0564
0.7176 0.6250 0.0564
0.7826 0.6250 0.0564
0.8476 0.6250 0.0564
0.9127 0.6250 0.0564
0.9777 0.6250 0.0564
1.0000 0.6250 0.0564
0.0000 0.6875 0.0564
0.0673 0.6875 0.0564
0.1323 0.6875 0.0564
0.1973 0.6875 0.0564
0.2624 0.6875 0.0564
0.3274 0.6875 0.0564
0.3924 0.6875 0.0564
0.4575 0.6875 0.0564
0.5225 0.6875 0.0564
0.5875 0.6875 0.0564
0.6525 0.6875 0.0564
0.7176 0.6875 0.0564
0.7826 0.6875 0.0564
0.8476 0.6875 0.0564
0.9127 0.6875 0.0564
0.9777 0.6875 0.0564
1.0000 0.6875 0.0564
0.0000 0.7500 0.0564
0.0673 0.7500 0.0564
0.1323 0.7500 0.0564
0.1973 0.7500 0.0564
0.2624 0.7500 0.0564
0.3274 0.7500 0.0564
0.3924 0.7500 0.0564
0.4575 0.7500 0.0564
0.5225 0.7500 0.0564
0.5875 0.7500 0.0564
0.6525 0.7500 0.0564
0.7176 0.7500 0.0564
0.7826 0.7500 0.0564
0.8476 0.7500 0.0564
0.9127 0.7500 0.0564
0.9777 0.7500 0.0564
1.0000 0.7500 0.0564
0.0000 0.8125 0.0564
0.0673 0.8125 0.0564
0.1323 0.8125 0.0564
0.1973 0.8125 0.0564
0.2624 0.8125 0.0564
0.3274 0.8125 0.0564
0.3924 0.8125 0.0564
0.4575 0.8125 0.0564
0.5225 0.8125 0.0564
0.5875 0.8125 0.0564
0.6525 0.8125 0.0564
0.7176 0.8125 0.0564
0.7826 0.8125 0.0564
0.8476 0.8125 0.0564
0.9127 0.8125 0.0564
0.9777 0.8125 0.0564
1.0000 0.8125 0.0564
0.0000 0.8750 0.0564
0.0673 0.8750 0.0564
0.1323 0.8750 0.0564
0.1973 0.8750 0.0564
0.2624 0.8750 0.0564
0.3274 0.8750 0.0564
0.3924 0.8750 0.0564
0.4575 0.8750 0.0564
0.5225 0.8750 0.0564
0.5875 0.8750 0.0564
0.6525 0.8750 0.0564
0.7176 0.8750 0.0564
0.7826 0.8750 0.0564
0.8476 0.8750 0.0564
0.9127 0.8750 0.0564
0.9777 0.8750 0.0564
1.0000 0.8750 0.0564
0.0000 0.9375 0.0564
0.0673 0.9375 0.0564
0.1323 0.9375 0.0564
0.1973 0.9375 0.0564
0.2624 0.9375 0.0564
0.3274 0.9375 0.0564
0.3924 0.9375 0.0564
0.4575 0.9375 0.0564
0.5225 0.9375 0.0564
0.5875 0.9375 0.0564
0.6525 0.9375 0.0564
0.7176 0.9375 0.0564
0.7826 0.9375 0.0564
0.8476 0.9375 0.0564
0.9127 0.9375 0.0564
0.9777 0.9375 0.0564
1.0000 0.9375 0.0564
0.0000 1.0000 0.0564
0.0673 1.0000 0.0564
0.1323 1.0000 0.0564
0.1973 1.0000 0.0564
0.2624 1.0000 0.0564
0.3274 1.0000 0.0564
0.3924 1.0000 0.0564
0.4575 1.0000 0.0564
0.5225 1.0000 0.0564
0.5875 1.0000 0.0564
0.6525 1.0000 0.0564
0.7176 1.0000 0.0564
0.7826 1.0000 0.0564
0.8476 1.0000 0.0564
0.9127 1.0000 0.0564
0.9777 1.0000 0.0564
1.0000 1.0000 0.0564
0.0000 0.0000 0.1157
0.0673 0.0000 0.1157
0.1323 0.0000 0.1157
0.1973 0.0000 0.1157
0.2624 0.0000 0.1157
0.3274 0.0000 0.1157
0.3924 0.0000 0.1157
0.4575 0.0000 0.1157
0.5225 0.0000 0.1157
0.5875 0.0000 0.1157
0.6525 0.0000 0.1157
0.7176 0.0000 0.1157
0.7826 0.0000 0.1157
0.8476 0.0000 0.1157
0.9127 0.0000 0.1157
0.9777 0.0000 0.1157
1.0000 0.0000 0.1157
0.0000 0.0625 0.1157
0.0673 0.0625 0.1157
0.1323 0.0625 0.1157
0.1973 0.0625 0.1157
0.2624 0.0625 0.1157
0.3274 0.0625 0.1157
0.3924 0.0625 0.1157
0.4575 0.0625 0.1157
0.5225 0.0625 0.1157
0.5875 0.0625 0.1157
0.6525 0.0625 0.1157
0.7176 0.0625 0.1157
0.7826 0.0625 0.1157
0.8476 0.0625 0.1157
0.9127 0.0625 0.1157
0.9777 0.0625 0.1157
1.0000 0.0625 0.1157
0.0000 0.1250 0.1157
0.0673 0.1250 0.1157
0.1323 0.1250 0.1157
0.1973 0.1250 0.1157
0.2624 0.1250 0.1157
0.3274 0.1250 0.1157
0.3924 0.1250 0.1157
0.4575 0.1250 0.1157
0.5225 0.1250 0.1157
0.5875 0.1250 0.1157
0.6525 0.1250 0.1157
0.7176 0.1250 0.1157
0.7826 0.1250 0.1157
0.8476 0.1250 0.1157
0.9127 0.1250 0.1157
0.9777 0.1250 0.1157
1.0000 0.1250 0.1157
0.0000 0.1875 0.1157
0.0673 0.1875 0.1157
0.1323 0.1875 0.1157
0.1973 0.1875 0.1157
0.2624 0.1875 0.1157
0.3274 0.1875 0.1157
0.3924 0.1875 0.1157
0.4575 0.1875 0.1157
0.5225 0.1875 0.1157
0.5875 0.1875 0.1157
0.6525 0.1875 0.1157
0.7176 0.1875 0.1157
0.7826 0.1875 0.1157
0.8476 0.1875 0.1157
0.9127 0.1875 0.1157
0.9777 0.1875 0.1157
1.0000 0.1875 0.1157
0.0000 0.2500 0.1157
0.0673 0.2500 0.1157
0.1323 0.2500 0.1157
0.1973 0.2500 0.1157
0.2624 0.2500 0.1157
0.3274 0.2500 0.1157
0.3924 0.2500 0.1157
0.4575 0.2500 0.1157
0.5225 0.2500 0.1157
0.5875 0.2500 0.1157
0.6525 0.2500 0.1157
0.7176 0.2500 0.1157
0.7826 0.2500 0.1157
0.8476 0.2500 0.1157
0.9127 0.2500 0.1157
0.9777 0.2500 0.1157
1.0000 0.2500 0.1157
0.0000 0.3125 0.1157
0.0673 0.3125 0.1157
0.1323 0.3125 0.1157
0.1973 0.3125 0.1157
0.2624 0.3125 0.1157
0.3274 0.3125 0.1157
0.3924 0.3125 0.1157
0.4575 0.3125 0.1157
0.5225 0.3125 0.1157
0.5875 0.3125 0.1157
0.6525 0.3125 0.1157
0.7176 0.3125 0.1157
0.7826 0.3125 0.1157
0.8476 0.3125 0.1157
0.9127 0.3125 0.1157
0.9777 0.3125 0.1157
1.0000 0.3125 0.1157
0.0000 0.3750 0.1157
0.0673 0.3750 0.1157
0.1323 0.3750 0.1157
0.1973 0.3750 0.1157
0.2624 0.3750 0.1157
0.3274 0.3750 0.1157
0.3924 0.3750 0.1157
0.4575 0.3750 0.1157
0.5225 0.3750 0.1157
0.5875 0.3750 0.1157
0.6525 0.3750 0.1157
0.7176 0.3750 0.1157
0.7826 0.3750 0.1157
0.8476 0.3750 0.1157
0.9127 0.3750 0.1157
0.9777 0.3750 0.1157
1.0000 0.3750 0.1157
0.0000 0.4375 0.1157
0.0673 0.4375 0.1157
0.1323 0.4375 0.1157
0.1973 0.4375 0.1157
0.2624 0.4375 0.1157
0.3274 0.4375 0.1157
0.3924 0.4375 0.1157
0.4575 0.4375 0.1157
0.5225 0.4375 0.1157
0.5875 0.4375 0.1157
0.6525 0.4375 0.1157
0.7176 0.4375 0.1157
0.7826 0.4375 0.1157
0.8476 0.4375 0.1157
0.9127 0.4375 0.1157
0.9777 0.4375 0.1157
1.0000 0.4375 0.1157
0.0000 0.5000 0.1157
0.0673 0.5000 0.1157
0.1323 0.5000 0.1157
0.1973 0.5000 0.1157
0.2624 0.5000 0.1157
0.3274 0.5000 0.1157
0.3924 0.5000 0.1157
0.4575 0.5000 0.1157
0.5225 0.5000 0.1157
0.5875 0.5000 0.1157
0.6525 0.5000 0.1157
0.7176 0.5000 0.1157
0.7826 0.5000 0.1157
0.8476 0.5000 0.1157
0.9127 0.5000 0.1157
0.9777 0.5000 0.1157
1.0000 0.5000 0.1157
0.0000 0.5625 0.1157
0.0673 0.5625 0.1157
0.1323 0.5625 0.1157
0.1973 0.5625 0.1157
0.2624 0.5625 0.1157
0.3274 0.5625 0.1157
0.3924 0.5625 0.1157
0.4575 0.5625 0.1157
0.5225 0.5625 0.1157
0.5875 0.5625 0.1157
0.6525 0.5625 0.1157
0.7176 0.5625 0.1157
0.7826 0.5625 0.1157
0.8476 0.5625 0.1157
0.9127 0.5625 0.1157
0.9777 0.5625 0.1157
1.0000 0.5625 0.1157
0.0000 0.6250 0.1157
0.0673 0.6250 0.1157
0.1323 0.6250 0.1157
0.1973 0.6250 0.1157
0.2624 0.6250 0.1157
0.3274 0.6250 0.1157
0.3924 0.6250 0.1157
0.4575 0.6250 0.1157
0.5225 0.6250 0.1157
0.5875 0.6250 0.1157
0.6525 0.6250 0.1157
0.7176 0.6250 0.1157
0.7826 0.6250 0.1157
0.8476 0.6250 0.1157
0.9127 0.6250 0.1157
0.9777 0.6250 0.1157
1.0000 0.6250 0.1157
0.0000 0.6875 0.1157
0.0673 0.6875 0.1157
0.1323 0.6875 0.1157
0.1973 0.6875 0.1157
0.2624 0.6875 0.1157
0.3274 0.6875 0.1157
0.3924 0.6875 0.1157
0.4575 0.6875 0.1157
0.5225 0.6875 0.1157
0.5875 0.6875 0.1157
0.6525 0.6875 0.1157
0.7176 0.6875 0.1157
0.7826 0.6875 0.1157
0.8476 0.6875 0.1157
0.9127 0.6875 0.1157
0.9777 0.6875 0.1157
1.0000 0.6875 0.1157
0.0000 0.7500 0.1157
0.0673 0.7500 0.1157
0.1323 0.7500 0.1157
0.1973 0.7500 0.1157
0.2624 0.7500 0.1157
0.3274 0.7500 0.1157
0.3924 0.7500 0.1157
0.4575 0.7500 0.1157
0.5225 0.7500 0.1157
0.5875 0.7500 0.1157
0.6525 0.7500 0.1157
0.7176 0.7500 0.1157
0.7826 0.7500 0.1157
0.8476 0.7500 0.1157
0.9127 0.7500 0.1157
0.9777 0.7500 0.1157
1.0000 0.7500 0.1157
0.0000 0.8125 0.1157
0.0673 0.8125 0.1157
0.1323 0.8125 0.1157
0.1973 0.8125 0.1157
0.2624 0.8125 0.1157
0.3274 0.8125 0.1157
0.3924 0.8125 0.1157
0.4575 0.8125 0.1157
0.5225 0.8125 0.1157
0.5875 0.8125 0.1157
0.6525 0.8125 0.1157
0.7176 0.8125 0.1157
0.7826 0.8125 0.1157
0.8476 0.8125 0.1157
0.9127 0.8125 0.1157
0.9777 0.8125 0.1157
1.0000 0.8125 0.1157
0.0000 0.8750 0.1157
0.0673 0.8750 0.1157
0.1323 0.8750 0.1157
0.1973 0.8750 0.1157
0.2624 0.8750 0.1157
0.3274 0.8750 0.1157
0.3924 0.8750 0.1157
0.4575 0.8750 0.1157
0.5225 0.8750 0.1157
0.5875 0.8750 0.1157
0.6525 0.8750 0.1157
0.7176 0.8750 0.1157
0.7826 0.8750 0.1157
0.8476 0.8750 0.1157
0.9127 0.8750 0.1157
0.9777 0.8750 0.1157
1.0000 0.8750 0.1157
0.0000 0.9375 0.1157
0.0673 0.9375 0.1157
0.1323 0.9375 0.1157
0.1973 0.9375 0.1157
0.2624 0.9375 0.1157
0.3274 0.9375 0.1157
0.3924 0.9375 0.1157
0.4575 0.9375 0.1157
0.5225 0.9375 0.1157
0.5875 0.9375 0.1157
0.6525 0.9375 0.1157
0.7176 0.9375 0.1157
0.7826 0.9375 0.1157
0.8476 0.9375 0.1157
0.9127 0.9375 0.1157
0.9777 0.9375 0.1157
1.0000 0.9375 0.1157
0.0000 1.0000 0.1157
0.0673 1.0000 0.1157
0.1323 1.0000 0.1157
0.1973 1.0000 0.1157
0.2624 1.0000 0.1157
0.3274 1.0000 0.1157
0.3924 1.0000 0.1157
0.4575 1.0000 0.1157
0.5225 1.0000 0.1157
0.5875 1.0000 0.1157
0.6525 1.0000 0.1157
0.7176 1.0000 0.1157
0.7826 1.0000 0.1157
0.8476 1.0000 0.1157
0.9127 1.0000 0.1157
0.9777 1.0000 0.1157
1.0000 1.0000 0.1157
0.0000 0.0000 0.1749
0.0673 0.0000 0.1749
0.1323 0.0000 0.1749
0.1973 0.0000 0.1749
0.2624 0.0000 0.1749
0.3274 0.0000 0.1749
0.3924 0.0000 0.1749
0.4575 0.0000 0.1749
0.5225 0.0000 0.1749
0.5875 0.0000 0.1749
0.6525 0.0000 0.1749
0.7176 0.0000 0.1749
0.7826 0.0000 0.1749
0.8476 0.0000 0.1749
0.9127 0.0000 0.1749
0.9777 0.0000 0.1749
1.0000 0.0000 0.1749
0.0000 0.0625 0.1749
0.0673 0.0625 0.1749
0.1323 0.0625 0.1749
0.1973 0.0625 0.1749
0.2624 0.0625 0.1749
0.3274 0.0625 0.1749
0.3924 0.0625 0.1749
0.4575 0.0625 0.1749
0.5225 0.0625 0.1749
0.5875 0.0625 0.1749
0.6525 0.0625 0.1749
0.7176 0.0625 0.1749
0.7826 0.0625 0.1749
0.8476 0.0625 0.1749
0.9127 0.0625 0.1749
0.9777 0.0625 0.1749
