android/app/src/main/assets/luts/warm@1.cube
# Editor for Immich, warm@1 (tool/make_luts.py)
LUT_3D_SIZE 5
0.0000 0.0000 0.0000
0.2624 0.0000 0.0000
0.5225 0.0000 0.0000
0.7826 0.0000 0.0000
1.0000 0.0000 0.0000
0.0000 0.2500 0.0000
0.2624 0.2500 0.0000
0.5225 0.2500 0.0000
0.7826 0.2500 0.0000
1.0000 0.2500 0.0000
0.0000 0.5000 0.0000
0.2624 0.5000 0.0000
0.5225 0.5000 0.0000
0.7826 0.5000 0.0000
1.0000 0.5000 0.0000
0.0000 0.7500 0.0000
0.2624 0.7500 0.0000
0.5225 0.7500 0.0000
0.7826 0.7500 0.0000
1.0000 0.7500 0.0000
0.0000 1.0000 0.0000
0.2624 1.0000 0.0000
0.5225 1.0000 0.0000
0.7826 1.0000 0.0000
1.0000 1.0000 0.0000
0.0000 0.0000 0.2342
0.2624 0.0000 0.2342
0.5225 0.0000 0.2342
0.7826 0.0000 0.2342
1.0000 0.0000 0.2342
0.0000 0.2500 0.2342
0.2624 0.2500 0.2342
0.5225 0.2500 0.2342
0.7826 0.2500 0.2342
1.0000 0.2500 0.2342
0.0000 0.5000 0.2342
0.2624 0.5000 0.2342
0.5225 0.5000 0.2342
0.7826 0.5000 0.2342
1.0000 0.5000 0.2342
0.0000 0.7500 0.2342
0.2624 0.7500 0.2342
0.5225 0.7500 0.2342
0.7826 0.7500 0.2342
1.0000 0.7500 0.2342
0.0000 1.0000 0.2342
0.2624 1.0000 0.2342
0.5225 1.0000 0.2342
0.7826 1.0000 0.2342
1.0000 1.0000 0.2342
0.0000 0.0000 0.4712
0.2624 0.0000 0.4712
0.5225 0.0000 0.4712
0.7826 0.0000 0.4712
1.0000 0.0000 0.4712
0.0000 0.2500 0.4712
0.2624 0.2500 0.4712
0.5225 0.2500 0.4712
0.7826 0.2500 0.4712
1.0000 0.2500 0.4712
0.0000 0.5000 0.4712
0.2624 0.5000 0.4712
0.5225 0.5000 0.4712
0.7826 0.5000 0.4712
1.0000 0.5000 0.4712
0.0000 0.7500 0.4712
0.2624 0.7500 0.4712
0.5225 0.7500 0.4712
0.7826 0.7500 0.4712
1.0000 0.7500 0.4712
0.0000 1.0000 0.4712
0.2624 1.0000 0.4712
0.5225 1.0000 0.4712
0.7826 1.0000 0.4712
1.0000 1.0000 0.4712
0.0000 0.0000 0.7082
0.2624 0.0000 0.7082
0.5225 0.0000 0.7082
0.7826 0.0000 0.7082
1.0000 0.0000 0.7082
0.0000 0.2500 0.7082
0.2624 0.2500 0.7082
0.5225 0.2500 0.7082
0.7826 0.2500 0.7082
1.0000 0.2500 0.7082
0.0000 0.5000 0.7082
0.2624 0.5000 0.7082
0.5225 0.5000 0.7082
0.7826 0.5000 0.7082
1.0000 0.5000 0.7082
0.0000 0.7500 0.7082
0.2624 0.7500 0.7082
0.5225 0.7500 0.7082
0.7826 0.7500 0.7082
1.0000 0.7500 0.7082
0.0000 1.0000 0.7082
0.2624 1.0000 0.7082
0.5225 1.0000 0.7082
0.7826 1.0000 0.7082
1.0000 1.0000 0.7082
0.0000 0.0000 0.9453
0.2624 0.0000 0.9453
0.5225 0.0000 0.9453
0.7826 0.0000 0.9453
1.0000 0.0000 0.9453
0.0000 0.2500 0.9453
0.2624 0.2500 0.9453
0.5225 0.2500 0.9453
0.7826 0.2500 0.9453
1.0000 0.2500 0.9453
0.0000 0.5000 0.9453
0.2624 0.5000 0.9453
0.5225 0.5000 0.9453
0.7826 0.5000 0.9453
1.0000 0.5000 0.9453
0.0000 0.7500 0.9453
0.2624 0.7500 0.9453
0.5225 0.7500 0.9453
0.7826 0.7500 0.9453
1.0000 0.7500 0.9453
0.0000 1.0000 0.9453
0.2624 1.0000 0.9453
0.5225 1.0000 0.9453
0.7826 1.0000 0.9453
1.0000 1.0000 0.9453
