android/app/src/main/assets/luts/warm@1.cube
# Editor for Immich, warm@1 (tool/make_luts.py)
LUT_3D_SIZE 9
0.0000 0.0000 0.0000
0.1323 0.0000 0.0000
0.2624 0.0000 0.0000
0.3924 0.0000 0.0000
0.5225 0.0000 0.0000
0.6525 0.0000 0.0000
0.7826 0.0000 0.0000
0.9127 0.0000 0.0000
1.0000 0.0000 0.0000
0.0000 0.1250 0.0000
0.1323 0.1250 0.0000
0.2624 0.1250 0.0000
0.3924 0.1250 0.0000
0.5225 0.1250 0.0000
0.6525 0.1250 0.0000
0.7826 0.1250 0.0000
0.9127 0.1250 0.0000
1.0000 0.1250 0.0000
0.0000 0.2500 0.0000
0.1323 0.2500 0.0000
0.2624 0.2500 0.0000
0.3924 0.2500 0.0000
0.5225 0.2500 0.0000
0.6525 0.2500 0.0000
0.7826 0.2500 0.0000
0.9127 0.2500 0.0000
1.0000 0.2500 0.0000
0.0000 0.3750 0.0000
0.1323 0.3750 0.0000
0.2624 0.3750 0.0000
0.3924 0.3750 0.0000
0.5225 0.3750 0.0000
0.6525 0.3750 0.0000
0.7826 0.3750 0.0000
0.9127 0.3750 0.0000
1.0000 0.3750 0.0000
0.0000 0.5000 0.0000
0.1323 0.5000 0.0000
0.2624 0.5000 0.0000
0.3924 0.5000 0.0000
0.5225 0.5000 0.0000
0.6525 0.5000 0.0000
0.7826 0.5000 0.0000
0.9127 0.5000 0.0000
1.0000 0.5000 0.0000
0.0000 0.6250 0.0000
0.1323 0.6250 0.0000
0.2624 0.6250 0.0000
0.3924 0.6250 0.0000
0.5225 0.6250 0.0000
0.6525 0.6250 0.0000
0.7826 0.6250 0.0000
0.9127 0.6250 0.0000
1.0000 0.6250 0.0000
0.0000 0.7500 0.0000
0.1323 0.7500 0.0000
0.2624 0.7500 0.0000
0.3924 0.7500 0.0000
0.5225 0.7500 0.0000
0.6525 0.7500 0.0000
0.7826 0.7500 0.0000
0.9127 0.7500 0.0000
1.0000 0.7500 0.0000
0.0000 0.8750 0.0000
0.1323 0.8750 0.0000
0.2624 0.8750 0.0000
0.3924 0.8750 0.0000
0.5225 0.8750 0.0000
0.6525 0.8750 0.0000
0.7826 0.8750 0.0000
0.9127 0.8750 0.0000
1.0000 0.8750 0.0000
0.0000 1.0000 0.0000
0.1323 1.0000 0.0000
0.2624 1.0000 0.0000
0.3924 1.0000 0.0000
0.5225 1.0000 0.0000
0.6525 1.0000 0.0000
0.7826 1.0000 0.0000
0.9127 1.0000 0.0000
1.0000 1.0000 0.0000
0.0000 0.0000 0.1157
0.1323 0.0000 0.1157
0.2624 0.0000 0.1157
0.3924 0.0000 0.1157
0.5225 0.0000 0.1157
0.6525 0.0000 0.1157
0.7826 0.0000 0.1157
0.9127 0.0000 0.1157
1.0000 0.0000 0.1157
0.0000 0.1250 0.1157
0.1323 0.1250 0.1157
0.2624 0.1250 0.1157
0.3924 0.1250 0.1157
0.5225 0.1250 0.1157
0.6525 0.1250 0.1157
0.7826 0.1250 0.1157
0.9127 0.1250 0.1157
1.0000 0.1250 0.1157
0.0000 0.2500 0.1157
0.1323 0.2500 0.1157
0.2624 0.2500 0.1157
0.3924 0.2500 0.1157
0.5225 0.2500 0.1157
0.6525 0.2500 0.1157
0.7826 0.2500 0.1157
0.9127 0.2500 0.1157
1.0000 0.2500 0.1157
0.0000 0.3750 0.1157
0.1323 0.3750 0.1157
0.2624 0.3750 0.1157
0.3924 0.3750 0.1157
0.5225 0.3750 0.1157
0.6525 0.3750 0.1157
0.7826 0.3750 0.1157
0.9127 0.3750 0.1157
1.0000 0.3750 0.1157
0.0000 0.5000 0.1157
0.1323 0.5000 0.1157
0.2624 0.5000 0.1157
0.3924 0.5000 0.1157
0.5225 0.5000 0.1157
0.6525 0.5000 0.1157
0.7826 0.5000 0.1157
0.9127 0.5000 0.1157
1.0000 0.5000 0.1157
0.0000 0.6250 0.1157
0.1323 0.6250 0.1157
0.2624 0.6250 0.1157
0.3924 0.6250 0.1157
0.5225 0.6250 0.1157
0.6525 0.6250 0.1157
0.7826 0.6250 0.1157
0.9127 0.6250 0.1157
1.0000 0.6250 0.1157
0.0000 0.7500 0.1157
0.1323 0.7500 0.1157
0.2624 0.7500 0.1157
0.3924 0.7500 0.1157
0.5225 0.7500 0.1157
0.6525 0.7500 0.1157
0.7826 0.7500 0.1157
0.9127 0.7500 0.1157
1.0000 0.7500 0.1157
0.0000 0.8750 0.1157
0.1323 0.8750 0.1157
0.2624 0.8750 0.1157
0.3924 0.8750 0.1157
0.5225 0.8750 0.1157
0.6525 0.8750 0.1157
0.7826 0.8750 0.1157
0.9127 0.8750 0.1157
1.0000 0.8750 0.1157
0.0000 1.0000 0.1157
0.1323 1.0000 0.1157
0.2624 1.0000 0.1157
0.3924 1.0000 0.1157
0.5225 1.0000 0.1157
0.6525 1.0000 0.1157
0.7826 1.0000 0.1157
0.9127 1.0000 0.1157
1.0000 1.0000 0.1157
0.0000 0.0000 0.2342
0.1323 0.0000 0.2342
0.2624 0.0000 0.2342
0.3924 0.0000 0.2342
0.5225 0.0000 0.2342
0.6525 0.0000 0.2342
0.7826 0.0000 0.2342
0.9127 0.0000 0.2342
1.0000 0.0000 0.2342
0.0000 0.1250 0.2342
0.1323 0.1250 0.2342
0.2624 0.1250 0.2342
0.3924 0.1250 0.2342
0.5225 0.1250 0.2342
0.6525 0.1250 0.2342
0.7826 0.1250 0.2342
0.9127 0.1250 0.2342
1.0000 0.1250 0.2342
0.0000 0.2500 0.2342
0.1323 0.2500 0.2342
0.2624 0.2500 0.2342
0.3924 0.2500 0.2342
0.5225 0.2500 0.2342
0.6525 0.2500 0.2342
0.7826 0.2500 0.2342
0.9127 0.2500 0.2342
1.0000 0.2500 0.2342
0.0000 0.3750 0.2342
0.1323 0.3750 0.2342
0.2624 0.3750 0.2342
0.3924 0.3750 0.2342
0.5225 0.3750 0.2342
0.6525 0.3750 0.2342
0.7826 0.3750 0.2342
0.9127 0.3750 0.2342
1.0000 0.3750 0.2342
0.0000 0.5000 0.2342
0.1323 0.5000 0.2342
0.2624 0.5000 0.2342
0.3924 0.5000 0.2342
0.5225 0.5000 0.2342
0.6525 0.5000 0.2342
0.7826 0.5000 0.2342
0.9127 0.5000 0.2342
1.0000 0.5000 0.2342
0.0000 0.6250 0.2342
0.1323 0.6250 0.2342
0.2624 0.6250 0.2342
0.3924 0.6250 0.2342
0.5225 0.6250 0.2342
0.6525 0.6250 0.2342
0.7826 0.6250 0.2342
0.9127 0.6250 0.2342
1.0000 0.6250 0.2342
0.0000 0.7500 0.2342
0.1323 0.7500 0.2342
0.2624 0.7500 0.2342
0.3924 0.7500 0.2342
0.5225 0.7500 0.2342
0.6525 0.7500 0.2342
0.7826 0.7500 0.2342
0.9127 0.7500 0.2342
1.0000 0.7500 0.2342
0.0000 0.8750 0.2342
0.1323 0.8750 0.2342
0.2624 0.8750 0.2342
0.3924 0.8750 0.2342
0.5225 0.8750 0.2342
0.6525 0.8750 0.2342
0.7826 0.8750 0.2342
0.9127 0.8750 0.2342
1.0000 0.8750 0.2342
0.0000 1.0000 0.2342
0.1323 1.0000 0.2342
0.2624 1.0000 0.2342
0.3924 1.0000 0.2342
0.5225 1.0000 0.2342
0.6525 1.0000 0.2342
0.7826 1.0000 0.2342
0.9127 1.0000 0.2342
1.0000 1.0000 0.2342
0.0000 0.0000 0.3527
0.1323 0.0000 0.3527
0.2624 0.0000 0.3527
0.3924 0.0000 0.3527
0.5225 0.0000 0.3527
0.6525 0.0000 0.3527
0.7826 0.0000 0.3527
0.9127 0.0000 0.3527
1.0000 0.0000 0.3527
0.0000 0.1250 0.3527
0.1323 0.1250 0.3527
0.2624 0.1250 0.3527
0.3924 0.1250 0.3527
0.5225 0.1250 0.3527
0.6525 0.1250 0.3527
0.7826 0.1250 0.3527
0.9127 0.1250 0.3527
1.0000 0.1250 0.3527
0.0000 0.2500 0.3527
0.1323 0.2500 0.3527
0.2624 0.2500 0.3527
0.3924 0.2500 0.3527
0.5225 0.2500 0.3527
0.6525 0.2500 0.3527
0.7826 0.2500 0.3527
0.9127 0.2500 0.3527
1.0000 0.2500 0.3527
0.0000 0.3750 0.3527
0.1323 0.3750 0.3527
0.2624 0.3750 0.3527
0.3924 0.3750 0.3527
0.5225 0.3750 0.3527
0.6525 0.3750 0.3527
0.7826 0.3750 0.3527
0.9127 0.3750 0.3527
1.0000 0.3750 0.3527
0.0000 0.5000 0.3527
0.1323 0.5000 0.3527
0.2624 0.5000 0.3527
0.3924 0.5000 0.3527
0.5225 0.5000 0.3527
0.6525 0.5000 0.3527
0.7826 0.5000 0.3527
0.9127 0.5000 0.3527
1.0000 0.5000 0.3527
0.0000 0.6250 0.3527
0.1323 0.6250 0.3527
0.2624 0.6250 0.3527
0.3924 0.6250 0.3527
0.5225 0.6250 0.3527
0.6525 0.6250 0.3527
0.7826 0.6250 0.3527
0.9127 0.6250 0.3527
1.0000 0.6250 0.3527
0.0000 0.7500 0.3527
0.1323 0.7500 0.3527
0.2624 0.7500 0.3527
0.3924 0.7500 0.3527
0.5225 0.7500 0.3527
0.6525 0.7500 0.3527
0.7826 0.7500 0.3527
0.9127 0.7500 0.3527
1.0000 0.7500 0.3527
0.0000 0.8750 0.3527
0.1323 0.8750 0.3527
0.2624 0.8750 0.3527
0.3924 0.8750 0.3527
0.5225 0.8750 0.3527
0.6525 0.8750 0.3527
0.7826 0.8750 0.3527
0.9127 0.8750 0.3527
1.0000 0.8750 0.3527
0.0000 1.0000 0.3527
0.1323 1.0000 0.3527
0.2624 1.0000 0.3527
0.3924 1.0000 0.3527
0.5225 1.0000 0.3527
0.6525 1.0000 0.3527
0.7826 1.0000 0.3527
0.9127 1.0000 0.3527
1.0000 1.0000 0.3527
0.0000 0.0000 0.4712
0.1323 0.0000 0.4712
0.2624 0.0000 0.4712
0.3924 0.0000 0.4712
0.5225 0.0000 0.4712
0.6525 0.0000 0.4712
0.7826 0.0000 0.4712
0.9127 0.0000 0.4712
1.0000 0.0000 0.4712
0.0000 0.1250 0.4712
0.1323 0.1250 0.4712
0.2624 0.1250 0.4712
0.3924 0.1250 0.4712
0.5225 0.1250 0.4712
0.6525 0.1250 0.4712
0.7826 0.1250 0.4712
0.9127 0.1250 0.4712
1.0000 0.1250 0.4712
0.0000 0.2500 0.4712
0.1323 0.2500 0.4712
0.2624 0.2500 0.4712
0.3924 0.2500 0.4712
0.5225 0.2500 0.4712
0.6525 0.2500 0.4712
0.7826 0.2500 0.4712
0.9127 0.2500 0.4712
1.0000 0.2500 0.4712
0.0000 0.3750 0.4712
0.1323 0.3750 0.4712
0.2624 0.3750 0.4712
0.3924 0.3750 0.4712
0.5225 0.3750 0.4712
0.6525 0.3750 0.4712
0.7826 0.3750 0.4712
0.9127 0.3750 0.4712
1.0000 0.3750 0.4712
0.0000 0.5000 0.4712
0.1323 0.5000 0.4712
0.2624 0.5000 0.4712
0.3924 0.5000 0.4712
0.5225 0.5000 0.4712
0.6525 0.5000 0.4712
0.7826 0.5000 0.4712
0.9127 0.5000 0.4712
1.0000 0.5000 0.4712
0.0000 0.6250 0.4712
0.1323 0.6250 0.4712
0.2624 0.6250 0.4712
0.3924 0.6250 0.4712
0.5225 0.6250 0.4712
0.6525 0.6250 0.4712
0.7826 0.6250 0.4712
0.9127 0.6250 0.4712
1.0000 0.6250 0.4712
0.0000 0.7500 0.4712
0.1323 0.7500 0.4712
0.2624 0.7500 0.4712
0.3924 0.7500 0.4712
0.5225 0.7500 0.4712
0.6525 0.7500 0.4712
0.7826 0.7500 0.4712
0.9127 0.7500 0.4712
1.0000 0.7500 0.4712
0.0000 0.8750 0.4712
0.1323 0.8750 0.4712
0.2624 0.8750 0.4712
0.3924 0.8750 0.4712
0.5225 0.8750 0.4712
0.6525 0.8750 0.4712
0.7826 0.8750 0.4712
0.9127 0.8750 0.4712
1.0000 0.8750 0.4712
0.0000 1.0000 0.4712
0.1323 1.0000 0.4712
0.2624 1.0000 0.4712
0.3924 1.0000 0.4712
0.5225 1.0000 0.4712
0.6525 1.0000 0.4712
0.7826 1.0000 0.4712
0.9127 1.0000 0.4712
1.0000 1.0000 0.4712
0.0000 0.0000 0.5897
0.1323 0.0000 0.5897
0.2624 0.0000 0.5897
0.3924 0.0000 0.5897
0.5225 0.0000 0.5897
0.6525 0.0000 0.5897
0.7826 0.0000 0.5897
0.9127 0.0000 0.5897
1.0000 0.0000 0.5897
0.0000 0.1250 0.5897
0.1323 0.1250 0.5897
0.2624 0.1250 0.5897
0.3924 0.1250 0.5897
0.5225 0.1250 0.5897
0.6525 0.1250 0.5897
0.7826 0.1250 0.5897
0.9127 0.1250 0.5897
1.0000 0.1250 0.5897
0.0000 0.2500 0.5897
0.1323 0.2500 0.5897
0.2624 0.2500 0.5897
0.3924 0.2500 0.5897
0.5225 0.2500 0.5897
0.6525 0.2500 0.5897
0.7826 0.2500 0.5897
0.9127 0.2500 0.5897
1.0000 0.2500 0.5897
0.0000 0.3750 0.5897
0.1323 0.3750 0.5897
0.2624 0.3750 0.5897
0.3924 0.3750 0.5897
0.5225 0.3750 0.5897
0.6525 0.3750 0.5897
0.7826 0.3750 0.5897
0.9127 0.3750 0.5897
1.0000 0.3750 0.5897
0.0000 0.5000 0.5897
0.1323 0.5000 0.5897
0.2624 0.5000 0.5897
0.3924 0.5000 0.5897
0.5225 0.5000 0.5897
0.6525 0.5000 0.5897
0.7826 0.5000 0.5897
0.9127 0.5000 0.5897
1.0000 0.5000 0.5897
0.0000 0.6250 0.5897
0.1323 0.6250 0.5897
0.2624 0.6250 0.5897
0.3924 0.6250 0.5897
0.5225 0.6250 0.5897
0.6525 0.6250 0.5897
0.7826 0.6250 0.5897
0.9127 0.6250 0.5897
1.0000 0.6250 0.5897
0.0000 0.7500 0.5897
0.1323 0.7500 0.5897
0.2624 0.7500 0.5897
0.3924 0.7500 0.5897
0.5225 0.7500 0.5897
0.6525 0.7500 0.5897
0.7826 0.7500 0.5897
0.9127 0.7500 0.5897
1.0000 0.7500 0.5897
0.0000 0.8750 0.5897
0.1323 0.8750 0.5897
0.2624 0.8750 0.5897
0.3924 0.8750 0.5897
0.5225 0.8750 0.5897
0.6525 0.8750 0.5897
0.7826 0.8750 0.5897
0.9127 0.8750 0.5897
1.0000 0.8750 0.5897
0.0000 1.0000 0.5897
0.1323 1.0000 0.5897
0.2624 1.0000 0.5897
0.3924 1.0000 0.5897
0.5225 1.0000 0.5897
0.6525 1.0000 0.5897
0.7826 1.0000 0.5897
0.9127 1.0000 0.5897
1.0000 1.0000 0.5897
0.0000 0.0000 0.7082
0.1323 0.0000 0.7082
0.2624 0.0000 0.7082
0.3924 0.0000 0.7082
0.5225 0.0000 0.7082
0.6525 0.0000 0.7082
0.7826 0.0000 0.7082
0.9127 0.0000 0.7082
1.0000 0.0000 0.7082
0.0000 0.1250 0.7082
0.1323 0.1250 0.7082
0.2624 0.1250 0.7082
0.3924 0.1250 0.7082
0.5225 0.1250 0.7082
0.6525 0.1250 0.7082
0.7826 0.1250 0.7082
0.9127 0.1250 0.7082
1.0000 0.1250 0.7082
0.0000 0.2500 0.7082
0.1323 0.2500 0.7082
0.2624 0.2500 0.7082
0.3924 0.2500 0.7082
0.5225 0.2500 0.7082
0.6525 0.2500 0.7082
0.7826 0.2500 0.7082
0.9127 0.2500 0.7082
1.0000 0.2500 0.7082
0.0000 0.3750 0.7082
0.1323 0.3750 0.7082
0.2624 0.3750 0.7082
0.3924 0.3750 0.7082
0.5225 0.3750 0.7082
0.6525 0.3750 0.7082
0.7826 0.3750 0.7082
0.9127 0.3750 0.7082
1.0000 0.3750 0.7082
0.0000 0.5000 0.7082
0.1323 0.5000 0.7082
0.2624 0.5000 0.7082
0.3924 0.5000 0.7082
0.5225 0.5000 0.7082
0.6525 0.5000 0.7082
0.7826 0.5000 0.7082
0.9127 0.5000 0.7082
1.0000 0.5000 0.7082
0.0000 0.6250 0.7082
0.1323 0.6250 0.7082
0.2624 0.6250 0.7082
0.3924 0.6250 0.7082
0.5225 0.6250 0.7082
0.6525 0.6250 0.7082
0.7826 0.6250 0.7082
0.9127 0.6250 0.7082
1.0000 0.6250 0.7082
0.0000 0.7500 0.7082
0.1323 0.7500 0.7082
0.2624 0.7500 0.7082
0.3924 0.7500 0.7082
0.5225 0.7500 0.7082
0.6525 0.7500 0.7082
0.7826 0.7500 0.7082
0.9127 0.7500 0.7082
1.0000 0.7500 0.7082
0.0000 0.8750 0.7082
0.1323 0.8750 0.7082
0.2624 0.8750 0.7082
0.3924 0.8750 0.7082
0.5225 0.8750 0.7082
0.6525 0.8750 0.7082
0.7826 0.8750 0.7082
0.9127 0.8750 0.7082
1.0000 0.8750 0.7082
0.0000 1.0000 0.7082
0.1323 1.0000 0.7082
0.2624 1.0000 0.7082
0.3924 1.0000 0.7082
0.5225 1.0000 0.7082
0.6525 1.0000 0.7082
0.7826 1.0000 0.7082
0.9127 1.0000 0.7082
1.0000 1.0000 0.7082
0.0000 0.0000 0.8268
0.1323 0.0000 0.8268
0.2624 0.0000 0.8268
0.3924 0.0000 0.8268
0.5225 0.0000 0.8268
0.6525 0.0000 0.8268
0.7826 0.0000 0.8268
0.9127 0.0000 0.8268
1.0000 0.0000 0.8268
0.0000 0.1250 0.8268
0.1323 0.1250 0.8268
0.2624 0.1250 0.8268
0.3924 0.1250 0.8268
0.5225 0.1250 0.8268
0.6525 0.1250 0.8268
0.7826 0.1250 0.8268
0.9127 0.1250 0.8268
1.0000 0.1250 0.8268
0.0000 0.2500 0.8268
0.1323 0.2500 0.8268
0.2624 0.2500 0.8268
0.3924 0.2500 0.8268
0.5225 0.2500 0.8268
0.6525 0.2500 0.8268
0.7826 0.2500 0.8268
0.9127 0.2500 0.8268
1.0000 0.2500 0.8268
0.0000 0.3750 0.8268
0.1323 0.3750 0.8268
0.2624 0.3750 0.8268
0.3924 0.3750 0.8268
0.5225 0.3750 0.8268
0.6525 0.3750 0.8268
0.7826 0.3750 0.8268
0.9127 0.3750 0.8268
1.0000 0.3750 0.8268
0.0000 0.5000 0.8268
0.1323 0.5000 0.8268
0.2624 0.5000 0.8268
0.3924 0.5000 0.8268
0.5225 0.5000 0.8268
0.6525 0.5000 0.8268
0.7826 0.5000 0.8268
0.9127 0.5000 0.8268
1.0000 0.5000 0.8268
0.0000 0.6250 0.8268
0.1323 0.6250 0.8268
0.2624 0.6250 0.8268
0.3924 0.6250 0.8268
0.5225 0.6250 0.8268
0.6525 0.6250 0.8268
0.7826 0.6250 0.8268
0.9127 0.6250 0.8268
1.0000 0.6250 0.8268
0.0000 0.7500 0.8268
0.1323 0.7500 0.8268
0.2624 0.7500 0.8268
0.3924 0.7500 0.8268
0.5225 0.7500 0.8268
0.6525 0.7500 0.8268
0.7826 0.7500 0.8268
0.9127 0.7500 0.8268
1.0000 0.7500 0.8268
0.0000 0.8750 0.8268
0.1323 0.8750 0.8268
0.2624 0.8750 0.8268
0.3924 0.8750 0.8268
0.5225 0.8750 0.8268
0.6525 0.8750 0.8268
0.7826 0.8750 0.8268
0.9127 0.8750 0.8268
1.0000 0.8750 0.8268
0.0000 1.0000 0.8268
0.1323 1.0000 0.8268
0.2624 1.0000 0.8268
0.3924 1.0000 0.8268
0.5225 1.0000 0.8268
0.6525 1.0000 0.8268
0.7826 1.0000 0.8268
0.9127 1.0000 0.8268
1.0000 1.0000 0.8268
0.0000 0.0000 0.9453
0.1323 0.0000 0.9453
0.2624 0.0000 0.9453
0.3924 0.0000 0.9453
0.5225 0.0000 0.9453
0.6525 0.0000 0.9453
0.7826 0.0000 0.9453
0.9127 0.0000 0.9453
1.0000 0.0000 0.9453
0.0000 0.1250 0.9453
0.1323 0.1250 0.9453
0.2624 0.1250 0.9453
0.3924 0.1250 0.9453
0.5225 0.1250 0.9453
0.6525 0.1250 0.9453
0.7826 0.1250 0.9453
0.9127 0.1250 0.9453
1.0000 0.1250 0.9453
0.0000 0.2500 0.9453
0.1323 0.2500 0.9453
0.2624 0.2500 0.9453
0.3924 0.2500 0.9453
0.5225 0.2500 0.9453
0.6525 0.2500 0.9453
0.7826 0.2500 0.9453
0.9127 0.2500 0.9453
1.0000 0.2500 0.9453
0.0000 0.3750 0.9453
0.1323 0.3750 0.9453
0.2624 0.3750 0.9453
0.3924 0.3750 0.9453
0.5225 0.3750 0.9453
0.6525 0.3750 0.9453
0.7826 0.3750 0.9453
0.9127 0.3750 0.9453
1.0000 0.3750 0.9453
0.0000 0.5000 0.9453
0.1323 0.5000 0.9453
0.2624 0.5000 0.9453
0.3924 0.5000 0.9453
0.5225 0.5000 0.9453
0.6525 0.5000 0.9453
0.7826 0.5000 0.9453
0.9127 0.5000 0.9453
1.0000 0.5000 0.9453
0.0000 0.6250 0.9453
0.1323 0.6250 0.9453
0.2624 0.6250 0.9453
0.3924 0.6250 0.9453
0.5225 0.6250 0.9453
0.6525 0.6250 0.9453
0.7826 0.6250 0.9453
0.9127 0.6250 0.9453
1.0000 0.6250 0.9453
0.0000 0.7500 0.9453
0.1323 0.7500 0.9453
0.2624 0.7500 0.9453
0.3924 0.7500 0.9453
0.5225 0.7500 0.9453
0.6525 0.7500 0.9453
0.7826 0.7500 0.9453
0.9127 0.7500 0.9453
1.0000 0.7500 0.9453
0.0000 0.8750 0.9453
0.1323 0.8750 0.9453
0.2624 0.8750 0.9453
0.3924 0.8750 0.9453
0.5225 0.8750 0.9453
0.6525 0.8750 0.9453
0.7826 0.8750 0.9453
0.9127 0.8750 0.9453
1.0000 0.8750 0.9453
0.0000 1.0000 0.9453
0.1323 1.0000 0.9453
0.2624 1.0000 0.9453
0.3924 1.0000 0.9453
0.5225 1.0000 0.9453
0.6525 1.0000 0.9453
0.7826 1.0000 0.9453
0.9127 1.0000 0.9453
1.0000 1.0000 0.9453
